(/Applications/EAGLE-7.7.0/ulp/pcb-gcode.ulp)
(Copyright 2005 - 2012 by John Johnson)
(See readme.txt for licensing terms.)
(This file generated from the board:)
(.../AssetTracker/HologramAssetTrackker.brd)
(Current profile is .../EAGLE-7.7.0/ulp/profiles/generic.pp  )
(This file generated 11/30/17 10:44 AM)
(Settings from pcb-machine.h)
(spindle on time = 3.0000)
(  Tool Size)
(0.1778 )
(spindle speed = 30000.0000)
(tool change at 0.0000 0.0000 101.6000 )
(feed rate xy = F508.00 )
(feed rate z  = F254.00 )
(Z Axis Settings)
(  High     Up        Down     Drill)
(12.7000 	2.5400 	-0.0254 	-0.5000 )
(Settings from pcb-defaults.h)
(isolate min = 0.0000)
(isolate max = 0.1270)
(isolate step = 0.0508)
(Generated top outlines, top drill, bottom outlines, bottom drill, )
(Unit of measure: mm)
(Metric Mode)
G21
(Absolute Coordinates)
G90
S30000
G00 Z12.7000 
G00 X0.0000 Y0.0000 
M03
G04 P3.000000
G00 Z2.5400 
G00 X7.8764 Y17.7916 
G01 Z-0.0254 F254.00 
G01 X7.7694 Y17.9518 F508.00 
G01 X7.6957 Y18.1298 
G01 X7.6581 Y18.3187 
G01 X7.6581 Y18.5113 
G01 X7.6957 Y18.7002 
G01 X7.7694 Y18.8782 
G01 X7.8764 Y19.0384 
G01 X8.0126 Y19.1746 
G01 X8.1728 Y19.2816 
G01 X8.3508 Y19.3553 
G01 X8.5397 Y19.3929 
G01 X10.5103 Y19.3929 
G01 X10.6992 Y19.3553 
G01 X10.8772 Y19.2816 
G01 X11.0374 Y19.1746 
G01 X11.1736 Y19.0384 
G01 X11.2806 Y18.8782 
G01 X11.3543 Y18.7002 
G01 X11.3919 Y18.5113 
G01 X11.3919 Y18.3187 
G01 X11.3543 Y18.1298 
G01 X11.2806 Y17.9518 
G01 X11.1736 Y17.7916 
G01 X11.0374 Y17.6554 
G01 X10.8772 Y17.5484 
G01 X10.6992 Y17.4747 
G01 X10.5103 Y17.4371 
G01 X8.5397 Y17.4371 
G01 X8.3508 Y17.4747 
G01 X8.1728 Y17.5484 
G01 X8.0126 Y17.6554 
G01 X7.8764 Y17.7916 
G00 Z2.5400 
G00 X7.8764 Y20.3316 
G01 Z-0.0254 F254.00 
G01 X7.7694 Y20.4918 F508.00 
G01 X7.6957 Y20.6698 
G01 X7.6581 Y20.8587 
G01 X7.6581 Y21.0513 
G01 X7.6957 Y21.2402 
G01 X7.7694 Y21.4182 
G01 X7.8764 Y21.5784 
G01 X8.0126 Y21.7146 
G01 X8.1728 Y21.8216 
G01 X8.3508 Y21.8953 
G01 X8.5397 Y21.9329 
G01 X10.5103 Y21.9329 
G01 X10.6992 Y21.8953 
G01 X10.8772 Y21.8216 
G01 X11.0374 Y21.7146 
G01 X11.1736 Y21.5784 
G01 X11.2806 Y21.4182 
G01 X11.3543 Y21.2402 
G01 X11.3919 Y21.0513 
G01 X11.3919 Y20.8587 
G01 X11.3543 Y20.6698 
G01 X11.2806 Y20.4918 
G01 X11.1736 Y20.3316 
G01 X11.0374 Y20.1954 
G01 X10.8772 Y20.0884 
G01 X10.6992 Y20.0147 
G01 X10.5103 Y19.9771 
G01 X8.5397 Y19.9771 
G01 X8.3508 Y20.0147 
G01 X8.1728 Y20.0884 
G01 X8.0126 Y20.1954 
G01 X7.8764 Y20.3316 
G00 Z2.5400 
G00 X7.8764 Y22.8716 
G01 Z-0.0254 F254.00 
G01 X7.7694 Y23.0318 F508.00 
G01 X7.6957 Y23.2098 
G01 X7.6581 Y23.3987 
G01 X7.6581 Y23.5913 
G01 X7.6957 Y23.7802 
G01 X7.7694 Y23.9582 
G01 X7.8764 Y24.1184 
G01 X8.0126 Y24.2546 
G01 X8.1728 Y24.3616 
G01 X8.3508 Y24.4353 
G01 X8.5397 Y24.4729 
G01 X10.5103 Y24.4729 
G01 X10.6992 Y24.4353 
G01 X10.8772 Y24.3616 
G01 X11.0374 Y24.2546 
G01 X11.1736 Y24.1184 
G01 X11.2806 Y23.9582 
G01 X11.3543 Y23.7802 
G01 X11.3919 Y23.5913 
G01 X11.3919 Y23.3987 
G01 X11.3543 Y23.2098 
G01 X11.2806 Y23.0318 
G01 X11.1736 Y22.8716 
G01 X11.0374 Y22.7354 
G01 X10.8772 Y22.6284 
G01 X10.6992 Y22.5547 
G01 X10.5103 Y22.5171 
G01 X8.5397 Y22.5171 
G01 X8.3508 Y22.5547 
G01 X8.1728 Y22.6284 
G01 X8.0126 Y22.7354 
G01 X7.8764 Y22.8716 
G00 Z2.5400 
G00 X7.8764 Y25.4116 
G01 Z-0.0254 F254.00 
G01 X7.7694 Y25.5718 F508.00 
G01 X7.6957 Y25.7498 
G01 X7.6581 Y25.9387 
G01 X7.6581 Y26.1313 
G01 X7.6957 Y26.3202 
G01 X7.7694 Y26.4982 
G01 X7.8764 Y26.6584 
G01 X8.0126 Y26.7946 
G01 X8.1728 Y26.9016 
G01 X8.3508 Y26.9753 
G01 X8.5397 Y27.0129 
G01 X10.5103 Y27.0129 
G01 X10.6992 Y26.9753 
G01 X10.8772 Y26.9016 
G01 X11.0374 Y26.7946 
G01 X11.1736 Y26.6584 
G01 X11.2806 Y26.4982 
G01 X11.3543 Y26.3202 
G01 X11.3919 Y26.1313 
G01 X11.3919 Y25.9387 
G01 X11.3543 Y25.7498 
G01 X11.2806 Y25.5718 
G01 X11.1736 Y25.4116 
G01 X11.0374 Y25.2754 
G01 X10.8772 Y25.1684 
G01 X10.6992 Y25.0947 
G01 X10.5103 Y25.0571 
G01 X8.5397 Y25.0571 
G01 X8.3508 Y25.0947 
G01 X8.1728 Y25.1684 
G01 X8.0126 Y25.2754 
G01 X7.8764 Y25.4116 
G00 Z2.5400 
G00 X7.8764 Y27.9516 
G01 Z-0.0254 F254.00 
G01 X7.7694 Y28.1118 F508.00 
G01 X7.6957 Y28.2898 
G01 X7.6581 Y28.4787 
G01 X7.6581 Y28.6713 
G01 X7.6957 Y28.8602 
G01 X7.7694 Y29.0382 
G01 X7.8764 Y29.1984 
G01 X8.0126 Y29.3346 
G01 X8.1728 Y29.4416 
G01 X8.3508 Y29.5153 
G01 X8.5397 Y29.5529 
G01 X10.5103 Y29.5529 
G01 X10.6992 Y29.5153 
G01 X10.8772 Y29.4416 
G01 X11.0374 Y29.3346 
G01 X11.1736 Y29.1984 
G01 X11.2806 Y29.0382 
G01 X11.3543 Y28.8602 
G01 X11.3919 Y28.6713 
G01 X11.3919 Y28.4787 
G01 X11.3543 Y28.2898 
G01 X11.2806 Y28.1118 
G01 X11.1736 Y27.9516 
G01 X11.0374 Y27.8154 
G01 X10.8772 Y27.7084 
G01 X10.6992 Y27.6347 
G01 X10.5103 Y27.5971 
G01 X8.5397 Y27.5971 
G01 X8.3508 Y27.6347 
G01 X8.1728 Y27.7084 
G01 X8.0126 Y27.8154 
G01 X7.8764 Y27.9516 
G00 Z2.5400 
G00 X7.8764 Y30.4916 
G01 Z-0.0254 F254.00 
G01 X7.7694 Y30.6518 F508.00 
G01 X7.6957 Y30.8298 
G01 X7.6581 Y31.0187 
G01 X7.6581 Y31.2113 
G01 X7.6957 Y31.4002 
G01 X7.7694 Y31.5782 
G01 X7.8764 Y31.7384 
G01 X8.0126 Y31.8746 
G01 X8.1728 Y31.9816 
G01 X8.3508 Y32.0553 
G01 X8.5397 Y32.0929 
G01 X10.5103 Y32.0929 
G01 X10.6992 Y32.0553 
G01 X10.8772 Y31.9816 
G01 X11.0374 Y31.8746 
G01 X11.1736 Y31.7384 
G01 X11.2806 Y31.5782 
G01 X11.3543 Y31.4002 
G01 X11.3919 Y31.2113 
G01 X11.3919 Y31.0187 
G01 X11.3543 Y30.8298 
G01 X11.2806 Y30.6518 
G01 X11.1736 Y30.4916 
G01 X11.0374 Y30.3554 
G01 X10.8772 Y30.2484 
G01 X10.6992 Y30.1747 
G01 X10.5103 Y30.1371 
G01 X8.5397 Y30.1371 
G01 X8.3508 Y30.1747 
G01 X8.1728 Y30.2484 
G01 X8.0126 Y30.3554 
G01 X7.8764 Y30.4916 
G00 Z2.5400 
G00 X7.8764 Y33.0316 
G01 Z-0.0254 F254.00 
G01 X7.7694 Y33.1918 F508.00 
G01 X7.6957 Y33.3698 
G01 X7.6581 Y33.5587 
G01 X7.6581 Y33.7513 
G01 X7.6957 Y33.9402 
G01 X7.7694 Y34.1182 
G01 X7.8764 Y34.2784 
G01 X8.0126 Y34.4146 
G01 X8.1728 Y34.5216 
G01 X8.3508 Y34.5953 
G01 X8.5397 Y34.6329 
G01 X10.5103 Y34.6329 
G01 X10.6992 Y34.5953 
G01 X10.8772 Y34.5216 
G01 X11.0374 Y34.4146 
G01 X11.1736 Y34.2784 
G01 X11.2806 Y34.1182 
G01 X11.3543 Y33.9402 
G01 X11.3919 Y33.7513 
G01 X11.3919 Y33.5587 
G01 X11.3543 Y33.3698 
G01 X11.2806 Y33.1918 
G01 X11.1736 Y33.0316 
G01 X11.0374 Y32.8954 
G01 X10.8772 Y32.7884 
G01 X10.6992 Y32.7147 
G01 X10.5103 Y32.6771 
G01 X8.5397 Y32.6771 
G01 X8.3508 Y32.7147 
G01 X8.1728 Y32.7884 
G01 X8.0126 Y32.8954 
G01 X7.8764 Y33.0316 
G00 Z2.5400 
G00 X7.8764 Y35.5716 
G01 Z-0.0254 F254.00 
G01 X7.7694 Y35.7318 F508.00 
G01 X7.6957 Y35.9098 
G01 X7.6581 Y36.0987 
G01 X7.6581 Y36.2913 
G01 X7.6957 Y36.4802 
G01 X7.7694 Y36.6582 
G01 X7.8764 Y36.8184 
G01 X8.0126 Y36.9546 
G01 X8.1728 Y37.0616 
G01 X8.3508 Y37.1353 
G01 X8.5397 Y37.1729 
G01 X10.5103 Y37.1729 
G01 X10.6992 Y37.1353 
G01 X10.8772 Y37.0616 
G01 X11.0374 Y36.9546 
G01 X11.1736 Y36.8184 
G01 X11.2806 Y36.6582 
G01 X11.3543 Y36.4802 
G01 X11.3919 Y36.2913 
G01 X11.3919 Y36.0987 
G01 X11.3543 Y35.9098 
G01 X11.2806 Y35.7318 
G01 X11.1736 Y35.5716 
G01 X11.0374 Y35.4354 
G01 X10.8772 Y35.3284 
G01 X10.6992 Y35.2547 
G01 X10.5103 Y35.2171 
G01 X8.5397 Y35.2171 
G01 X8.3508 Y35.2547 
G01 X8.1728 Y35.3284 
G01 X8.0126 Y35.4354 
G01 X7.8764 Y35.5716 
G00 Z2.5400 
G00 X21.0816 Y30.3076 
G01 Z-0.0254 F254.00 
G01 X21.2418 Y30.4146 F508.00 
G01 X21.4198 Y30.4883 
G01 X21.6087 Y30.5259 
G01 X21.8013 Y30.5259 
G01 X21.9902 Y30.4883 
G01 X22.1682 Y30.4146 
G01 X22.3284 Y30.3076 
G01 X22.4646 Y30.1714 
G01 X22.5716 Y30.0112 
G01 X22.6453 Y29.8332 
G01 X22.6829 Y29.6443 
G01 X22.6829 Y27.6737 
G01 X22.6453 Y27.4848 
G01 X22.5716 Y27.3068 
G01 X22.4646 Y27.1466 
G01 X22.3284 Y27.0104 
G01 X22.1682 Y26.9034 
G01 X21.9902 Y26.8297 
G01 X21.8013 Y26.7921 
G01 X21.6087 Y26.7921 
G01 X21.4198 Y26.8297 
G01 X21.2418 Y26.9034 
G01 X21.0816 Y27.0104 
G01 X20.9454 Y27.1466 
G01 X20.8384 Y27.3068 
G01 X20.7647 Y27.4848 
G01 X20.7271 Y27.6737 
G01 X20.7271 Y29.6443 
G01 X20.7647 Y29.8332 
G01 X20.8384 Y30.0112 
G01 X20.9454 Y30.1714 
G01 X21.0816 Y30.3076 
G00 Z2.5400 
G00 X23.6216 Y30.3076 
G01 Z-0.0254 F254.00 
G01 X23.7818 Y30.4146 F508.00 
G01 X23.9598 Y30.4883 
G01 X24.1487 Y30.5259 
G01 X24.3413 Y30.5259 
G01 X24.5302 Y30.4883 
G01 X24.7082 Y30.4146 
G01 X24.8684 Y30.3076 
G01 X25.0046 Y30.1714 
G01 X25.1116 Y30.0112 
G01 X25.1853 Y29.8332 
G01 X25.2229 Y29.6443 
G01 X25.2229 Y27.6737 
G01 X25.1853 Y27.4848 
G01 X25.1116 Y27.3068 
G01 X25.0046 Y27.1466 
G01 X24.8684 Y27.0104 
G01 X24.7082 Y26.9034 
G01 X24.5302 Y26.8297 
G01 X24.3413 Y26.7921 
G01 X24.1487 Y26.7921 
G01 X23.9598 Y26.8297 
G01 X23.7818 Y26.9034 
G01 X23.6216 Y27.0104 
G01 X23.4854 Y27.1466 
G01 X23.3784 Y27.3068 
G01 X23.3047 Y27.4848 
G01 X23.2671 Y27.6737 
G01 X23.2671 Y29.6443 
G01 X23.3047 Y29.8332 
G01 X23.3784 Y30.0112 
G01 X23.4854 Y30.1714 
G01 X23.6216 Y30.3076 
G00 Z2.5400 
G00 X26.1616 Y30.3076 
G01 Z-0.0254 F254.00 
G01 X26.3218 Y30.4146 F508.00 
G01 X26.4998 Y30.4883 
G01 X26.6887 Y30.5259 
G01 X26.8813 Y30.5259 
G01 X27.0702 Y30.4883 
G01 X27.2482 Y30.4146 
G01 X27.4084 Y30.3076 
G01 X27.5446 Y30.1714 
G01 X27.6516 Y30.0112 
G01 X27.7253 Y29.8332 
G01 X27.7629 Y29.6443 
G01 X27.7629 Y27.6737 
G01 X27.7253 Y27.4848 
G01 X27.6516 Y27.3068 
G01 X27.5446 Y27.1466 
G01 X27.4084 Y27.0104 
G01 X27.2482 Y26.9034 
G01 X27.0702 Y26.8297 
G01 X26.8813 Y26.7921 
G01 X26.6887 Y26.7921 
G01 X26.4998 Y26.8297 
G01 X26.3218 Y26.9034 
G01 X26.1616 Y27.0104 
G01 X26.0254 Y27.1466 
G01 X25.9184 Y27.3068 
G01 X25.8447 Y27.4848 
G01 X25.8071 Y27.6737 
G01 X25.8071 Y29.6443 
G01 X25.8447 Y29.8332 
G01 X25.9184 Y30.0112 
G01 X26.0254 Y30.1714 
G01 X26.1616 Y30.3076 
G00 Z2.5400 
G00 X28.7016 Y30.3076 
G01 Z-0.0254 F254.00 
G01 X28.8618 Y30.4146 F508.00 
G01 X29.0398 Y30.4883 
G01 X29.2287 Y30.5259 
G01 X29.4213 Y30.5259 
G01 X29.6102 Y30.4883 
G01 X29.7882 Y30.4146 
G01 X29.9484 Y30.3076 
G01 X30.0846 Y30.1714 
G01 X30.1916 Y30.0112 
G01 X30.2653 Y29.8332 
G01 X30.3029 Y29.6443 
G01 X30.3029 Y27.6737 
G01 X30.2653 Y27.4848 
G01 X30.1916 Y27.3068 
G01 X30.0846 Y27.1466 
G01 X29.9484 Y27.0104 
G01 X29.7882 Y26.9034 
G01 X29.6102 Y26.8297 
G01 X29.4213 Y26.7921 
G01 X29.2287 Y26.7921 
G01 X29.0398 Y26.8297 
G01 X28.8618 Y26.9034 
G01 X28.7016 Y27.0104 
G01 X28.5654 Y27.1466 
G01 X28.4584 Y27.3068 
G01 X28.3847 Y27.4848 
G01 X28.3471 Y27.6737 
G01 X28.3471 Y29.6443 
G01 X28.3847 Y29.8332 
G01 X28.4584 Y30.0112 
G01 X28.5654 Y30.1714 
G01 X28.7016 Y30.3076 
G00 Z2.5400 
G00 X31.2416 Y30.3076 
G01 Z-0.0254 F254.00 
G01 X31.4018 Y30.4146 F508.00 
G01 X31.5798 Y30.4883 
G01 X31.7687 Y30.5259 
G01 X31.9613 Y30.5259 
G01 X32.1502 Y30.4883 
G01 X32.3282 Y30.4146 
G01 X32.4884 Y30.3076 
G01 X32.6246 Y30.1714 
G01 X32.7316 Y30.0112 
G01 X32.8053 Y29.8332 
G01 X32.8429 Y29.6443 
G01 X32.8429 Y27.6737 
G01 X32.8053 Y27.4848 
G01 X32.7316 Y27.3068 
G01 X32.6246 Y27.1466 
G01 X32.4884 Y27.0104 
G01 X32.3282 Y26.9034 
G01 X32.1502 Y26.8297 
G01 X31.9613 Y26.7921 
G01 X31.7687 Y26.7921 
G01 X31.5798 Y26.8297 
G01 X31.4018 Y26.9034 
G01 X31.2416 Y27.0104 
G01 X31.1054 Y27.1466 
G01 X30.9984 Y27.3068 
G01 X30.9247 Y27.4848 
G01 X30.8871 Y27.6737 
G01 X30.8871 Y29.6443 
G01 X30.9247 Y29.8332 
G01 X30.9984 Y30.0112 
G01 X31.1054 Y30.1714 
G01 X31.2416 Y30.3076 
G00 Z2.5400 
G00 X33.7816 Y30.3076 
G01 Z-0.0254 F254.00 
G01 X33.9418 Y30.4146 F508.00 
G01 X34.1198 Y30.4883 
G01 X34.3087 Y30.5259 
G01 X34.5013 Y30.5259 
G01 X34.6902 Y30.4883 
G01 X34.8682 Y30.4146 
G01 X35.0284 Y30.3076 
G01 X35.1646 Y30.1714 
G01 X35.2716 Y30.0112 
G01 X35.3453 Y29.8332 
G01 X35.3829 Y29.6443 
G01 X35.3829 Y27.6737 
G01 X35.3453 Y27.4848 
G01 X35.2716 Y27.3068 
G01 X35.1646 Y27.1466 
G01 X35.0284 Y27.0104 
G01 X34.8682 Y26.9034 
G01 X34.6902 Y26.8297 
G01 X34.5013 Y26.7921 
G01 X34.3087 Y26.7921 
G01 X34.1198 Y26.8297 
G01 X33.9418 Y26.9034 
G01 X33.7816 Y27.0104 
G01 X33.6454 Y27.1466 
G01 X33.5384 Y27.3068 
G01 X33.4647 Y27.4848 
G01 X33.4271 Y27.6737 
G01 X33.4271 Y29.6443 
G01 X33.4647 Y29.8332 
G01 X33.5384 Y30.0112 
G01 X33.6454 Y30.1714 
G01 X33.7816 Y30.3076 
G00 Z2.5400 
G00 X36.3216 Y30.3076 
G01 Z-0.0254 F254.00 
G01 X36.4818 Y30.4146 F508.00 
G01 X36.6598 Y30.4883 
G01 X36.8487 Y30.5259 
G01 X37.0413 Y30.5259 
G01 X37.2302 Y30.4883 
G01 X37.4082 Y30.4146 
G01 X37.5684 Y30.3076 
G01 X37.7046 Y30.1714 
G01 X37.8116 Y30.0112 
G01 X37.8853 Y29.8332 
G01 X37.9229 Y29.6443 
G01 X37.9229 Y27.6737 
G01 X37.8853 Y27.4848 
G01 X37.8116 Y27.3068 
G01 X37.7046 Y27.1466 
G01 X37.5684 Y27.0104 
G01 X37.4082 Y26.9034 
G01 X37.2302 Y26.8297 
G01 X37.0413 Y26.7921 
G01 X36.8487 Y26.7921 
G01 X36.6598 Y26.8297 
G01 X36.4818 Y26.9034 
G01 X36.3216 Y27.0104 
G01 X36.1854 Y27.1466 
G01 X36.0784 Y27.3068 
G01 X36.0047 Y27.4848 
G01 X35.9671 Y27.6737 
G01 X35.9671 Y29.6443 
G01 X36.0047 Y29.8332 
G01 X36.0784 Y30.0112 
G01 X36.1854 Y30.1714 
G01 X36.3216 Y30.3076 
G00 Z2.5400 
G00 X38.8616 Y30.3076 
G01 Z-0.0254 F254.00 
G01 X39.0218 Y30.4146 F508.00 
G01 X39.1998 Y30.4883 
G01 X39.3887 Y30.5259 
G01 X39.5813 Y30.5259 
G01 X39.7702 Y30.4883 
G01 X39.9482 Y30.4146 
G01 X40.1084 Y30.3076 
G01 X40.2446 Y30.1714 
G01 X40.3516 Y30.0112 
G01 X40.4253 Y29.8332 
G01 X40.4629 Y29.6443 
G01 X40.4629 Y27.6737 
G01 X40.4253 Y27.4848 
G01 X40.3516 Y27.3068 
G01 X40.2446 Y27.1466 
G01 X40.1084 Y27.0104 
G01 X39.9482 Y26.9034 
G01 X39.7702 Y26.8297 
G01 X39.5813 Y26.7921 
G01 X39.3887 Y26.7921 
G01 X39.1998 Y26.8297 
G01 X39.0218 Y26.9034 
G01 X38.8616 Y27.0104 
G01 X38.7254 Y27.1466 
G01 X38.6184 Y27.3068 
G01 X38.5447 Y27.4848 
G01 X38.5071 Y27.6737 
G01 X38.5071 Y29.6443 
G01 X38.5447 Y29.8332 
G01 X38.6184 Y30.0112 
G01 X38.7254 Y30.1714 
G01 X38.8616 Y30.3076 
G00 Z2.5400 
G00 X41.4016 Y30.3076 
G01 Z-0.0254 F254.00 
G01 X41.5618 Y30.4146 F508.00 
G01 X41.7398 Y30.4883 
G01 X41.9287 Y30.5259 
G01 X42.1213 Y30.5259 
G01 X42.3102 Y30.4883 
G01 X42.4882 Y30.4146 
G01 X42.6484 Y30.3076 
G01 X42.7846 Y30.1714 
G01 X42.8916 Y30.0112 
G01 X42.9653 Y29.8332 
G01 X43.0029 Y29.6443 
G01 X43.0029 Y27.6737 
G01 X42.9653 Y27.4848 
G01 X42.8916 Y27.3068 
G01 X42.7846 Y27.1466 
G01 X42.6484 Y27.0104 
G01 X42.4882 Y26.9034 
G01 X42.3102 Y26.8297 
G01 X42.1213 Y26.7921 
G01 X41.9287 Y26.7921 
G01 X41.7398 Y26.8297 
G01 X41.5618 Y26.9034 
G01 X41.4016 Y27.0104 
G01 X41.2654 Y27.1466 
G01 X41.1584 Y27.3068 
G01 X41.0847 Y27.4848 
G01 X41.0471 Y27.6737 
G01 X41.0471 Y29.6443 
G01 X41.0847 Y29.8332 
G01 X41.1584 Y30.0112 
G01 X41.2654 Y30.1714 
G01 X41.4016 Y30.3076 
G00 Z2.5400 
G00 X43.9416 Y30.3076 
G01 Z-0.0254 F254.00 
G01 X44.1018 Y30.4146 F508.00 
G01 X44.2798 Y30.4883 
G01 X44.4687 Y30.5259 
G01 X44.6613 Y30.5259 
G01 X44.8502 Y30.4883 
G01 X45.0282 Y30.4146 
G01 X45.1884 Y30.3076 
G01 X45.3246 Y30.1714 
G01 X45.4316 Y30.0112 
G01 X45.5053 Y29.8332 
G01 X45.5429 Y29.6443 
G01 X45.5429 Y27.6737 
G01 X45.5053 Y27.4848 
G01 X45.4316 Y27.3068 
G01 X45.3246 Y27.1466 
G01 X45.1884 Y27.0104 
G01 X45.0282 Y26.9034 
G01 X44.8502 Y26.8297 
G01 X44.6613 Y26.7921 
G01 X44.4687 Y26.7921 
G01 X44.2798 Y26.8297 
G01 X44.1018 Y26.9034 
G01 X43.9416 Y27.0104 
G01 X43.8054 Y27.1466 
G01 X43.6984 Y27.3068 
G01 X43.6247 Y27.4848 
G01 X43.5871 Y27.6737 
G01 X43.5871 Y29.6443 
G01 X43.6247 Y29.8332 
G01 X43.6984 Y30.0112 
G01 X43.8054 Y30.1714 
G01 X43.9416 Y30.3076 
G00 Z2.5400 
G00 X46.4816 Y30.3076 
G01 Z-0.0254 F254.00 
G01 X46.6418 Y30.4146 F508.00 
G01 X46.8198 Y30.4883 
G01 X47.0087 Y30.5259 
G01 X47.2013 Y30.5259 
G01 X47.3902 Y30.4883 
G01 X47.5682 Y30.4146 
G01 X47.7284 Y30.3076 
G01 X47.8646 Y30.1714 
G01 X47.9716 Y30.0112 
G01 X48.0453 Y29.8332 
G01 X48.0829 Y29.6443 
G01 X48.0829 Y27.6737 
G01 X48.0453 Y27.4848 
G01 X47.9716 Y27.3068 
G01 X47.8646 Y27.1466 
G01 X47.7284 Y27.0104 
G01 X47.5682 Y26.9034 
G01 X47.3902 Y26.8297 
G01 X47.2013 Y26.7921 
G01 X47.0087 Y26.7921 
G01 X46.8198 Y26.8297 
G01 X46.6418 Y26.9034 
G01 X46.4816 Y27.0104 
G01 X46.3454 Y27.1466 
G01 X46.2384 Y27.3068 
G01 X46.1647 Y27.4848 
G01 X46.1271 Y27.6737 
G01 X46.1271 Y29.6443 
G01 X46.1647 Y29.8332 
G01 X46.2384 Y30.0112 
G01 X46.3454 Y30.1714 
G01 X46.4816 Y30.3076 
G00 Z2.5400 
G00 X49.0216 Y30.3076 
G01 Z-0.0254 F254.00 
G01 X49.1818 Y30.4146 F508.00 
G01 X49.3598 Y30.4883 
G01 X49.5487 Y30.5259 
G01 X49.7413 Y30.5259 
G01 X49.9302 Y30.4883 
G01 X50.1082 Y30.4146 
G01 X50.2684 Y30.3076 
G01 X50.4046 Y30.1714 
G01 X50.5116 Y30.0112 
G01 X50.5853 Y29.8332 
G01 X50.6229 Y29.6443 
G01 X50.6229 Y27.6737 
G01 X50.5853 Y27.4848 
G01 X50.5116 Y27.3068 
G01 X50.4046 Y27.1466 
G01 X50.2684 Y27.0104 
G01 X50.1082 Y26.9034 
G01 X49.9302 Y26.8297 
G01 X49.7413 Y26.7921 
G01 X49.5487 Y26.7921 
G01 X49.3598 Y26.8297 
G01 X49.1818 Y26.9034 
G01 X49.0216 Y27.0104 
G01 X48.8854 Y27.1466 
G01 X48.7784 Y27.3068 
G01 X48.7047 Y27.4848 
G01 X48.6671 Y27.6737 
G01 X48.6671 Y29.6443 
G01 X48.7047 Y29.8332 
G01 X48.7784 Y30.0112 
G01 X48.8854 Y30.1714 
G01 X49.0216 Y30.3076 
G00 Z2.5400 
G00 X51.5616 Y30.3076 
G01 Z-0.0254 F254.00 
G01 X51.7218 Y30.4146 F508.00 
G01 X51.8998 Y30.4883 
G01 X52.0887 Y30.5259 
G01 X52.2813 Y30.5259 
G01 X52.4702 Y30.4883 
G01 X52.6482 Y30.4146 
G01 X52.8084 Y30.3076 
G01 X52.9446 Y30.1714 
G01 X53.0516 Y30.0112 
G01 X53.1253 Y29.8332 
G01 X53.1629 Y29.6443 
G01 X53.1629 Y27.6737 
G01 X53.1253 Y27.4848 
G01 X53.0516 Y27.3068 
G01 X52.9446 Y27.1466 
G01 X52.8084 Y27.0104 
G01 X52.6482 Y26.9034 
G01 X52.4702 Y26.8297 
G01 X52.2813 Y26.7921 
G01 X52.0887 Y26.7921 
G01 X51.8998 Y26.8297 
G01 X51.7218 Y26.9034 
G01 X51.5616 Y27.0104 
G01 X51.4254 Y27.1466 
G01 X51.3184 Y27.3068 
G01 X51.2447 Y27.4848 
G01 X51.2071 Y27.6737 
G01 X51.2071 Y29.6443 
G01 X51.2447 Y29.8332 
G01 X51.3184 Y30.0112 
G01 X51.4254 Y30.1714 
G01 X51.5616 Y30.3076 
G00 Z2.5400 
G00 X54.1016 Y30.3076 
G01 Z-0.0254 F254.00 
G01 X54.2618 Y30.4146 F508.00 
G01 X54.4398 Y30.4883 
G01 X54.6287 Y30.5259 
G01 X54.8213 Y30.5259 
G01 X55.0102 Y30.4883 
G01 X55.1882 Y30.4146 
G01 X55.3484 Y30.3076 
G01 X55.4846 Y30.1714 
G01 X55.5916 Y30.0112 
G01 X55.6653 Y29.8332 
G01 X55.7029 Y29.6443 
G01 X55.7029 Y27.6737 
G01 X55.6653 Y27.4848 
G01 X55.5916 Y27.3068 
G01 X55.4846 Y27.1466 
G01 X55.3484 Y27.0104 
G01 X55.1882 Y26.9034 
G01 X55.0102 Y26.8297 
G01 X54.8213 Y26.7921 
G01 X54.6287 Y26.7921 
G01 X54.4398 Y26.8297 
G01 X54.2618 Y26.9034 
G01 X54.1016 Y27.0104 
G01 X53.9654 Y27.1466 
G01 X53.8584 Y27.3068 
G01 X53.7847 Y27.4848 
G01 X53.7471 Y27.6737 
G01 X53.7471 Y29.6443 
G01 X53.7847 Y29.8332 
G01 X53.8584 Y30.0112 
G01 X53.9654 Y30.1714 
G01 X54.1016 Y30.3076 
G00 Z2.5400 
G00 X56.6416 Y30.3076 
G01 Z-0.0254 F254.00 
G01 X56.8018 Y30.4146 F508.00 
G01 X56.9798 Y30.4883 
G01 X57.1687 Y30.5259 
G01 X57.3613 Y30.5259 
G01 X57.5502 Y30.4883 
G01 X57.7282 Y30.4146 
G01 X57.8884 Y30.3076 
G01 X58.0246 Y30.1714 
G01 X58.1316 Y30.0112 
G01 X58.2053 Y29.8332 
G01 X58.2429 Y29.6443 
G01 X58.2429 Y27.6737 
G01 X58.2053 Y27.4848 
G01 X58.1316 Y27.3068 
G01 X58.0246 Y27.1466 
G01 X57.8884 Y27.0104 
G01 X57.7282 Y26.9034 
G01 X57.5502 Y26.8297 
G01 X57.3613 Y26.7921 
G01 X57.1687 Y26.7921 
G01 X56.9798 Y26.8297 
G01 X56.8018 Y26.9034 
G01 X56.6416 Y27.0104 
G01 X56.5054 Y27.1466 
G01 X56.3984 Y27.3068 
G01 X56.3247 Y27.4848 
G01 X56.2871 Y27.6737 
G01 X56.2871 Y29.6443 
G01 X56.3247 Y29.8332 
G01 X56.3984 Y30.0112 
G01 X56.5054 Y30.1714 
G01 X56.6416 Y30.3076 
G00 Z2.5400 
G00 X59.1816 Y30.3076 
G01 Z-0.0254 F254.00 
G01 X59.3418 Y30.4146 F508.00 
G01 X59.5198 Y30.4883 
G01 X59.7087 Y30.5259 
G01 X59.9013 Y30.5259 
G01 X60.0902 Y30.4883 
G01 X60.2682 Y30.4146 
G01 X60.4284 Y30.3076 
G01 X60.5646 Y30.1714 
G01 X60.6716 Y30.0112 
G01 X60.7453 Y29.8332 
G01 X60.7829 Y29.6443 
G01 X60.7829 Y27.6737 
G01 X60.7453 Y27.4848 
G01 X60.6716 Y27.3068 
G01 X60.5646 Y27.1466 
G01 X60.4284 Y27.0104 
G01 X60.2682 Y26.9034 
G01 X60.0902 Y26.8297 
G01 X59.9013 Y26.7921 
G01 X59.7087 Y26.7921 
G01 X59.5198 Y26.8297 
G01 X59.3418 Y26.9034 
G01 X59.1816 Y27.0104 
G01 X59.0454 Y27.1466 
G01 X58.9384 Y27.3068 
G01 X58.8647 Y27.4848 
G01 X58.8271 Y27.6737 
G01 X58.8271 Y29.6443 
G01 X58.8647 Y29.8332 
G01 X58.9384 Y30.0112 
G01 X59.0454 Y30.1714 
G01 X59.1816 Y30.3076 
G00 Z2.5400 
G00 X61.7216 Y30.3076 
G01 Z-0.0254 F254.00 
G01 X61.8818 Y30.4146 F508.00 
G01 X62.0598 Y30.4883 
G01 X62.2487 Y30.5259 
G01 X62.4413 Y30.5259 
G01 X62.6302 Y30.4883 
G01 X62.8082 Y30.4146 
G01 X62.9684 Y30.3076 
G01 X63.1046 Y30.1714 
G01 X63.2116 Y30.0112 
G01 X63.2853 Y29.8332 
G01 X63.3229 Y29.6443 
G01 X63.3229 Y27.6737 
G01 X63.2853 Y27.4848 
G01 X63.2116 Y27.3068 
G01 X63.1046 Y27.1466 
G01 X62.9684 Y27.0104 
G01 X62.8082 Y26.9034 
G01 X62.6302 Y26.8297 
G01 X62.4413 Y26.7921 
G01 X62.2487 Y26.7921 
G01 X62.0598 Y26.8297 
G01 X61.8818 Y26.9034 
G01 X61.7216 Y27.0104 
G01 X61.5854 Y27.1466 
G01 X61.4784 Y27.3068 
G01 X61.4047 Y27.4848 
G01 X61.3671 Y27.6737 
G01 X61.3671 Y29.6443 
G01 X61.4047 Y29.8332 
G01 X61.4784 Y30.0112 
G01 X61.5854 Y30.1714 
G01 X61.7216 Y30.3076 
G00 Z2.5400 
G00 X64.2616 Y30.3076 
G01 Z-0.0254 F254.00 
G01 X64.4218 Y30.4146 F508.00 
G01 X64.5998 Y30.4883 
G01 X64.7887 Y30.5259 
G01 X64.9813 Y30.5259 
G01 X65.1702 Y30.4883 
G01 X65.3482 Y30.4146 
G01 X65.5084 Y30.3076 
G01 X65.6446 Y30.1714 
G01 X65.7516 Y30.0112 
G01 X65.8253 Y29.8332 
G01 X65.8629 Y29.6443 
G01 X65.8629 Y27.6737 
G01 X65.8253 Y27.4848 
G01 X65.7516 Y27.3068 
G01 X65.6446 Y27.1466 
G01 X65.5084 Y27.0104 
G01 X65.3482 Y26.9034 
G01 X65.1702 Y26.8297 
G01 X64.9813 Y26.7921 
G01 X64.7887 Y26.7921 
G01 X64.5998 Y26.8297 
G01 X64.4218 Y26.9034 
G01 X64.2616 Y27.0104 
G01 X64.1254 Y27.1466 
G01 X64.0184 Y27.3068 
G01 X63.9447 Y27.4848 
G01 X63.9071 Y27.6737 
G01 X63.9071 Y29.6443 
G01 X63.9447 Y29.8332 
G01 X64.0184 Y30.0112 
G01 X64.1254 Y30.1714 
G01 X64.2616 Y30.3076 
G00 Z2.5400 
G00 X66.8016 Y30.3076 
G01 Z-0.0254 F254.00 
G01 X66.9618 Y30.4146 F508.00 
G01 X67.1398 Y30.4883 
G01 X67.3287 Y30.5259 
G01 X67.5213 Y30.5259 
G01 X67.7102 Y30.4883 
G01 X67.8882 Y30.4146 
G01 X68.0484 Y30.3076 
G01 X68.1846 Y30.1714 
G01 X68.2916 Y30.0112 
G01 X68.3653 Y29.8332 
G01 X68.4029 Y29.6443 
G01 X68.4029 Y27.6737 
G01 X68.3653 Y27.4848 
G01 X68.2916 Y27.3068 
G01 X68.1846 Y27.1466 
G01 X68.0484 Y27.0104 
G01 X67.8882 Y26.9034 
G01 X67.7102 Y26.8297 
G01 X67.5213 Y26.7921 
G01 X67.3287 Y26.7921 
G01 X67.1398 Y26.8297 
G01 X66.9618 Y26.9034 
G01 X66.8016 Y27.0104 
G01 X66.6654 Y27.1466 
G01 X66.5584 Y27.3068 
G01 X66.4847 Y27.4848 
G01 X66.4471 Y27.6737 
G01 X66.4471 Y29.6443 
G01 X66.4847 Y29.8332 
G01 X66.5584 Y30.0112 
G01 X66.6654 Y30.1714 
G01 X66.8016 Y30.3076 
G00 Z2.5400 
G00 X69.3416 Y30.3076 
G01 Z-0.0254 F254.00 
G01 X69.5018 Y30.4146 F508.00 
G01 X69.6798 Y30.4883 
G01 X69.8687 Y30.5259 
G01 X70.0613 Y30.5259 
G01 X70.2502 Y30.4883 
G01 X70.4282 Y30.4146 
G01 X70.5884 Y30.3076 
G01 X70.7246 Y30.1714 
G01 X70.8316 Y30.0112 
G01 X70.9053 Y29.8332 
G01 X70.9429 Y29.6443 
G01 X70.9429 Y27.6737 
G01 X70.9053 Y27.4848 
G01 X70.8316 Y27.3068 
G01 X70.7246 Y27.1466 
G01 X70.5884 Y27.0104 
G01 X70.4282 Y26.9034 
G01 X70.2502 Y26.8297 
G01 X70.0613 Y26.7921 
G01 X69.8687 Y26.7921 
G01 X69.6798 Y26.8297 
G01 X69.5018 Y26.9034 
G01 X69.3416 Y27.0104 
G01 X69.2054 Y27.1466 
G01 X69.0984 Y27.3068 
G01 X69.0247 Y27.4848 
G01 X68.9871 Y27.6737 
G01 X68.9871 Y29.6443 
G01 X69.0247 Y29.8332 
G01 X69.0984 Y30.0112 
G01 X69.2054 Y30.1714 
G01 X69.3416 Y30.3076 
G00 Z2.5400 
G00 X69.3416 Y25.9896 
G01 Z-0.0254 F254.00 
G01 X69.5018 Y26.0966 F508.00 
G01 X69.6798 Y26.1703 
G01 X69.8687 Y26.2079 
G01 X70.0613 Y26.2079 
G01 X70.2502 Y26.1703 
G01 X70.4282 Y26.0966 
G01 X70.5884 Y25.9896 
G01 X70.7246 Y25.8534 
G01 X70.8316 Y25.6932 
G01 X70.9053 Y25.5152 
G01 X70.9429 Y25.3263 
G01 X70.9429 Y23.3557 
G01 X70.9053 Y23.1668 
G01 X70.8316 Y22.9888 
G01 X70.7246 Y22.8286 
G01 X70.5884 Y22.6924 
G01 X70.4282 Y22.5854 
G01 X70.2502 Y22.5117 
G01 X70.0613 Y22.4741 
G01 X69.8687 Y22.4741 
G01 X69.6798 Y22.5117 
G01 X69.5018 Y22.5854 
G01 X69.3416 Y22.6924 
G01 X69.2054 Y22.8286 
G01 X69.0984 Y22.9888 
G01 X69.0247 Y23.1668 
G01 X68.9871 Y23.3557 
G01 X68.9871 Y25.3263 
G01 X69.0247 Y25.5152 
G01 X69.0984 Y25.6932 
G01 X69.2054 Y25.8534 
G01 X69.3416 Y25.9896 
G00 Z2.5400 
G00 X68.1846 Y25.8534 
G01 Z-0.0254 F254.00 
G01 X68.2916 Y25.6932 F508.00 
G01 X68.3653 Y25.5152 
G01 X68.4029 Y25.3263 
G01 X68.4029 Y23.3557 
G01 X68.3653 Y23.1668 
G01 X68.2916 Y22.9888 
G01 X68.1846 Y22.8286 
G01 X68.0484 Y22.6924 
G01 X67.8882 Y22.5854 
G01 X67.7102 Y22.5117 
G01 X67.5213 Y22.4741 
G01 X67.3287 Y22.4741 
G01 X67.1398 Y22.5117 
G01 X66.9618 Y22.5854 
G01 X66.8016 Y22.6924 
G01 X66.6654 Y22.8286 
G01 X66.5584 Y22.9888 
G01 X66.4847 Y23.1668 
G01 X66.4471 Y23.3557 
G01 X66.4471 Y25.3263 
G01 X66.4847 Y25.5152 
G01 X66.5584 Y25.6932 
G01 X66.6654 Y25.8534 
G01 X66.8016 Y25.9896 
G01 X66.9618 Y26.0966 
G01 X67.1398 Y26.1703 
G01 X67.3287 Y26.2079 
G01 X67.5213 Y26.2079 
G01 X67.7102 Y26.1703 
G01 X67.8882 Y26.0966 
G01 X68.0484 Y25.9896 
G01 X68.1846 Y25.8534 
G00 Z2.5400 
G00 X65.6446 Y25.8534 
G01 Z-0.0254 F254.00 
G01 X65.7516 Y25.6932 F508.00 
G01 X65.8253 Y25.5152 
G01 X65.8629 Y25.3263 
G01 X65.8629 Y23.3557 
G01 X65.8253 Y23.1668 
G01 X65.7516 Y22.9888 
G01 X65.6446 Y22.8286 
G01 X65.5084 Y22.6924 
G01 X65.3482 Y22.5854 
G01 X65.1702 Y22.5117 
G01 X64.9813 Y22.4741 
G01 X64.7887 Y22.4741 
G01 X64.5998 Y22.5117 
G01 X64.4218 Y22.5854 
G01 X64.2616 Y22.6924 
G01 X64.1254 Y22.8286 
G01 X64.0184 Y22.9888 
G01 X63.9447 Y23.1668 
G01 X63.9071 Y23.3557 
G01 X63.9071 Y25.3263 
G01 X63.9447 Y25.5152 
G01 X64.0184 Y25.6932 
G01 X64.1254 Y25.8534 
G01 X64.2616 Y25.9896 
G01 X64.4218 Y26.0966 
G01 X64.5998 Y26.1703 
G01 X64.7887 Y26.2079 
G01 X64.9813 Y26.2079 
G01 X65.1702 Y26.1703 
G01 X65.3482 Y26.0966 
G01 X65.5084 Y25.9896 
G01 X65.6446 Y25.8534 
G00 Z2.5400 
G00 X63.1046 Y25.8534 
G01 Z-0.0254 F254.00 
G01 X63.2116 Y25.6932 F508.00 
G01 X63.2853 Y25.5152 
G01 X63.3229 Y25.3263 
G01 X63.3229 Y23.3557 
G01 X63.2853 Y23.1668 
G01 X63.2116 Y22.9888 
G01 X63.1046 Y22.8286 
G01 X62.9684 Y22.6924 
G01 X62.8082 Y22.5854 
G01 X62.6302 Y22.5117 
G01 X62.4413 Y22.4741 
G01 X62.2487 Y22.4741 
G01 X62.0598 Y22.5117 
G01 X61.8818 Y22.5854 
G01 X61.7216 Y22.6924 
G01 X61.5854 Y22.8286 
G01 X61.4784 Y22.9888 
G01 X61.4047 Y23.1668 
G01 X61.3671 Y23.3557 
G01 X61.3671 Y25.3263 
G01 X61.4047 Y25.5152 
G01 X61.4784 Y25.6932 
G01 X61.5854 Y25.8534 
G01 X61.7216 Y25.9896 
G01 X61.8818 Y26.0966 
G01 X62.0598 Y26.1703 
G01 X62.2487 Y26.2079 
G01 X62.4413 Y26.2079 
G01 X62.6302 Y26.1703 
G01 X62.8082 Y26.0966 
G01 X62.9684 Y25.9896 
G01 X63.1046 Y25.8534 
G00 Z2.5400 
G00 X60.5646 Y25.8534 
G01 Z-0.0254 F254.00 
G01 X60.6716 Y25.6932 F508.00 
G01 X60.7453 Y25.5152 
G01 X60.7829 Y25.3263 
G01 X60.7829 Y23.3557 
G01 X60.7453 Y23.1668 
G01 X60.6716 Y22.9888 
G01 X60.5646 Y22.8286 
G01 X60.4284 Y22.6924 
G01 X60.2682 Y22.5854 
G01 X60.0902 Y22.5117 
G01 X59.9013 Y22.4741 
G01 X59.7087 Y22.4741 
G01 X59.5198 Y22.5117 
G01 X59.3418 Y22.5854 
G01 X59.1816 Y22.6924 
G01 X59.0454 Y22.8286 
G01 X58.9384 Y22.9888 
G01 X58.8647 Y23.1668 
G01 X58.8271 Y23.3557 
G01 X58.8271 Y25.3263 
G01 X58.8647 Y25.5152 
G01 X58.9384 Y25.6932 
G01 X59.0454 Y25.8534 
G01 X59.1816 Y25.9896 
G01 X59.3418 Y26.0966 
G01 X59.5198 Y26.1703 
G01 X59.7087 Y26.2079 
G01 X59.9013 Y26.2079 
G01 X60.0902 Y26.1703 
G01 X60.2682 Y26.0966 
G01 X60.4284 Y25.9896 
G01 X60.5646 Y25.8534 
G00 Z2.5400 
G00 X58.0246 Y25.8534 
G01 Z-0.0254 F254.00 
G01 X58.1316 Y25.6932 F508.00 
G01 X58.2053 Y25.5152 
G01 X58.2429 Y25.3263 
G01 X58.2429 Y23.3557 
G01 X58.2053 Y23.1668 
G01 X58.1316 Y22.9888 
G01 X58.0246 Y22.8286 
G01 X57.8884 Y22.6924 
G01 X57.7282 Y22.5854 
G01 X57.5502 Y22.5117 
G01 X57.3613 Y22.4741 
G01 X57.1687 Y22.4741 
G01 X56.9798 Y22.5117 
G01 X56.8018 Y22.5854 
G01 X56.6416 Y22.6924 
G01 X56.5054 Y22.8286 
G01 X56.3984 Y22.9888 
G01 X56.3247 Y23.1668 
G01 X56.2871 Y23.3557 
G01 X56.2871 Y25.3263 
G01 X56.3247 Y25.5152 
G01 X56.3984 Y25.6932 
G01 X56.5054 Y25.8534 
G01 X56.6416 Y25.9896 
G01 X56.8018 Y26.0966 
G01 X56.9798 Y26.1703 
G01 X57.1687 Y26.2079 
G01 X57.3613 Y26.2079 
G01 X57.5502 Y26.1703 
G01 X57.7282 Y26.0966 
G01 X57.8884 Y25.9896 
G01 X58.0246 Y25.8534 
G00 Z2.5400 
G00 X55.4846 Y25.8534 
G01 Z-0.0254 F254.00 
G01 X55.5916 Y25.6932 F508.00 
G01 X55.6653 Y25.5152 
G01 X55.7029 Y25.3263 
G01 X55.7029 Y23.3557 
G01 X55.6653 Y23.1668 
G01 X55.5916 Y22.9888 
G01 X55.4846 Y22.8286 
G01 X55.3484 Y22.6924 
G01 X55.1882 Y22.5854 
G01 X55.0102 Y22.5117 
G01 X54.8213 Y22.4741 
G01 X54.6287 Y22.4741 
G01 X54.4398 Y22.5117 
G01 X54.2618 Y22.5854 
G01 X54.1016 Y22.6924 
G01 X53.9654 Y22.8286 
G01 X53.8584 Y22.9888 
G01 X53.7847 Y23.1668 
G01 X53.7471 Y23.3557 
G01 X53.7471 Y25.3263 
G01 X53.7847 Y25.5152 
G01 X53.8584 Y25.6932 
G01 X53.9654 Y25.8534 
G01 X54.1016 Y25.9896 
G01 X54.2618 Y26.0966 
G01 X54.4398 Y26.1703 
G01 X54.6287 Y26.2079 
G01 X54.8213 Y26.2079 
G01 X55.0102 Y26.1703 
G01 X55.1882 Y26.0966 
G01 X55.3484 Y25.9896 
G01 X55.4846 Y25.8534 
G00 Z2.5400 
G00 X52.9446 Y25.8534 
G01 Z-0.0254 F254.00 
G01 X53.0516 Y25.6932 F508.00 
G01 X53.1253 Y25.5152 
G01 X53.1629 Y25.3263 
G01 X53.1629 Y23.3557 
G01 X53.1253 Y23.1668 
G01 X53.0516 Y22.9888 
G01 X52.9446 Y22.8286 
G01 X52.8084 Y22.6924 
G01 X52.6482 Y22.5854 
G01 X52.4702 Y22.5117 
G01 X52.2813 Y22.4741 
G01 X52.0887 Y22.4741 
G01 X51.8998 Y22.5117 
G01 X51.7218 Y22.5854 
G01 X51.5616 Y22.6924 
G01 X51.4254 Y22.8286 
G01 X51.3184 Y22.9888 
G01 X51.2447 Y23.1668 
G01 X51.2071 Y23.3557 
G01 X51.2071 Y25.3263 
G01 X51.2447 Y25.5152 
G01 X51.3184 Y25.6932 
G01 X51.4254 Y25.8534 
G01 X51.5616 Y25.9896 
G01 X51.7218 Y26.0966 
G01 X51.8998 Y26.1703 
G01 X52.0887 Y26.2079 
G01 X52.2813 Y26.2079 
G01 X52.4702 Y26.1703 
G01 X52.6482 Y26.0966 
G01 X52.8084 Y25.9896 
G01 X52.9446 Y25.8534 
G00 Z2.5400 
G00 X50.4046 Y25.8534 
G01 Z-0.0254 F254.00 
G01 X50.5116 Y25.6932 F508.00 
G01 X50.5853 Y25.5152 
G01 X50.6229 Y25.3263 
G01 X50.6229 Y23.3557 
G01 X50.5853 Y23.1668 
G01 X50.5116 Y22.9888 
G01 X50.4046 Y22.8286 
G01 X50.2684 Y22.6924 
G01 X50.1082 Y22.5854 
G01 X49.9302 Y22.5117 
G01 X49.7413 Y22.4741 
G01 X49.5487 Y22.4741 
G01 X49.3598 Y22.5117 
G01 X49.1818 Y22.5854 
G01 X49.0216 Y22.6924 
G01 X48.8854 Y22.8286 
G01 X48.7784 Y22.9888 
G01 X48.7047 Y23.1668 
G01 X48.6671 Y23.3557 
G01 X48.6671 Y25.3263 
G01 X48.7047 Y25.5152 
G01 X48.7784 Y25.6932 
G01 X48.8854 Y25.8534 
G01 X49.0216 Y25.9896 
G01 X49.1818 Y26.0966 
G01 X49.3598 Y26.1703 
G01 X49.5487 Y26.2079 
G01 X49.7413 Y26.2079 
G01 X49.9302 Y26.1703 
G01 X50.1082 Y26.0966 
G01 X50.2684 Y25.9896 
G01 X50.4046 Y25.8534 
G00 Z2.5400 
G00 X47.8646 Y25.8534 
G01 Z-0.0254 F254.00 
G01 X47.9716 Y25.6932 F508.00 
G01 X48.0453 Y25.5152 
G01 X48.0829 Y25.3263 
G01 X48.0829 Y23.3557 
G01 X48.0453 Y23.1668 
G01 X47.9716 Y22.9888 
G01 X47.8646 Y22.8286 
G01 X47.7284 Y22.6924 
G01 X47.5682 Y22.5854 
G01 X47.3902 Y22.5117 
G01 X47.2013 Y22.4741 
G01 X47.0087 Y22.4741 
G01 X46.8198 Y22.5117 
G01 X46.6418 Y22.5854 
G01 X46.4816 Y22.6924 
G01 X46.3454 Y22.8286 
G01 X46.2384 Y22.9888 
G01 X46.1647 Y23.1668 
G01 X46.1271 Y23.3557 
G01 X46.1271 Y25.3263 
G01 X46.1647 Y25.5152 
G01 X46.2384 Y25.6932 
G01 X46.3454 Y25.8534 
G01 X46.4816 Y25.9896 
G01 X46.6418 Y26.0966 
G01 X46.8198 Y26.1703 
G01 X47.0087 Y26.2079 
G01 X47.2013 Y26.2079 
G01 X47.3902 Y26.1703 
G01 X47.5682 Y26.0966 
G01 X47.7284 Y25.9896 
G01 X47.8646 Y25.8534 
G00 Z2.5400 
G00 X45.3246 Y25.8534 
G01 Z-0.0254 F254.00 
G01 X45.4316 Y25.6932 F508.00 
G01 X45.5053 Y25.5152 
G01 X45.5429 Y25.3263 
G01 X45.5429 Y23.3557 
G01 X45.5053 Y23.1668 
G01 X45.4316 Y22.9888 
G01 X45.3246 Y22.8286 
G01 X45.1884 Y22.6924 
G01 X45.0282 Y22.5854 
G01 X44.8502 Y22.5117 
G01 X44.6613 Y22.4741 
G01 X44.4687 Y22.4741 
G01 X44.2798 Y22.5117 
G01 X44.1018 Y22.5854 
G01 X43.9416 Y22.6924 
G01 X43.8054 Y22.8286 
G01 X43.6984 Y22.9888 
G01 X43.6247 Y23.1668 
G01 X43.5871 Y23.3557 
G01 X43.5871 Y25.3263 
G01 X43.6247 Y25.5152 
G01 X43.6984 Y25.6932 
G01 X43.8054 Y25.8534 
G01 X43.9416 Y25.9896 
G01 X44.1018 Y26.0966 
G01 X44.2798 Y26.1703 
G01 X44.4687 Y26.2079 
G01 X44.6613 Y26.2079 
G01 X44.8502 Y26.1703 
G01 X45.0282 Y26.0966 
G01 X45.1884 Y25.9896 
G01 X45.3246 Y25.8534 
G00 Z2.5400 
G00 X42.7846 Y25.8534 
G01 Z-0.0254 F254.00 
G01 X42.8916 Y25.6932 F508.00 
G01 X42.9653 Y25.5152 
G01 X43.0029 Y25.3263 
G01 X43.0029 Y23.3557 
G01 X42.9653 Y23.1668 
G01 X42.8916 Y22.9888 
G01 X42.7846 Y22.8286 
G01 X42.6484 Y22.6924 
G01 X42.4882 Y22.5854 
G01 X42.3102 Y22.5117 
G01 X42.1213 Y22.4741 
G01 X41.9287 Y22.4741 
G01 X41.7398 Y22.5117 
G01 X41.5618 Y22.5854 
G01 X41.4016 Y22.6924 
G01 X41.2654 Y22.8286 
G01 X41.1584 Y22.9888 
G01 X41.0847 Y23.1668 
G01 X41.0471 Y23.3557 
G01 X41.0471 Y25.3263 
G01 X41.0847 Y25.5152 
G01 X41.1584 Y25.6932 
G01 X41.2654 Y25.8534 
G01 X41.4016 Y25.9896 
G01 X41.5618 Y26.0966 
G01 X41.7398 Y26.1703 
G01 X41.9287 Y26.2079 
G01 X42.1213 Y26.2079 
G01 X42.3102 Y26.1703 
G01 X42.4882 Y26.0966 
G01 X42.6484 Y25.9896 
G01 X42.7846 Y25.8534 
G00 Z2.5400 
G00 X40.2446 Y25.8534 
G01 Z-0.0254 F254.00 
G01 X40.3516 Y25.6932 F508.00 
G01 X40.4253 Y25.5152 
G01 X40.4629 Y25.3263 
G01 X40.4629 Y23.3557 
G01 X40.4253 Y23.1668 
G01 X40.3516 Y22.9888 
G01 X40.2446 Y22.8286 
G01 X40.1084 Y22.6924 
G01 X39.9482 Y22.5854 
G01 X39.7702 Y22.5117 
G01 X39.5813 Y22.4741 
G01 X39.3887 Y22.4741 
G01 X39.1998 Y22.5117 
G01 X39.0218 Y22.5854 
G01 X38.8616 Y22.6924 
G01 X38.7254 Y22.8286 
G01 X38.6184 Y22.9888 
G01 X38.5447 Y23.1668 
G01 X38.5071 Y23.3557 
G01 X38.5071 Y25.3263 
G01 X38.5447 Y25.5152 
G01 X38.6184 Y25.6932 
G01 X38.7254 Y25.8534 
G01 X38.8616 Y25.9896 
G01 X39.0218 Y26.0966 
G01 X39.1998 Y26.1703 
G01 X39.3887 Y26.2079 
G01 X39.5813 Y26.2079 
G01 X39.7702 Y26.1703 
G01 X39.9482 Y26.0966 
G01 X40.1084 Y25.9896 
G01 X40.2446 Y25.8534 
G00 Z2.5400 
G00 X37.7046 Y25.8534 
G01 Z-0.0254 F254.00 
G01 X37.8116 Y25.6932 F508.00 
G01 X37.8853 Y25.5152 
G01 X37.9229 Y25.3263 
G01 X37.9229 Y23.3557 
G01 X37.8853 Y23.1668 
G01 X37.8116 Y22.9888 
G01 X37.7046 Y22.8286 
G01 X37.5684 Y22.6924 
G01 X37.4082 Y22.5854 
G01 X37.2302 Y22.5117 
G01 X37.0413 Y22.4741 
G01 X36.8487 Y22.4741 
G01 X36.6598 Y22.5117 
G01 X36.4818 Y22.5854 
G01 X36.3216 Y22.6924 
G01 X36.1854 Y22.8286 
G01 X36.0784 Y22.9888 
G01 X36.0047 Y23.1668 
G01 X35.9671 Y23.3557 
G01 X35.9671 Y25.3263 
G01 X36.0047 Y25.5152 
G01 X36.0784 Y25.6932 
G01 X36.1854 Y25.8534 
G01 X36.3216 Y25.9896 
G01 X36.4818 Y26.0966 
G01 X36.6598 Y26.1703 
G01 X36.8487 Y26.2079 
G01 X37.0413 Y26.2079 
G01 X37.2302 Y26.1703 
G01 X37.4082 Y26.0966 
G01 X37.5684 Y25.9896 
G01 X37.7046 Y25.8534 
G00 Z2.5400 
G00 X35.1646 Y25.8534 
G01 Z-0.0254 F254.00 
G01 X35.2716 Y25.6932 F508.00 
G01 X35.3453 Y25.5152 
G01 X35.3829 Y25.3263 
G01 X35.3829 Y23.3557 
G01 X35.3453 Y23.1668 
G01 X35.2716 Y22.9888 
G01 X35.1646 Y22.8286 
G01 X35.0284 Y22.6924 
G01 X34.8682 Y22.5854 
G01 X34.6902 Y22.5117 
G01 X34.5013 Y22.4741 
G01 X34.3087 Y22.4741 
G01 X34.1198 Y22.5117 
G01 X33.9418 Y22.5854 
G01 X33.7816 Y22.6924 
G01 X33.6454 Y22.8286 
G01 X33.5384 Y22.9888 
G01 X33.4647 Y23.1668 
G01 X33.4271 Y23.3557 
G01 X33.4271 Y25.3263 
G01 X33.4647 Y25.5152 
G01 X33.5384 Y25.6932 
G01 X33.6454 Y25.8534 
G01 X33.7816 Y25.9896 
G01 X33.9418 Y26.0966 
G01 X34.1198 Y26.1703 
G01 X34.3087 Y26.2079 
G01 X34.5013 Y26.2079 
G01 X34.6902 Y26.1703 
G01 X34.8682 Y26.0966 
G01 X35.0284 Y25.9896 
G01 X35.1646 Y25.8534 
G00 Z2.5400 
G00 X32.6246 Y25.8534 
G01 Z-0.0254 F254.00 
G01 X32.7316 Y25.6932 F508.00 
G01 X32.8053 Y25.5152 
G01 X32.8429 Y25.3263 
G01 X32.8429 Y23.3557 
G01 X32.8053 Y23.1668 
G01 X32.7316 Y22.9888 
G01 X32.6246 Y22.8286 
G01 X32.4884 Y22.6924 
G01 X32.3282 Y22.5854 
G01 X32.1502 Y22.5117 
G01 X31.9613 Y22.4741 
G01 X31.7687 Y22.4741 
G01 X31.5798 Y22.5117 
G01 X31.4018 Y22.5854 
G01 X31.2416 Y22.6924 
G01 X31.1054 Y22.8286 
G01 X30.9984 Y22.9888 
G01 X30.9247 Y23.1668 
G01 X30.8871 Y23.3557 
G01 X30.8871 Y25.3263 
G01 X30.9247 Y25.5152 
G01 X30.9984 Y25.6932 
G01 X31.1054 Y25.8534 
G01 X31.2416 Y25.9896 
G01 X31.4018 Y26.0966 
G01 X31.5798 Y26.1703 
G01 X31.7687 Y26.2079 
G01 X31.9613 Y26.2079 
G01 X32.1502 Y26.1703 
G01 X32.3282 Y26.0966 
G01 X32.4884 Y25.9896 
G01 X32.6246 Y25.8534 
G00 Z2.5400 
G00 X30.0846 Y25.8534 
G01 Z-0.0254 F254.00 
G01 X30.1916 Y25.6932 F508.00 
G01 X30.2653 Y25.5152 
G01 X30.3029 Y25.3263 
G01 X30.3029 Y23.3557 
G01 X30.2653 Y23.1668 
G01 X30.1916 Y22.9888 
G01 X30.0846 Y22.8286 
G01 X29.9484 Y22.6924 
G01 X29.7882 Y22.5854 
G01 X29.6102 Y22.5117 
G01 X29.4213 Y22.4741 
G01 X29.2287 Y22.4741 
G01 X29.0398 Y22.5117 
G01 X28.8618 Y22.5854 
G01 X28.7016 Y22.6924 
G01 X28.5654 Y22.8286 
G01 X28.4584 Y22.9888 
G01 X28.3847 Y23.1668 
G01 X28.3471 Y23.3557 
G01 X28.3471 Y25.3263 
G01 X28.3847 Y25.5152 
G01 X28.4584 Y25.6932 
G01 X28.5654 Y25.8534 
G01 X28.7016 Y25.9896 
G01 X28.8618 Y26.0966 
G01 X29.0398 Y26.1703 
G01 X29.2287 Y26.2079 
G01 X29.4213 Y26.2079 
G01 X29.6102 Y26.1703 
G01 X29.7882 Y26.0966 
G01 X29.9484 Y25.9896 
G01 X30.0846 Y25.8534 
G00 Z2.5400 
G00 X27.5446 Y25.8534 
G01 Z-0.0254 F254.00 
G01 X27.6516 Y25.6932 F508.00 
G01 X27.7253 Y25.5152 
G01 X27.7629 Y25.3263 
G01 X27.7629 Y23.3557 
G01 X27.7253 Y23.1668 
G01 X27.6516 Y22.9888 
G01 X27.5446 Y22.8286 
G01 X27.4084 Y22.6924 
G01 X27.2482 Y22.5854 
G01 X27.0702 Y22.5117 
G01 X26.8813 Y22.4741 
G01 X26.6887 Y22.4741 
G01 X26.4998 Y22.5117 
G01 X26.3218 Y22.5854 
G01 X26.1616 Y22.6924 
G01 X26.0254 Y22.8286 
G01 X25.9184 Y22.9888 
G01 X25.8447 Y23.1668 
G01 X25.8071 Y23.3557 
G01 X25.8071 Y25.3263 
G01 X25.8447 Y25.5152 
G01 X25.9184 Y25.6932 
G01 X26.0254 Y25.8534 
G01 X26.1616 Y25.9896 
G01 X26.3218 Y26.0966 
G01 X26.4998 Y26.1703 
G01 X26.6887 Y26.2079 
G01 X26.8813 Y26.2079 
G01 X27.0702 Y26.1703 
G01 X27.2482 Y26.0966 
G01 X27.4084 Y25.9896 
G01 X27.5446 Y25.8534 
G00 Z2.5400 
G00 X25.0046 Y25.8534 
G01 Z-0.0254 F254.00 
G01 X25.1116 Y25.6932 F508.00 
G01 X25.1853 Y25.5152 
G01 X25.2229 Y25.3263 
G01 X25.2229 Y23.3557 
G01 X25.1853 Y23.1668 
G01 X25.1116 Y22.9888 
G01 X25.0046 Y22.8286 
G01 X24.8684 Y22.6924 
G01 X24.7082 Y22.5854 
G01 X24.5302 Y22.5117 
G01 X24.3413 Y22.4741 
G01 X24.1487 Y22.4741 
G01 X23.9598 Y22.5117 
G01 X23.7818 Y22.5854 
G01 X23.6216 Y22.6924 
G01 X23.4854 Y22.8286 
G01 X23.3784 Y22.9888 
G01 X23.3047 Y23.1668 
G01 X23.2671 Y23.3557 
G01 X23.2671 Y25.3263 
G01 X23.3047 Y25.5152 
G01 X23.3784 Y25.6932 
G01 X23.4854 Y25.8534 
G01 X23.6216 Y25.9896 
G01 X23.7818 Y26.0966 
G01 X23.9598 Y26.1703 
G01 X24.1487 Y26.2079 
G01 X24.3413 Y26.2079 
G01 X24.5302 Y26.1703 
G01 X24.7082 Y26.0966 
G01 X24.8684 Y25.9896 
G01 X25.0046 Y25.8534 
G00 Z2.5400 
G00 X22.4646 Y25.8534 
G01 Z-0.0254 F254.00 
G01 X22.5716 Y25.6932 F508.00 
G01 X22.6453 Y25.5152 
G01 X22.6829 Y25.3263 
G01 X22.6829 Y23.3557 
G01 X22.6453 Y23.1668 
G01 X22.5716 Y22.9888 
G01 X22.4646 Y22.8286 
G01 X22.3284 Y22.6924 
G01 X22.1682 Y22.5854 
G01 X21.9902 Y22.5117 
G01 X21.8013 Y22.4741 
G01 X21.6087 Y22.4741 
G01 X21.4198 Y22.5117 
G01 X21.2418 Y22.5854 
G01 X21.0816 Y22.6924 
G01 X20.9454 Y22.8286 
G01 X20.8384 Y22.9888 
G01 X20.7647 Y23.1668 
G01 X20.7271 Y23.3557 
G01 X20.7271 Y25.3263 
G01 X20.7647 Y25.5152 
G01 X20.8384 Y25.6932 
G01 X20.9454 Y25.8534 
G01 X21.0816 Y25.9896 
G01 X21.2418 Y26.0966 
G01 X21.4198 Y26.1703 
G01 X21.6087 Y26.2079 
G01 X21.8013 Y26.2079 
G01 X21.9902 Y26.1703 
G01 X22.1682 Y26.0966 
G01 X22.3284 Y25.9896 
G01 X22.4646 Y25.8534 
G00 Z2.5400 
G00 X80.9855 Y25.7891 
G01 Z-0.0254 F254.00 
G01 X80.9531 Y25.9520 F508.00 
G01 X80.9531 Y26.1180 
G01 X80.9855 Y26.2809 
G01 X81.0490 Y26.4343 
G01 X81.1413 Y26.5723 
G01 X81.2587 Y26.6897 
G01 X81.3967 Y26.7820 
G01 X81.5501 Y26.8455 
G01 X81.7130 Y26.8779 
G01 X83.3870 Y26.8779 
G01 X83.5499 Y26.8455 
G01 X83.7033 Y26.7820 
G01 X83.8413 Y26.6897 
G01 X83.9587 Y26.5723 
G01 X84.0510 Y26.4343 
G01 X84.1145 Y26.2809 
G01 X84.1469 Y26.1180 
G01 X84.1469 Y25.9520 
G01 X84.1145 Y25.7891 
G01 X84.0510 Y25.6357 
G01 X83.9587 Y25.4977 
G01 X83.8413 Y25.3803 
G01 X83.7033 Y25.2880 
G01 X83.5499 Y25.2245 
G01 X83.3870 Y25.1921 
G01 X81.7130 Y25.1921 
G01 X81.5501 Y25.2245 
G01 X81.3967 Y25.2880 
G01 X81.2587 Y25.3803 
G01 X81.1413 Y25.4977 
G01 X81.0490 Y25.6357 
G01 X80.9855 Y25.7891 
G00 Z2.5400 
G00 X81.2587 Y24.1497 
G01 Z-0.0254 F254.00 
G01 X81.3967 Y24.2420 F508.00 
G01 X81.5501 Y24.3055 
G01 X81.7130 Y24.3379 
G01 X83.3870 Y24.3379 
G01 X83.5499 Y24.3055 
G01 X83.7033 Y24.2420 
G01 X83.8413 Y24.1497 
G01 X83.9587 Y24.0323 
G01 X84.0510 Y23.8943 
G01 X84.1145 Y23.7409 
G01 X84.1469 Y23.5780 
G01 X84.1469 Y23.4120 
G01 X84.1145 Y23.2491 
G01 X84.0510 Y23.0957 
G01 X83.9587 Y22.9577 
G01 X83.8413 Y22.8403 
G01 X83.7033 Y22.7480 
G01 X83.5499 Y22.6845 
G01 X83.3870 Y22.6521 
G01 X81.7130 Y22.6521 
G01 X81.5501 Y22.6845 
G01 X81.3967 Y22.7480 
G01 X81.2587 Y22.8403 
G01 X81.1413 Y22.9577 
G01 X81.0490 Y23.0957 
G01 X80.9855 Y23.2491 
G01 X80.9531 Y23.4120 
G01 X80.9531 Y23.5780 
G01 X80.9855 Y23.7409 
G01 X81.0490 Y23.8943 
G01 X81.1413 Y24.0323 
G01 X81.2587 Y24.1497 
G00 Z2.5400 
G00 X81.2587 Y21.6097 
G01 Z-0.0254 F254.00 
G01 X81.3967 Y21.7020 F508.00 
G01 X81.5501 Y21.7655 
G01 X81.7130 Y21.7979 
G01 X83.3870 Y21.7979 
G01 X83.5499 Y21.7655 
G01 X83.7033 Y21.7020 
G01 X83.8413 Y21.6097 
G01 X83.9587 Y21.4923 
G01 X84.0510 Y21.3543 
G01 X84.1145 Y21.2009 
G01 X84.1469 Y21.0380 
G01 X84.1469 Y20.8720 
G01 X84.1145 Y20.7091 
G01 X84.0510 Y20.5557 
G01 X83.9587 Y20.4177 
G01 X83.8413 Y20.3003 
G01 X83.7033 Y20.2080 
G01 X83.5499 Y20.1445 
G01 X83.3870 Y20.1121 
G01 X81.7130 Y20.1121 
G01 X81.5501 Y20.1445 
G01 X81.3967 Y20.2080 
G01 X81.2587 Y20.3003 
G01 X81.1413 Y20.4177 
G01 X81.0490 Y20.5557 
G01 X80.9855 Y20.7091 
G01 X80.9531 Y20.8720 
G01 X80.9531 Y21.0380 
G01 X80.9855 Y21.2009 
G01 X81.0490 Y21.3543 
G01 X81.1413 Y21.4923 
G01 X81.2587 Y21.6097 
G00 Z2.5400 
G00 X81.2587 Y27.9203 
G01 Z-0.0254 F254.00 
G01 X81.1413 Y28.0377 F508.00 
G01 X81.0490 Y28.1757 
G01 X80.9855 Y28.3291 
G01 X80.9531 Y28.4920 
G01 X80.9531 Y28.6580 
G01 X80.9855 Y28.8209 
G01 X81.0490 Y28.9743 
G01 X81.1413 Y29.1123 
G01 X81.2587 Y29.2297 
G01 X81.3967 Y29.3220 
G01 X81.5501 Y29.3855 
G01 X81.7130 Y29.4179 
G01 X83.3870 Y29.4179 
G01 X83.5499 Y29.3855 
G01 X83.7033 Y29.3220 
G01 X83.8413 Y29.2297 
G01 X83.9587 Y29.1123 
G01 X84.0510 Y28.9743 
G01 X84.1145 Y28.8209 
G01 X84.1469 Y28.6580 
G01 X84.1469 Y28.4920 
G01 X84.1145 Y28.3291 
G01 X84.0510 Y28.1757 
G01 X83.9587 Y28.0377 
G01 X83.8413 Y27.9203 
G01 X83.7033 Y27.8280 
G01 X83.5499 Y27.7645 
G01 X83.3870 Y27.7321 
G01 X81.7130 Y27.7321 
G01 X81.5501 Y27.7645 
G01 X81.3967 Y27.8280 
G01 X81.2587 Y27.9203 
G00 Z2.5400 
G00 X81.2587 Y30.4603 
G01 Z-0.0254 F254.00 
G01 X81.1413 Y30.5777 F508.00 
G01 X81.0490 Y30.7157 
G01 X80.9855 Y30.8691 
G01 X80.9531 Y31.0320 
G01 X80.9531 Y31.1980 
G01 X80.9855 Y31.3609 
G01 X81.0490 Y31.5143 
G01 X81.1413 Y31.6523 
G01 X81.2587 Y31.7697 
G01 X81.3967 Y31.8620 
G01 X81.5501 Y31.9255 
G01 X81.7130 Y31.9579 
G01 X83.3870 Y31.9579 
G01 X83.5499 Y31.9255 
G01 X83.7033 Y31.8620 
G01 X83.8413 Y31.7697 
G01 X83.9587 Y31.6523 
G01 X84.0510 Y31.5143 
G01 X84.1145 Y31.3609 
G01 X84.1469 Y31.1980 
G01 X84.1469 Y31.0320 
G01 X84.1145 Y30.8691 
G01 X84.0510 Y30.7157 
G01 X83.9587 Y30.5777 
G01 X83.8413 Y30.4603 
G01 X83.7033 Y30.3680 
G01 X83.5499 Y30.3045 
G01 X83.3870 Y30.2721 
G01 X81.7130 Y30.2721 
G01 X81.5501 Y30.3045 
G01 X81.3967 Y30.3680 
G01 X81.2587 Y30.4603 
G00 Z2.5400 
G00 Z2.540000
G00 X82.5500 Y31.1150 
G01 Z-0.0025 F508.00 
G01 Z2.540000
(R2.5400  P0.500000)
G00 X82.5500 Y28.5750 
G01 Z-0.500000
G01 Z2.540000
G00 X82.5500 Y26.0350 
G01 Z-0.500000
G01 Z2.540000
G00 X82.5500 Y23.4950 
G01 Z-0.500000
G01 Z2.540000
G00 X82.5500 Y20.9550 
G01 Z-0.500000
G01 Z2.540000
G00 X83.4390 Y35.0520 
G01 Z-0.500000
G01 Z2.540000
G00 X83.4390 Y17.0180 
G01 Z-0.500000
G01 Z2.540000
G00 X21.7050 Y25.2300 
G01 Z-0.500000
G01 Z2.540000
G00 X21.7050 Y27.7700 
G01 Z-0.500000
G01 Z2.540000
G00 X24.2450 Y25.2300 
G01 Z-0.500000
G01 Z2.540000
G00 X24.2450 Y27.7700 
G01 Z-0.500000
G01 Z2.540000
G00 X26.7850 Y25.2300 
G01 Z-0.500000
G01 Z2.540000
G00 X26.7850 Y27.7700 
G01 Z-0.500000
G01 Z2.540000
G00 X29.3250 Y25.2300 
G01 Z-0.500000
G01 Z2.540000
G00 X29.3250 Y27.7700 
G01 Z-0.500000
G01 Z2.540000
G00 X31.8650 Y25.2300 
G01 Z-0.500000
G01 Z2.540000
G00 X31.8650 Y27.7700 
G01 Z-0.500000
G01 Z2.540000
G00 X34.4050 Y25.2300 
G01 Z-0.500000
G01 Z2.540000
G00 X34.4050 Y27.7700 
G01 Z-0.500000
G01 Z2.540000
G00 X36.9450 Y25.2300 
G01 Z-0.500000
G01 Z2.540000
G00 X36.9450 Y27.7700 
G01 Z-0.500000
G01 Z2.540000
G00 X39.4850 Y25.2300 
G01 Z-0.500000
G01 Z2.540000
G00 X39.4850 Y27.7700 
G01 Z-0.500000
G01 Z2.540000
G00 X42.0250 Y25.2300 
G01 Z-0.500000
G01 Z2.540000
G00 X42.0250 Y27.7700 
G01 Z-0.500000
G01 Z2.540000
G00 X44.5650 Y25.2300 
G01 Z-0.500000
G01 Z2.540000
G00 X44.5650 Y27.7700 
G01 Z-0.500000
G01 Z2.540000
G00 X47.1050 Y25.2300 
G01 Z-0.500000
G01 Z2.540000
G00 X47.1050 Y27.7700 
G01 Z-0.500000
G01 Z2.540000
G00 X49.6450 Y25.2300 
G01 Z-0.500000
G01 Z2.540000
G00 X49.6450 Y27.7700 
G01 Z-0.500000
G01 Z2.540000
G00 X52.1850 Y25.2300 
G01 Z-0.500000
G01 Z2.540000
G00 X52.1850 Y27.7700 
G01 Z-0.500000
G01 Z2.540000
G00 X54.7250 Y25.2300 
G01 Z-0.500000
G01 Z2.540000
G00 X54.7250 Y27.7700 
G01 Z-0.500000
G01 Z2.540000
G00 X57.2650 Y25.2300 
G01 Z-0.500000
G01 Z2.540000
G00 X57.2650 Y27.7700 
G01 Z-0.500000
G01 Z2.540000
G00 X59.8050 Y25.2300 
G01 Z-0.500000
G01 Z2.540000
G00 X59.8050 Y27.7700 
G01 Z-0.500000
G01 Z2.540000
G00 X62.3450 Y25.2300 
G01 Z-0.500000
G01 Z2.540000
G00 X62.3450 Y27.7700 
G01 Z-0.500000
G01 Z2.540000
G00 X64.8850 Y25.2300 
G01 Z-0.500000
G01 Z2.540000
G00 X64.8850 Y27.7700 
G01 Z-0.500000
G01 Z2.540000
G00 X67.4250 Y25.2300 
G01 Z-0.500000
G01 Z2.540000
G00 X67.4250 Y27.7700 
G01 Z-0.500000
G01 Z2.540000
G00 X69.9650 Y25.2300 
G01 Z-0.500000
G01 Z2.540000
G00 X69.9650 Y27.7700 
G01 Z-0.500000
G01 Z2.540000
G00 X9.5250 Y33.6550 
G01 Z-0.500000
G01 Z2.540000
G00 X9.5250 Y20.9550 
G01 Z-0.500000
G01 Z2.540000
G00 X9.5250 Y36.1950 
G01 Z-0.500000
G01 Z2.540000
G00 X9.5250 Y23.4950 
G01 Z-0.500000
G01 Z2.540000
G00 X9.5250 Y26.0350 
G01 Z-0.500000
G01 Z2.540000
G00 X9.5250 Y18.4150 
G01 Z-0.500000
G01 Z2.540000
G00 X9.5250 Y31.1150 
G01 Z-0.500000
G01 Z2.540000
G00 X9.5250 Y28.5750 
G01 Z-0.500000
G01 Z2.540000
G00 Z12.7000 
M05
M02
