(/Applications/EAGLE-7.7.0/ulp/pcb-gcode.ulp)
(Copyright 2005 - 2012 by John Johnson)
(See readme.txt for licensing terms.)
(This file generated from the board:)
(.../AssetTracker/HologramAssetTrackker.brd)
(Current profile is .../EAGLE-7.7.0/ulp/profiles/generic.pp  )
(This file generated 11/30/17 10:45 AM)
(Settings from pcb-machine.h)
(spindle on time = 3.0000)
(spindle speed = 20000.0000)
(tool change at 0.0000 0.0000 101.6000 )
(feed rate xy = F0.00  )
(feed rate z  = F508.00 )
(Z Axis Settings)
(  High     Up        Down     Drill)
(12.7000 	2.5400 	-0.0254 	-0.5000 )
(Settings from pcb-defaults.h)
(isolate min = 0.0000)
(isolate max = 0.1270)
(isolate step = 0.0508)
(Generated top outlines, top drill, bottom outlines, bottom drill, )
(Unit of measure: mm)
( Tool|       Size       |  Min Sub |  Max Sub |   Count )
( T01  0.800mm 0.0315in 0.0000in 0.0000in )
( T02  1.000mm 0.0394in 0.0000in 0.0000in )
( T03  3.000mm 0.1181in 0.0000in 0.0000in )
(Metric Mode)
G21
(Absolute Coordinates)
G90
S20000
G00 Z12.7000 
G00 X0.0000 Y0.0000 
M03
G04 P3.000000
M05
G00 Z101.6000 
M06 T01  ; 0.8000 
G01 Z0.0000 F508.00 
M06 
G00 Z2.5400 
M03
G04 P3.000000
G00 Z2.540000
G00 X-9.5250 Y18.4150 
G01 Z-0.5000 F508.00 
G01 Z2.540000
(R2.5400  P0.500000)
G00 X-9.5250 Y20.9550 
G01 Z-0.500000
G01 Z2.540000
G00 X-9.5250 Y23.4950 
G01 Z-0.500000
G01 Z2.540000
G00 X-9.5250 Y26.0350 
G01 Z-0.500000
G01 Z2.540000
G00 X-9.5250 Y28.5750 
G01 Z-0.500000
G01 Z2.540000
G00 X-9.5250 Y31.1150 
G01 Z-0.500000
G01 Z2.540000
G00 X-9.5250 Y33.6550 
G01 Z-0.500000
G01 Z2.540000
G00 X-9.5250 Y36.1950 
G01 Z-0.500000
G01 Z2.540000
M05
G00 Z101.6000 
G00 X0.0000 Y0.0000 
M06 T02  ; 1.0000 
G01 Z0.0000 F508.00 
M06 
G00 Z2.5400 
M03
G04 P3.000000
G00 Z2.540000
G00 X-21.7050 Y25.2300 
G01 Z-0.5000 F508.00 
G01 Z2.540000
(R2.5400  P0.500000)
G00 X-21.7050 Y27.7700 
G01 Z-0.500000
G01 Z2.540000
G00 X-24.2450 Y27.7700 
G01 Z-0.500000
G01 Z2.540000
G00 X-24.2450 Y25.2300 
G01 Z-0.500000
G01 Z2.540000
G00 X-26.7850 Y25.2300 
G01 Z-0.500000
G01 Z2.540000
G00 X-26.7850 Y27.7700 
G01 Z-0.500000
G01 Z2.540000
G00 X-29.3250 Y27.7700 
G01 Z-0.500000
G01 Z2.540000
G00 X-29.3250 Y25.2300 
G01 Z-0.500000
G01 Z2.540000
G00 X-31.8650 Y25.2300 
G01 Z-0.500000
G01 Z2.540000
G00 X-31.8650 Y27.7700 
G01 Z-0.500000
G01 Z2.540000
G00 X-34.4050 Y27.7700 
G01 Z-0.500000
G01 Z2.540000
G00 X-34.4050 Y25.2300 
G01 Z-0.500000
G01 Z2.540000
G00 X-36.9450 Y25.2300 
G01 Z-0.500000
G01 Z2.540000
G00 X-36.9450 Y27.7700 
G01 Z-0.500000
G01 Z2.540000
G00 X-39.4850 Y27.7700 
G01 Z-0.500000
G01 Z2.540000
G00 X-39.4850 Y25.2300 
G01 Z-0.500000
G01 Z2.540000
G00 X-42.0250 Y25.2300 
G01 Z-0.500000
G01 Z2.540000
G00 X-42.0250 Y27.7700 
G01 Z-0.500000
G01 Z2.540000
G00 X-44.5650 Y27.7700 
G01 Z-0.500000
G01 Z2.540000
G00 X-44.5650 Y25.2300 
G01 Z-0.500000
G01 Z2.540000
G00 X-47.1050 Y25.2300 
G01 Z-0.500000
G01 Z2.540000
G00 X-47.1050 Y27.7700 
G01 Z-0.500000
G01 Z2.540000
G00 X-49.6450 Y27.7700 
G01 Z-0.500000
G01 Z2.540000
G00 X-49.6450 Y25.2300 
G01 Z-0.500000
G01 Z2.540000
G00 X-52.1850 Y25.2300 
G01 Z-0.500000
G01 Z2.540000
G00 X-52.1850 Y27.7700 
G01 Z-0.500000
G01 Z2.540000
G00 X-54.7250 Y27.7700 
G01 Z-0.500000
G01 Z2.540000
G00 X-54.7250 Y25.2300 
G01 Z-0.500000
G01 Z2.540000
G00 X-57.2650 Y25.2300 
G01 Z-0.500000
G01 Z2.540000
G00 X-57.2650 Y27.7700 
G01 Z-0.500000
G01 Z2.540000
G00 X-59.8050 Y27.7700 
G01 Z-0.500000
G01 Z2.540000
G00 X-59.8050 Y25.2300 
G01 Z-0.500000
G01 Z2.540000
G00 X-62.3450 Y25.2300 
G01 Z-0.500000
G01 Z2.540000
G00 X-62.3450 Y27.7700 
G01 Z-0.500000
G01 Z2.540000
G00 X-64.8850 Y27.7700 
G01 Z-0.500000
G01 Z2.540000
G00 X-67.4250 Y27.7700 
G01 Z-0.500000
G01 Z2.540000
G00 X-67.4250 Y25.2300 
G01 Z-0.500000
G01 Z2.540000
G00 X-64.8850 Y25.2300 
G01 Z-0.500000
G01 Z2.540000
G00 X-69.9650 Y25.2300 
G01 Z-0.500000
G01 Z2.540000
G00 X-69.9650 Y27.7700 
G01 Z-0.500000
G01 Z2.540000
G00 X-82.5500 Y28.5750 
G01 Z-0.500000
G01 Z2.540000
G00 X-82.5500 Y26.0350 
G01 Z-0.500000
G01 Z2.540000
G00 X-82.5500 Y23.4950 
G01 Z-0.500000
G01 Z2.540000
G00 X-82.5500 Y20.9550 
G01 Z-0.500000
G01 Z2.540000
G00 X-82.5500 Y31.1150 
G01 Z-0.500000
G01 Z2.540000
M05
G00 Z101.6000 
G00 X0.0000 Y0.0000 
M06 T03  ; 3.0000 
G01 Z0.0000 F508.00 
M06 
G00 Z2.5400 
M03
G04 P3.000000
G00 Z2.540000
G00 X-83.4390 Y17.0180 
G01 Z-0.5000 F508.00 
G01 Z2.540000
(R2.5400  P0.500000)
G00 X-83.4390 Y35.0520 
G01 Z-0.500000
G01 Z2.540000
T01 
G00 Z12.7000 
M05
M02
