(/Applications/EAGLE-7.7.0/ulp/pcb-gcode.ulp)
(Copyright 2005 - 2012 by John Johnson)
(See readme.txt for licensing terms.)
(This file generated from the board:)
(.../AssetTracker/HologramAssetTrackker.brd)
(Current profile is .../EAGLE-7.7.0/ulp/profiles/generic.pp  )
(This file generated 11/30/17 10:44 AM)
(Settings from pcb-machine.h)
(spindle on time = 3.0000)
(  Tool Size)
(0.1778 )
(spindle speed = 30000.0000)
(tool change at 0.0000 0.0000 101.6000 )
(feed rate xy = F508.00 )
(feed rate z  = F254.00 )
(Z Axis Settings)
(  High     Up        Down     Drill)
(12.7000 	2.5400 	-0.0254 	-0.5000 )
(Settings from pcb-defaults.h)
(isolate min = 0.0000)
(isolate max = 0.1270)
(isolate step = 0.0508)
(Generated top outlines, top drill, bottom outlines, bottom drill, )
(Unit of measure: mm)
(Metric Mode)
G21
(Absolute Coordinates)
G90
S30000
G00 Z12.7000 
G00 X0.0000 Y0.0000 
M03
G04 P3.000000
G00 Z2.5400 
G00 X-4.1605 Y11.8348 
G01 Z-0.0254 F254.00 
G01 X-4.2148 Y11.7805 F508.00 
G01 X-4.2815 Y11.7420 
G01 X-4.3557 Y11.7221 
G01 X-90.5643 Y11.7221 
G01 X-90.6385 Y11.7420 
G01 X-90.7052 Y11.7805 
G01 X-90.7595 Y11.8348 
G01 X-90.7980 Y11.9015 
G01 X-90.8179 Y11.9757 
G01 X-90.8179 Y39.4493 
G01 X-90.7980 Y39.5235 
G01 X-90.7595 Y39.5902 
G01 X-90.7052 Y39.6445 
G01 X-90.6385 Y39.6830 
G01 X-90.5643 Y39.7029 
G01 X-16.9209 Y39.7029 
G01 X-16.8466 Y39.6830 
G01 X-16.7800 Y39.6445 
G01 X-16.7256 Y39.5902 
G01 X-16.6871 Y39.5235 
G01 X-16.6672 Y39.4493 
G01 X-16.6672 Y39.3723 
G01 X-16.6871 Y39.2981 
G01 X-16.7256 Y39.2314 
G01 X-16.7800 Y39.1771 
G01 X-22.3975 Y33.5595 
G01 X-22.5425 Y33.2095 
G01 X-22.5425 Y30.2251 
G01 X-22.5400 Y30.2060 
G01 X-22.5425 Y30.1868 
G01 X-22.5425 Y30.1675 
G01 X-22.5475 Y30.1488 
G01 X-22.5500 Y30.1297 
G01 X-22.5574 Y30.1119 
G01 X-22.5624 Y30.0932 
G01 X-22.5721 Y30.0765 
G01 X-22.6904 Y29.7907 
G01 X-22.7198 Y29.7197 
G01 X-22.7398 Y29.6937 
G01 X-22.7667 Y29.6587 
G01 X-22.7936 Y29.6380 
G01 X-22.8277 Y29.6118 
G01 X-22.8979 Y29.5828 
G01 X-22.9750 Y29.5724 
G01 X-23.0512 Y29.5824 
G01 X-23.1223 Y29.6118 
G01 X-23.1483 Y29.6318 
G01 X-23.1833 Y29.6587 
G01 X-23.2040 Y29.6856 
G01 X-23.2301 Y29.7197 
G01 X-23.3944 Y30.1163 
G01 X-23.6767 Y30.3986 
G01 X-24.0454 Y30.5513 
G01 X-24.4446 Y30.5513 
G01 X-24.8133 Y30.3986 
G01 X-25.0956 Y30.1163 
G01 X-25.2304 Y29.7907 
G01 X-25.2598 Y29.7197 
G01 X-25.2798 Y29.6937 
G01 X-25.3067 Y29.6587 
G01 X-25.3336 Y29.6380 
G01 X-25.3677 Y29.6118 
G01 X-25.4379 Y29.5828 
G01 X-25.5150 Y29.5724 
G01 X-25.5912 Y29.5824 
G01 X-25.6623 Y29.6118 
G01 X-25.6883 Y29.6318 
G01 X-25.7233 Y29.6587 
G01 X-25.7440 Y29.6856 
G01 X-25.7701 Y29.7197 
G01 X-25.9344 Y30.1163 
G01 X-26.2167 Y30.3986 
G01 X-26.5854 Y30.5513 
G01 X-26.9846 Y30.5513 
G01 X-27.3533 Y30.3986 
G01 X-27.6356 Y30.1163 
G01 X-27.6882 Y29.9892 
G01 X-27.6932 Y29.9705 
G01 X-27.7029 Y29.9538 
G01 X-27.7102 Y29.9360 
G01 X-27.7220 Y29.9207 
G01 X-27.7317 Y29.9039 
G01 X-27.7453 Y29.8903 
G01 X-27.7571 Y29.8750 
G01 X-27.7724 Y29.8632 
G01 X-27.7860 Y29.8496 
G01 X-27.8028 Y29.8399 
G01 X-27.8181 Y29.8281 
G01 X-27.8359 Y29.8208 
G01 X-27.8527 Y29.8111 
G01 X-27.8713 Y29.8061 
G01 X-27.8891 Y29.7987 
G01 X-27.9083 Y29.7962 
G01 X-27.9269 Y29.7912 
G01 X-27.9462 Y29.7912 
G01 X-27.9654 Y29.7887 
G01 X-27.9845 Y29.7912 
G01 X-28.0039 Y29.7912 
G01 X-28.0225 Y29.7962 
G01 X-28.0417 Y29.7987 
G01 X-28.0595 Y29.8061 
G01 X-28.0781 Y29.8111 
G01 X-28.0949 Y29.8208 
G01 X-28.1127 Y29.8281 
G01 X-28.1280 Y29.8399 
G01 X-28.1448 Y29.8496 
G01 X-28.1584 Y29.8632 
G01 X-28.1737 Y29.8750 
G01 X-28.1855 Y29.8903 
G01 X-28.1991 Y29.9039 
G01 X-28.2088 Y29.9207 
G01 X-28.2205 Y29.9360 
G01 X-28.2279 Y29.9538 
G01 X-28.2376 Y29.9705 
G01 X-28.2426 Y29.9892 
G01 X-28.2500 Y30.0070 
G01 X-28.2525 Y30.0262 
G01 X-28.2575 Y30.0448 
G01 X-28.2575 Y30.0641 
G01 X-28.2600 Y30.0833 
G01 X-28.2575 Y30.1024 
G01 X-28.2575 Y33.4263 
G01 X-28.2592 Y33.4341 
G01 X-28.2575 Y33.4646 
G01 X-28.2575 Y33.4952 
G01 X-28.2554 Y33.5029 
G01 X-28.2550 Y33.5110 
G01 X-28.2458 Y33.5391 
G01 X-28.2546 Y33.6534 
G01 X-28.2575 Y33.6643 
G01 X-28.2575 Y33.6916 
G01 X-28.2596 Y33.7187 
G01 X-28.2575 Y33.7299 
G01 X-28.2575 Y33.8445 
G01 X-28.2688 Y33.8719 
G01 X-28.2699 Y33.8798 
G01 X-28.2726 Y33.8874 
G01 X-28.2748 Y33.9170 
G01 X-28.3267 Y34.0191 
G01 X-28.3336 Y34.0281 
G01 X-28.3440 Y34.0533 
G01 X-28.3563 Y34.0776 
G01 X-28.3587 Y34.0887 
G01 X-28.4025 Y34.1945 
G01 X-28.4235 Y34.2155 
G01 X-28.4275 Y34.2225 
G01 X-28.4329 Y34.2284 
G01 X-28.4463 Y34.2549 
G01 X-28.5333 Y34.3295 
G01 X-28.5431 Y34.3351 
G01 X-28.5623 Y34.3544 
G01 X-28.5830 Y34.3721 
G01 X-28.5894 Y34.3815 
G01 X-28.6704 Y34.4625 
G01 X-28.6978 Y34.4738 
G01 X-28.7042 Y34.4787 
G01 X-28.7114 Y34.4822 
G01 X-28.7346 Y34.5021 
G01 X-28.7589 Y34.5207 
G01 X-28.7637 Y34.5270 
G01 X-32.9782 Y38.1394 
G01 X-32.9881 Y38.1451 
G01 X-33.0073 Y38.1644 
G01 X-33.0280 Y38.1821 
G01 X-33.0344 Y38.1915 
G01 X-33.1155 Y38.2725 
G01 X-33.1429 Y38.2838 
G01 X-33.1492 Y38.2887 
G01 X-33.1565 Y38.2922 
G01 X-33.1790 Y38.3115 
G01 X-33.2879 Y38.3471 
G01 X-33.2991 Y38.3486 
G01 X-33.3243 Y38.3590 
G01 X-33.3502 Y38.3674 
G01 X-33.3597 Y38.3737 
G01 X-33.4655 Y38.4175 
G01 X-33.4952 Y38.4175 
G01 X-33.5029 Y38.4196 
G01 X-33.5110 Y38.4200 
G01 X-33.5391 Y38.4292 
G01 X-33.6534 Y38.4204 
G01 X-33.6643 Y38.4175 
G01 X-33.6916 Y38.4175 
G01 X-33.7187 Y38.4154 
G01 X-33.7299 Y38.4175 
G01 X-85.2795 Y38.4175 
G01 X-85.6295 Y38.2725 
G01 X-89.4257 Y34.4764 
G01 X-89.7075 Y34.1945 
G01 X-89.8525 Y33.8445 
G01 X-89.8525 Y27.7505 
G01 X-89.7075 Y27.4004 
G01 X-87.8164 Y25.5093 
G01 X-87.5345 Y25.2275 
G01 X-87.1845 Y25.0825 
G01 X-82.3605 Y25.0825 
G01 X-82.2286 Y25.1371 
G01 X-82.2119 Y25.1468 
G01 X-82.1933 Y25.1518 
G01 X-82.1754 Y25.1592 
G01 X-82.1563 Y25.1617 
G01 X-82.1376 Y25.1667 
G01 X-82.1183 Y25.1667 
G01 X-82.0992 Y25.1692 
G01 X-82.0800 Y25.1667 
G01 X-81.6233 Y25.1667 
G01 X-81.3041 Y25.2989 
G01 X-81.0599 Y25.5431 
G01 X-80.9277 Y25.8623 
G01 X-80.9277 Y26.2077 
G01 X-81.0599 Y26.5268 
G01 X-81.3041 Y26.7711 
G01 X-81.6233 Y26.9033 
G01 X-82.0800 Y26.9033 
G01 X-82.0992 Y26.9008 
G01 X-82.1183 Y26.9033 
G01 X-82.1376 Y26.9033 
G01 X-82.1563 Y26.9083 
G01 X-82.1754 Y26.9108 
G01 X-82.1933 Y26.9182 
G01 X-82.2119 Y26.9232 
G01 X-82.2286 Y26.9329 
G01 X-82.3605 Y26.9875 
G01 X-86.5179 Y26.9875 
G01 X-86.5922 Y27.0074 
G01 X-86.6588 Y27.0459 
G01 X-86.7132 Y27.1002 
G01 X-87.8891 Y28.2762 
G01 X-87.9276 Y28.3428 
G01 X-87.9475 Y28.4171 
G01 X-87.9475 Y33.1779 
G01 X-87.9276 Y33.2522 
G01 X-87.8891 Y33.3188 
G01 X-87.8348 Y33.3732 
G01 X-86.3254 Y34.8825 
G01 X-86.2608 Y34.9198 
G01 X-86.1845 Y34.9409 
G01 X-86.1076 Y34.9409 
G01 X-86.1045 Y34.9400 
G01 X-86.0333 Y34.9210 
G01 X-85.9682 Y34.8834 
G01 X-85.9123 Y34.8281 
G01 X-85.8750 Y34.7635 
G01 X-85.8540 Y34.6872 
G01 X-85.7007 Y34.1152 
G01 X-85.6972 Y34.1091 
G01 X-85.6622 Y34.0485 
G01 X-85.6423 Y33.9742 
G01 X-85.6423 Y33.8973 
G01 X-85.6493 Y33.8712 
G01 X-85.6622 Y33.8230 
G01 X-85.6716 Y33.8066 
G01 X-85.7006 Y33.7564 
G01 X-85.7550 Y33.7020 
G01 X-86.2507 Y33.2064 
G01 X-86.5325 Y32.9245 
G01 X-86.6775 Y32.5745 
G01 X-86.6775 Y29.6555 
G01 X-86.5325 Y29.3055 
G01 X-85.2764 Y28.0493 
G01 X-84.9945 Y27.7675 
G01 X-84.6445 Y27.6225 
G01 X-82.3605 Y27.6225 
G01 X-82.2286 Y27.6771 
G01 X-82.2119 Y27.6868 
G01 X-82.1933 Y27.6918 
G01 X-82.1754 Y27.6992 
G01 X-82.1563 Y27.7017 
G01 X-82.1376 Y27.7067 
G01 X-82.1183 Y27.7067 
G01 X-82.0992 Y27.7092 
G01 X-82.0800 Y27.7067 
G01 X-81.6233 Y27.7067 
G01 X-81.3041 Y27.8389 
G01 X-81.0599 Y28.0831 
G01 X-80.9277 Y28.4023 
G01 X-80.9277 Y28.7477 
G01 X-81.0599 Y29.0668 
G01 X-81.3041 Y29.3111 
G01 X-81.6233 Y29.4433 
G01 X-82.0800 Y29.4433 
G01 X-82.0992 Y29.4408 
G01 X-82.1183 Y29.4433 
G01 X-82.1376 Y29.4433 
G01 X-82.1563 Y29.4483 
G01 X-82.1754 Y29.4508 
G01 X-82.1933 Y29.4582 
G01 X-82.2119 Y29.4632 
G01 X-82.2286 Y29.4729 
G01 X-82.3605 Y29.5275 
G01 X-83.9779 Y29.5275 
G01 X-84.0522 Y29.5474 
G01 X-84.1188 Y29.5859 
G01 X-84.1732 Y29.6402 
G01 X-84.7141 Y30.1812 
G01 X-84.7526 Y30.2478 
G01 X-84.7725 Y30.3221 
G01 X-84.7725 Y30.8084 
G01 X-84.7741 Y30.8392 
G01 X-84.7725 Y30.8468 
G01 X-84.7725 Y30.8545 
G01 X-84.7645 Y30.8843 
G01 X-84.7581 Y30.9144 
G01 X-84.7546 Y30.9213 
G01 X-84.7526 Y30.9288 
G01 X-84.7372 Y30.9555 
G01 X-84.7232 Y30.9830 
G01 X-84.7180 Y30.9887 
G01 X-84.7141 Y30.9954 
G01 X-84.6923 Y31.0172 
G01 X-84.6717 Y31.0401 
G01 X-84.6652 Y31.0443 
G01 X-84.6598 Y31.0498 
G01 X-84.6331 Y31.0652 
G01 X-84.6072 Y31.0820 
G01 X-84.5999 Y31.0844 
G01 X-84.5931 Y31.0883 
G01 X-84.5634 Y31.0962 
G01 X-84.5341 Y31.1058 
G01 X-84.5263 Y31.1062 
G01 X-84.5189 Y31.1082 
G01 X-84.4880 Y31.1082 
G01 X-84.4573 Y31.1098 
G01 X-84.4497 Y31.1082 
G01 X-84.4419 Y31.1082 
G01 X-84.4122 Y31.1002 
G01 X-84.3820 Y31.0938 
G01 X-84.3751 Y31.0903 
G01 X-84.3677 Y31.0883 
G01 X-84.3410 Y31.0729 
G01 X-84.3135 Y31.0589 
G01 X-84.3078 Y31.0537 
G01 X-84.3010 Y31.0498 
G01 X-84.2793 Y31.0280 
G01 X-84.2564 Y31.0074 
G01 X-84.2521 Y31.0009 
G01 X-84.2467 Y30.9954 
G01 X-84.2313 Y30.9687 
G01 X-84.2145 Y30.9429 
G01 X-84.2121 Y30.9355 
G01 X-84.2082 Y30.9288 
G01 X-84.2002 Y30.8991 
G01 X-84.1558 Y30.7622 
G01 X-84.0901 Y30.6333 
G01 X-84.0051 Y30.5162 
G01 X-83.9027 Y30.4139 
G01 X-83.7857 Y30.3289 
G01 X-83.6568 Y30.2632 
G01 X-83.5192 Y30.2185 
G01 X-83.3763 Y30.1959 
G01 X-82.8889 Y30.1959 
G01 X-82.8889 Y30.2519 
G01 X-82.9377 Y30.2721 
G01 X-83.3870 Y30.2721 
G01 X-83.5499 Y30.3045 
G01 X-83.7033 Y30.3680 
G01 X-83.8413 Y30.4603 
G01 X-83.9587 Y30.5777 
G01 X-84.0510 Y30.7157 
G01 X-84.1145 Y30.8691 
G01 X-84.1469 Y31.0320 
G01 X-84.1469 Y31.1980 
G01 X-84.1145 Y31.3609 
G01 X-84.0510 Y31.5143 
G01 X-83.9587 Y31.6523 
G01 X-83.8413 Y31.7697 
G01 X-83.7033 Y31.8620 
G01 X-83.5499 Y31.9255 
G01 X-83.3870 Y31.9579 
G01 X-82.9377 Y31.9579 
G01 X-82.8889 Y31.9781 
G01 X-82.8889 Y32.0341 
G01 X-83.3763 Y32.0341 
G01 X-83.5192 Y32.0115 
G01 X-83.6568 Y31.9668 
G01 X-83.7857 Y31.9011 
G01 X-83.9027 Y31.8161 
G01 X-84.0051 Y31.7137 
G01 X-84.0901 Y31.5967 
G01 X-84.1558 Y31.4678 
G01 X-84.2002 Y31.3309 
G01 X-84.2082 Y31.3012 
G01 X-84.2121 Y31.2945 
G01 X-84.2145 Y31.2871 
G01 X-84.2313 Y31.2612 
G01 X-84.2467 Y31.2346 
G01 X-84.2521 Y31.2291 
G01 X-84.2564 Y31.2226 
G01 X-84.2793 Y31.2020 
G01 X-84.3010 Y31.1802 
G01 X-84.3078 Y31.1763 
G01 X-84.3135 Y31.1711 
G01 X-84.3410 Y31.1571 
G01 X-84.3677 Y31.1417 
G01 X-84.3751 Y31.1397 
G01 X-84.3820 Y31.1362 
G01 X-84.4122 Y31.1298 
G01 X-84.4419 Y31.1218 
G01 X-84.4497 Y31.1218 
G01 X-84.4573 Y31.1202 
G01 X-84.4880 Y31.1218 
G01 X-84.5189 Y31.1218 
G01 X-84.5263 Y31.1238 
G01 X-84.5341 Y31.1242 
G01 X-84.5634 Y31.1337 
G01 X-84.5931 Y31.1417 
G01 X-84.5999 Y31.1456 
G01 X-84.6072 Y31.1480 
G01 X-84.6331 Y31.1648 
G01 X-84.6598 Y31.1802 
G01 X-84.6652 Y31.1857 
G01 X-84.6717 Y31.1899 
G01 X-84.6924 Y31.2128 
G01 X-84.7141 Y31.2346 
G01 X-84.7180 Y31.2413 
G01 X-84.7232 Y31.2470 
G01 X-84.7372 Y31.2745 
G01 X-84.7526 Y31.3012 
G01 X-84.7546 Y31.3087 
G01 X-84.7581 Y31.3156 
G01 X-84.7645 Y31.3457 
G01 X-84.7725 Y31.3755 
G01 X-84.7725 Y31.3832 
G01 X-84.7741 Y31.3908 
G01 X-84.7725 Y31.4216 
G01 X-84.7725 Y31.9079 
G01 X-84.7526 Y31.9822 
G01 X-84.7141 Y32.0488 
G01 X-84.6598 Y32.1032 
G01 X-84.1499 Y32.6130 
G01 X-84.0853 Y32.6503 
G01 X-84.0090 Y32.6714 
G01 X-83.9321 Y32.6714 
G01 X-83.9281 Y32.6703 
G01 X-83.7585 Y32.6249 
G01 X-83.1195 Y32.6249 
G01 X-82.5022 Y32.7903 
G01 X-81.9487 Y33.1098 
G01 X-81.4968 Y33.5617 
G01 X-81.3248 Y33.8597 
G01 X-81.2704 Y33.9141 
G01 X-81.2038 Y33.9526 
G01 X-81.1295 Y33.9725 
G01 X-35.3752 Y33.9725 
G01 X-35.3538 Y33.9750 
G01 X-35.3369 Y33.9725 
G01 X-35.3199 Y33.9725 
G01 X-35.2990 Y33.9669 
G01 X-35.2777 Y33.9637 
G01 X-35.2621 Y33.9570 
G01 X-35.2456 Y33.9526 
G01 X-35.2269 Y33.9418 
G01 X-35.2071 Y33.9332 
G01 X-35.1938 Y33.9226 
G01 X-35.1790 Y33.9141 
G01 X-35.1637 Y33.8989 
G01 X-32.9450 Y32.1405 
G01 X-32.9302 Y32.1320 
G01 X-32.9150 Y32.1167 
G01 X-32.8980 Y32.1033 
G01 X-32.8879 Y32.0897 
G01 X-32.8759 Y32.0776 
G01 X-32.8651 Y32.0589 
G01 X-32.8522 Y32.0416 
G01 X-32.8459 Y32.0258 
G01 X-32.8374 Y32.0110 
G01 X-32.8318 Y31.9902 
G01 X-32.8239 Y31.9701 
G01 X-32.8219 Y31.9532 
G01 X-32.8175 Y31.9367 
G01 X-32.8175 Y31.9151 
G01 X-32.8150 Y31.8937 
G01 X-32.8175 Y31.8768 
G01 X-32.8175 Y29.9475 
G01 X-32.8150 Y29.9283 
G01 X-32.8175 Y29.9092 
G01 X-32.8175 Y29.8899 
G01 X-32.8225 Y29.8712 
G01 X-32.8250 Y29.8521 
G01 X-32.8324 Y29.8342 
G01 X-32.8374 Y29.8156 
G01 X-32.8471 Y29.7989 
G01 X-32.8798 Y29.7197 
G01 X-32.8936 Y29.7017 
G01 X-32.9267 Y29.6587 
G01 X-32.9877 Y29.6118 
G01 X-32.9990 Y29.6071 
G01 X-33.0587 Y29.5824 
G01 X-33.1350 Y29.5724 
G01 X-33.1542 Y29.5749 
G01 X-33.2112 Y29.5824 
G01 X-33.2823 Y29.6118 
G01 X-33.3003 Y29.6256 
G01 X-33.3433 Y29.6587 
G01 X-33.3901 Y29.7197 
G01 X-33.3978 Y29.7381 
G01 X-33.4196 Y29.7907 
G01 X-33.5544 Y30.1163 
G01 X-33.8367 Y30.3986 
G01 X-34.2054 Y30.5513 
G01 X-34.6046 Y30.5513 
G01 X-34.9733 Y30.3986 
G01 X-35.2556 Y30.1163 
G01 X-35.3714 Y29.8366 
G01 X-35.3738 Y29.8252 
G01 X-35.3861 Y29.8012 
G01 X-35.3964 Y29.7763 
G01 X-35.4035 Y29.7671 
G01 X-35.4087 Y29.7567 
G01 X-35.4268 Y29.7367 
G01 X-35.4432 Y29.7153 
G01 X-35.4524 Y29.7082 
G01 X-35.4602 Y29.6995 
G01 X-35.4828 Y29.6849 
G01 X-35.5042 Y29.6684 
G01 X-35.5150 Y29.6640 
G01 X-35.5247 Y29.6577 
G01 X-35.5504 Y29.6493 
G01 X-35.5753 Y29.6390 
G01 X-35.5868 Y29.6375 
G01 X-35.5979 Y29.6339 
G01 X-35.6248 Y29.6325 
G01 X-35.6516 Y29.6290 
G01 X-35.6631 Y29.6305 
G01 X-35.6747 Y29.6299 
G01 X-35.7011 Y29.6355 
G01 X-35.7278 Y29.6390 
G01 X-35.7385 Y29.6434 
G01 X-35.7499 Y29.6459 
G01 X-35.7739 Y29.6581 
G01 X-35.7989 Y29.6684 
G01 X-35.8081 Y29.6755 
G01 X-35.8184 Y29.6808 
G01 X-35.8385 Y29.6988 
G01 X-35.8599 Y29.7153 
G01 X-35.8669 Y29.7245 
G01 X-35.8756 Y29.7322 
G01 X-35.8903 Y29.7549 
G01 X-35.9029 Y29.7713 
G01 X-35.9029 Y27.7937 
G01 X-35.9385 Y27.6146 
G01 X-36.0084 Y27.4459 
G01 X-36.0410 Y27.3971 
G01 X-36.0784 Y27.3068 
G01 X-36.1854 Y27.1466 
G01 X-36.3216 Y27.0104 
G01 X-36.4818 Y26.9034 
G01 X-36.6598 Y26.8297 
G01 X-36.8487 Y26.7921 
G01 X-37.0413 Y26.7921 
G01 X-37.2302 Y26.8297 
G01 X-37.4082 Y26.9034 
G01 X-37.5684 Y27.0104 
G01 X-37.7046 Y27.1466 
G01 X-37.8116 Y27.3068 
G01 X-37.8853 Y27.4848 
G01 X-37.9229 Y27.6737 
G01 X-37.9229 Y29.6443 
G01 X-37.8853 Y29.8332 
G01 X-37.8116 Y30.0112 
G01 X-37.7571 Y30.0928 
G01 X-37.7571 Y30.2236 
G01 X-37.8466 Y30.1005 
G01 X-37.9219 Y29.9526 
G01 X-37.9523 Y29.8588 
G01 X-37.9539 Y29.8473 
G01 X-37.9642 Y29.8224 
G01 X-37.9725 Y29.7967 
G01 X-37.9788 Y29.7870 
G01 X-37.9833 Y29.7763 
G01 X-37.9997 Y29.7549 
G01 X-38.0144 Y29.7322 
G01 X-38.0230 Y29.7245 
G01 X-38.0301 Y29.7153 
G01 X-38.0515 Y29.6988 
G01 X-38.0716 Y29.6808 
G01 X-38.0819 Y29.6755 
G01 X-38.0911 Y29.6684 
G01 X-38.1161 Y29.6581 
G01 X-38.1401 Y29.6459 
G01 X-38.1515 Y29.6434 
G01 X-38.1622 Y29.6390 
G01 X-38.1889 Y29.6355 
G01 X-38.2153 Y29.6299 
G01 X-38.2269 Y29.6305 
G01 X-38.2384 Y29.6290 
G01 X-38.2652 Y29.6325 
G01 X-38.2921 Y29.6339 
G01 X-38.3032 Y29.6375 
G01 X-38.3147 Y29.6390 
G01 X-38.3396 Y29.6493 
G01 X-38.3653 Y29.6577 
G01 X-38.3750 Y29.6640 
G01 X-38.3858 Y29.6684 
G01 X-38.4072 Y29.6849 
G01 X-38.4298 Y29.6995 
G01 X-38.4376 Y29.7082 
G01 X-38.4468 Y29.7153 
G01 X-38.4632 Y29.7366 
G01 X-38.4812 Y29.7567 
G01 X-38.4865 Y29.7671 
G01 X-38.4936 Y29.7763 
G01 X-38.5039 Y29.8012 
G01 X-38.5162 Y29.8252 
G01 X-38.5186 Y29.8366 
G01 X-38.6344 Y30.1163 
G01 X-38.9167 Y30.3986 
G01 X-39.2854 Y30.5513 
G01 X-39.6846 Y30.5513 
G01 X-40.0533 Y30.3986 
G01 X-40.3356 Y30.1163 
G01 X-40.4704 Y29.7907 
G01 X-40.4998 Y29.7197 
G01 X-40.5198 Y29.6937 
G01 X-40.5467 Y29.6587 
G01 X-40.6077 Y29.6118 
G01 X-40.6787 Y29.5824 
G01 X-40.7550 Y29.5724 
G01 X-40.7614 Y29.5732 
G01 X-40.8312 Y29.5824 
G01 X-40.9023 Y29.6118 
G01 X-40.9283 Y29.6318 
G01 X-40.9633 Y29.6587 
G01 X-41.0101 Y29.7197 
G01 X-41.1744 Y30.1163 
G01 X-41.4567 Y30.3986 
G01 X-41.8254 Y30.5513 
G01 X-42.2246 Y30.5513 
G01 X-42.5933 Y30.3986 
G01 X-42.8756 Y30.1163 
G01 X-43.0399 Y29.7197 
G01 X-43.0667 Y29.6847 
G01 X-43.0867 Y29.6587 
G01 X-43.1207 Y29.6325 
G01 X-43.1477 Y29.6118 
G01 X-43.2187 Y29.5824 
G01 X-43.2950 Y29.5724 
G01 X-43.3648 Y29.5816 
G01 X-43.3713 Y29.5824 
G01 X-43.4423 Y29.6118 
G01 X-43.4773 Y29.6387 
G01 X-43.5033 Y29.6587 
G01 X-43.5294 Y29.6927 
G01 X-43.5501 Y29.7197 
G01 X-43.5796 Y29.7907 
G01 X-43.7144 Y30.1163 
G01 X-43.9967 Y30.3986 
G01 X-44.3654 Y30.5513 
G01 X-44.7646 Y30.5513 
G01 X-45.1333 Y30.3986 
G01 X-45.4156 Y30.1163 
G01 X-45.5504 Y29.7907 
G01 X-45.5798 Y29.7197 
G01 X-45.5998 Y29.6937 
G01 X-45.6267 Y29.6587 
G01 X-45.6536 Y29.6380 
G01 X-45.6877 Y29.6118 
G01 X-45.7579 Y29.5828 
G01 X-45.8350 Y29.5724 
G01 X-45.9113 Y29.5824 
G01 X-45.9823 Y29.6118 
G01 X-46.0083 Y29.6318 
G01 X-46.0433 Y29.6587 
G01 X-46.0640 Y29.6856 
G01 X-46.0901 Y29.7197 
G01 X-46.2544 Y30.1163 
G01 X-46.5367 Y30.3986 
G01 X-46.9054 Y30.5513 
G01 X-47.3046 Y30.5513 
G01 X-47.6733 Y30.3986 
G01 X-47.9556 Y30.1163 
G01 X-48.0904 Y29.7907 
G01 X-48.1198 Y29.7197 
G01 X-48.1398 Y29.6937 
G01 X-48.1667 Y29.6587 
G01 X-48.1936 Y29.6380 
G01 X-48.2277 Y29.6118 
G01 X-48.2979 Y29.5828 
G01 X-48.3750 Y29.5724 
G01 X-48.4513 Y29.5824 
G01 X-48.5223 Y29.6118 
G01 X-48.5483 Y29.6318 
G01 X-48.5833 Y29.6587 
G01 X-48.6040 Y29.6856 
G01 X-48.6301 Y29.7197 
G01 X-48.7944 Y30.1163 
G01 X-49.0767 Y30.3986 
G01 X-49.4454 Y30.5513 
G01 X-49.8446 Y30.5513 
G01 X-50.2133 Y30.3986 
G01 X-50.4956 Y30.1163 
G01 X-50.6304 Y29.7907 
G01 X-50.6598 Y29.7197 
G01 X-50.6798 Y29.6937 
G01 X-50.7067 Y29.6587 
G01 X-50.7336 Y29.6380 
G01 X-50.7677 Y29.6118 
G01 X-50.8379 Y29.5828 
G01 X-50.9150 Y29.5724 
G01 X-50.9913 Y29.5824 
G01 X-51.0623 Y29.6118 
G01 X-51.0883 Y29.6318 
G01 X-51.1233 Y29.6587 
G01 X-51.1440 Y29.6856 
G01 X-51.1701 Y29.7197 
G01 X-51.3344 Y30.1163 
G01 X-51.6167 Y30.3986 
G01 X-51.9854 Y30.5513 
G01 X-52.3846 Y30.5513 
G01 X-52.7533 Y30.3986 
G01 X-53.0356 Y30.1163 
G01 X-53.1704 Y29.7907 
G01 X-53.1998 Y29.7197 
G01 X-53.2198 Y29.6937 
G01 X-53.2467 Y29.6587 
G01 X-53.2736 Y29.6380 
G01 X-53.3077 Y29.6118 
G01 X-53.3779 Y29.5828 
G01 X-53.4550 Y29.5724 
G01 X-53.5312 Y29.5824 
G01 X-53.6023 Y29.6118 
G01 X-53.6283 Y29.6318 
G01 X-53.6633 Y29.6587 
G01 X-53.6840 Y29.6856 
G01 X-53.7101 Y29.7197 
G01 X-53.8744 Y30.1163 
G01 X-54.1567 Y30.3986 
G01 X-54.5254 Y30.5513 
G01 X-54.9246 Y30.5513 
G01 X-55.2933 Y30.3986 
G01 X-55.5756 Y30.1163 
G01 X-55.7104 Y29.7907 
G01 X-55.7398 Y29.7197 
G01 X-55.7598 Y29.6937 
G01 X-55.7867 Y29.6587 
G01 X-55.8136 Y29.6380 
G01 X-55.8477 Y29.6118 
G01 X-55.9179 Y29.5828 
G01 X-55.9950 Y29.5724 
G01 X-56.0712 Y29.5824 
G01 X-56.1423 Y29.6118 
G01 X-56.1683 Y29.6318 
G01 X-56.2033 Y29.6587 
G01 X-56.2240 Y29.6856 
G01 X-56.2501 Y29.7197 
G01 X-56.4144 Y30.1163 
G01 X-56.6967 Y30.3986 
G01 X-57.0654 Y30.5513 
G01 X-57.4646 Y30.5513 
G01 X-57.8333 Y30.3986 
G01 X-58.1156 Y30.1163 
G01 X-58.2504 Y29.7907 
G01 X-58.2798 Y29.7197 
G01 X-58.2998 Y29.6937 
G01 X-58.3267 Y29.6587 
G01 X-58.3536 Y29.6380 
G01 X-58.3877 Y29.6118 
G01 X-58.4579 Y29.5828 
G01 X-58.5350 Y29.5724 
G01 X-58.6112 Y29.5824 
G01 X-58.6823 Y29.6118 
G01 X-58.7083 Y29.6318 
G01 X-58.7433 Y29.6587 
G01 X-58.7640 Y29.6856 
G01 X-58.7901 Y29.7197 
G01 X-58.9544 Y30.1163 
G01 X-59.2367 Y30.3986 
G01 X-59.6054 Y30.5513 
G01 X-60.0046 Y30.5513 
G01 X-60.3733 Y30.3986 
G01 X-60.6556 Y30.1163 
G01 X-60.7904 Y29.7907 
G01 X-60.8198 Y29.7197 
G01 X-60.8398 Y29.6937 
G01 X-60.8667 Y29.6587 
G01 X-60.8936 Y29.6380 
G01 X-60.9277 Y29.6118 
G01 X-60.9979 Y29.5828 
G01 X-61.0750 Y29.5724 
G01 X-61.1512 Y29.5824 
G01 X-61.2223 Y29.6118 
G01 X-61.2483 Y29.6318 
G01 X-61.2833 Y29.6587 
G01 X-61.3040 Y29.6856 
G01 X-61.3301 Y29.7197 
G01 X-61.4944 Y30.1163 
G01 X-61.7767 Y30.3986 
G01 X-62.1454 Y30.5513 
G01 X-62.5446 Y30.5513 
G01 X-62.9133 Y30.3986 
G01 X-63.1956 Y30.1163 
G01 X-63.3304 Y29.7907 
G01 X-63.3598 Y29.7197 
G01 X-63.3798 Y29.6937 
G01 X-63.4067 Y29.6587 
G01 X-63.4336 Y29.6380 
G01 X-63.4677 Y29.6118 
G01 X-63.5379 Y29.5828 
G01 X-63.6150 Y29.5724 
G01 X-63.6912 Y29.5824 
G01 X-63.7623 Y29.6118 
G01 X-63.7883 Y29.6318 
G01 X-63.8233 Y29.6587 
G01 X-63.8440 Y29.6856 
G01 X-63.8701 Y29.7197 
G01 X-64.0344 Y30.1163 
G01 X-64.3167 Y30.3986 
G01 X-64.6854 Y30.5513 
G01 X-65.0846 Y30.5513 
G01 X-65.4533 Y30.3986 
G01 X-65.7356 Y30.1163 
G01 X-65.8704 Y29.7907 
G01 X-65.8998 Y29.7197 
G01 X-65.9198 Y29.6937 
G01 X-65.9467 Y29.6587 
G01 X-65.9736 Y29.6380 
G01 X-66.0077 Y29.6118 
G01 X-66.0779 Y29.5828 
G01 X-66.1550 Y29.5724 
G01 X-66.2313 Y29.5824 
G01 X-66.3023 Y29.6118 
G01 X-66.3283 Y29.6318 
G01 X-66.3633 Y29.6587 
G01 X-66.3840 Y29.6856 
G01 X-66.4101 Y29.7197 
G01 X-66.5744 Y30.1163 
G01 X-66.8567 Y30.3986 
G01 X-67.2254 Y30.5513 
G01 X-67.6246 Y30.5513 
G01 X-67.9933 Y30.3986 
G01 X-68.2756 Y30.1163 
G01 X-68.4104 Y29.7907 
G01 X-68.4398 Y29.7197 
G01 X-68.4598 Y29.6937 
G01 X-68.4867 Y29.6587 
G01 X-68.5136 Y29.6380 
G01 X-68.5477 Y29.6118 
G01 X-68.6179 Y29.5828 
G01 X-68.6950 Y29.5724 
G01 X-68.7712 Y29.5824 
G01 X-68.8423 Y29.6118 
G01 X-68.8683 Y29.6318 
G01 X-68.9033 Y29.6587 
G01 X-68.9240 Y29.6856 
G01 X-68.9501 Y29.7197 
G01 X-69.1144 Y30.1163 
G01 X-69.3967 Y30.3986 
G01 X-69.7654 Y30.5513 
G01 X-70.1646 Y30.5513 
G01 X-70.5333 Y30.3986 
G01 X-70.8156 Y30.1163 
G01 X-70.9683 Y29.7476 
G01 X-70.9683 Y27.5704 
G01 X-70.8156 Y27.2017 
G01 X-70.5333 Y26.9194 
G01 X-70.1367 Y26.7551 
G01 X-70.1017 Y26.7283 
G01 X-70.0757 Y26.7083 
G01 X-70.0495 Y26.6743 
G01 X-70.0288 Y26.6473 
G01 X-69.9994 Y26.5763 
G01 X-69.9894 Y26.5000 
G01 X-69.9986 Y26.4302 
G01 X-69.9994 Y26.4237 
G01 X-70.0288 Y26.3527 
G01 X-70.0557 Y26.3177 
G01 X-70.0757 Y26.2917 
G01 X-70.1097 Y26.2655 
G01 X-70.1367 Y26.2448 
G01 X-70.2077 Y26.2154 
G01 X-70.5333 Y26.0806 
G01 X-70.8156 Y25.7983 
G01 X-70.9683 Y25.4296 
G01 X-70.9683 Y23.2524 
G01 X-70.8156 Y22.8837 
G01 X-70.5333 Y22.6014 
G01 X-70.1646 Y22.4487 
G01 X-69.7654 Y22.4487 
G01 X-69.3967 Y22.6014 
G01 X-69.1144 Y22.8837 
G01 X-68.9501 Y23.2803 
G01 X-68.9233 Y23.3153 
G01 X-68.9033 Y23.3413 
G01 X-68.8693 Y23.3675 
G01 X-68.8423 Y23.3882 
G01 X-68.7712 Y23.4176 
G01 X-68.6950 Y23.4276 
G01 X-68.6252 Y23.4184 
G01 X-68.6187 Y23.4176 
G01 X-68.5477 Y23.3882 
G01 X-68.5127 Y23.3613 
G01 X-68.4867 Y23.3413 
G01 X-68.4605 Y23.3073 
G01 X-68.4398 Y23.2803 
G01 X-68.4104 Y23.2093 
G01 X-68.2756 Y22.8837 
G01 X-67.9933 Y22.6014 
G01 X-67.6246 Y22.4487 
G01 X-67.2254 Y22.4487 
G01 X-66.8567 Y22.6014 
G01 X-66.5744 Y22.8837 
G01 X-66.4101 Y23.2803 
G01 X-66.3833 Y23.3153 
G01 X-66.3633 Y23.3413 
G01 X-66.3293 Y23.3675 
G01 X-66.3023 Y23.3882 
G01 X-66.2313 Y23.4176 
G01 X-66.1550 Y23.4276 
G01 X-66.0852 Y23.4184 
G01 X-66.0787 Y23.4176 
G01 X-66.0077 Y23.3882 
G01 X-65.9727 Y23.3613 
G01 X-65.9467 Y23.3413 
G01 X-65.9205 Y23.3073 
G01 X-65.8998 Y23.2803 
G01 X-65.8704 Y23.2093 
G01 X-65.7356 Y22.8837 
G01 X-65.4533 Y22.6014 
G01 X-65.0846 Y22.4487 
G01 X-64.6854 Y22.4487 
G01 X-64.3167 Y22.6014 
G01 X-64.0344 Y22.8837 
G01 X-63.8701 Y23.2803 
G01 X-63.8433 Y23.3153 
G01 X-63.8233 Y23.3413 
G01 X-63.7893 Y23.3675 
G01 X-63.7623 Y23.3882 
G01 X-63.6912 Y23.4176 
G01 X-63.6150 Y23.4276 
G01 X-63.5452 Y23.4184 
G01 X-63.5387 Y23.4176 
G01 X-63.4677 Y23.3882 
G01 X-63.4327 Y23.3613 
G01 X-63.4067 Y23.3413 
G01 X-63.3805 Y23.3073 
G01 X-63.3598 Y23.2803 
G01 X-63.3304 Y23.2093 
G01 X-63.1956 Y22.8837 
G01 X-62.9133 Y22.6014 
G01 X-62.5446 Y22.4487 
G01 X-62.1454 Y22.4487 
G01 X-61.7767 Y22.6014 
G01 X-61.4944 Y22.8837 
G01 X-61.3301 Y23.2803 
G01 X-61.3033 Y23.3153 
G01 X-61.2833 Y23.3413 
G01 X-61.2493 Y23.3675 
G01 X-61.2223 Y23.3882 
G01 X-61.1512 Y23.4176 
G01 X-61.0750 Y23.4276 
G01 X-61.0052 Y23.4184 
G01 X-60.9987 Y23.4176 
G01 X-60.9277 Y23.3882 
G01 X-60.8927 Y23.3613 
G01 X-60.8667 Y23.3413 
G01 X-60.8405 Y23.3073 
G01 X-60.8198 Y23.2803 
G01 X-60.7904 Y23.2093 
G01 X-60.6556 Y22.8837 
G01 X-60.3733 Y22.6014 
G01 X-60.0046 Y22.4487 
G01 X-59.6054 Y22.4487 
G01 X-59.2367 Y22.6014 
G01 X-58.9544 Y22.8837 
G01 X-58.7901 Y23.2803 
G01 X-58.7633 Y23.3153 
G01 X-58.7433 Y23.3413 
G01 X-58.7093 Y23.3675 
G01 X-58.6823 Y23.3882 
G01 X-58.6112 Y23.4176 
G01 X-58.5350 Y23.4276 
G01 X-58.4652 Y23.4184 
G01 X-58.4587 Y23.4176 
G01 X-58.3877 Y23.3882 
G01 X-58.3527 Y23.3613 
G01 X-58.3267 Y23.3413 
G01 X-58.3005 Y23.3073 
G01 X-58.2798 Y23.2803 
G01 X-58.2504 Y23.2093 
G01 X-58.1156 Y22.8837 
G01 X-57.8333 Y22.6014 
G01 X-57.4646 Y22.4487 
G01 X-57.0654 Y22.4487 
G01 X-56.6967 Y22.6014 
G01 X-56.4144 Y22.8837 
G01 X-56.2501 Y23.2803 
G01 X-56.2233 Y23.3153 
G01 X-56.2033 Y23.3413 
G01 X-56.1693 Y23.3675 
G01 X-56.1423 Y23.3882 
G01 X-56.0712 Y23.4176 
G01 X-55.9950 Y23.4276 
G01 X-55.9252 Y23.4184 
G01 X-55.9187 Y23.4176 
G01 X-55.8477 Y23.3882 
G01 X-55.8127 Y23.3613 
G01 X-55.7867 Y23.3413 
G01 X-55.7605 Y23.3073 
G01 X-55.7398 Y23.2803 
G01 X-55.7104 Y23.2093 
G01 X-55.5756 Y22.8837 
G01 X-55.2933 Y22.6014 
G01 X-54.9246 Y22.4487 
G01 X-54.5254 Y22.4487 
G01 X-54.1567 Y22.6014 
G01 X-53.8744 Y22.8837 
G01 X-53.7101 Y23.2803 
G01 X-53.6833 Y23.3153 
G01 X-53.6633 Y23.3413 
G01 X-53.6293 Y23.3675 
G01 X-53.6023 Y23.3882 
G01 X-53.5312 Y23.4176 
G01 X-53.4550 Y23.4276 
G01 X-53.3852 Y23.4184 
G01 X-53.3787 Y23.4176 
G01 X-53.3077 Y23.3882 
G01 X-53.2727 Y23.3613 
G01 X-53.2467 Y23.3413 
G01 X-53.2205 Y23.3073 
G01 X-53.1998 Y23.2803 
G01 X-53.1704 Y23.2093 
G01 X-53.0356 Y22.8837 
G01 X-52.7533 Y22.6014 
G01 X-52.3846 Y22.4487 
G01 X-51.9854 Y22.4487 
G01 X-51.6167 Y22.6014 
G01 X-51.3344 Y22.8837 
G01 X-51.1701 Y23.2803 
G01 X-51.1433 Y23.3153 
G01 X-51.1233 Y23.3413 
G01 X-51.0893 Y23.3675 
G01 X-51.0623 Y23.3882 
G01 X-50.9913 Y23.4176 
G01 X-50.9150 Y23.4276 
G01 X-50.8452 Y23.4184 
G01 X-50.8387 Y23.4176 
G01 X-50.7677 Y23.3882 
G01 X-50.7327 Y23.3613 
G01 X-50.7067 Y23.3413 
G01 X-50.6805 Y23.3073 
G01 X-50.6598 Y23.2803 
G01 X-50.6304 Y23.2093 
G01 X-50.4956 Y22.8837 
G01 X-50.2133 Y22.6014 
G01 X-49.8446 Y22.4487 
G01 X-49.4454 Y22.4487 
G01 X-49.0767 Y22.6014 
G01 X-48.7944 Y22.8837 
G01 X-48.6301 Y23.2803 
G01 X-48.6033 Y23.3153 
G01 X-48.5833 Y23.3413 
G01 X-48.5493 Y23.3675 
G01 X-48.5223 Y23.3882 
G01 X-48.4513 Y23.4176 
G01 X-48.3750 Y23.4276 
G01 X-48.3052 Y23.4184 
G01 X-48.2987 Y23.4176 
G01 X-48.2277 Y23.3882 
G01 X-48.1927 Y23.3613 
G01 X-48.1667 Y23.3413 
G01 X-48.1405 Y23.3073 
G01 X-48.1198 Y23.2803 
G01 X-48.0904 Y23.2093 
G01 X-47.9556 Y22.8837 
G01 X-47.6733 Y22.6014 
G01 X-47.3046 Y22.4487 
G01 X-46.9054 Y22.4487 
G01 X-46.5367 Y22.6014 
G01 X-46.2544 Y22.8837 
G01 X-46.1196 Y23.2093 
G01 X-46.1155 Y23.2191 
G01 X-46.0901 Y23.2803 
G01 X-46.0765 Y23.2981 
G01 X-46.0433 Y23.3413 
G01 X-45.9920 Y23.3807 
G01 X-45.9823 Y23.3882 
G01 X-45.9112 Y23.4176 
G01 X-45.8350 Y23.4276 
G01 X-45.7587 Y23.4176 
G01 X-45.7291 Y23.4053 
G01 X-45.6877 Y23.3882 
G01 X-45.6699 Y23.3745 
G01 X-45.6267 Y23.3413 
G01 X-45.5873 Y23.2900 
G01 X-45.5798 Y23.2803 
G01 X-45.4156 Y22.8837 
G01 X-45.1333 Y22.6014 
G01 X-44.7646 Y22.4487 
G01 X-44.3654 Y22.4487 
G01 X-43.9967 Y22.6014 
G01 X-43.7144 Y22.8837 
G01 X-43.5796 Y23.2093 
G01 X-43.5501 Y23.2803 
G01 X-43.5302 Y23.3063 
G01 X-43.5033 Y23.3413 
G01 X-43.4764 Y23.3620 
G01 X-43.4423 Y23.3882 
G01 X-43.3721 Y23.4172 
G01 X-43.2950 Y23.4276 
G01 X-43.2187 Y23.4176 
G01 X-43.1477 Y23.3882 
G01 X-43.1217 Y23.3682 
G01 X-43.0867 Y23.3413 
G01 X-43.0660 Y23.3144 
G01 X-43.0399 Y23.2803 
G01 X-42.8756 Y22.8837 
G01 X-42.5933 Y22.6014 
G01 X-42.2246 Y22.4487 
G01 X-41.8254 Y22.4487 
G01 X-41.4567 Y22.6014 
G01 X-41.1744 Y22.8837 
G01 X-41.0101 Y23.2803 
G01 X-40.9633 Y23.3413 
G01 X-40.9293 Y23.3675 
G01 X-40.9023 Y23.3882 
G01 X-40.8312 Y23.4176 
G01 X-40.7550 Y23.4276 
G01 X-40.6787 Y23.4176 
G01 X-40.6077 Y23.3882 
G01 X-40.5467 Y23.3413 
G01 X-40.5205 Y23.3073 
G01 X-40.4998 Y23.2803 
G01 X-40.4704 Y23.2093 
G01 X-40.3356 Y22.8837 
G01 X-40.0533 Y22.6014 
G01 X-39.6846 Y22.4487 
G01 X-39.2854 Y22.4487 
G01 X-38.9167 Y22.6014 
G01 X-38.6344 Y22.8837 
G01 X-38.4701 Y23.2803 
G01 X-38.4233 Y23.3413 
G01 X-38.3893 Y23.3675 
G01 X-38.3623 Y23.3882 
G01 X-38.2912 Y23.4176 
G01 X-38.2150 Y23.4276 
G01 X-38.1387 Y23.4176 
G01 X-38.0677 Y23.3882 
G01 X-38.0067 Y23.3413 
G01 X-37.9805 Y23.3073 
G01 X-37.9598 Y23.2803 
G01 X-37.9304 Y23.2093 
G01 X-37.7956 Y22.8837 
G01 X-37.5133 Y22.6014 
G01 X-37.1446 Y22.4487 
G01 X-36.7454 Y22.4487 
G01 X-36.3767 Y22.6014 
G01 X-36.0944 Y22.8837 
G01 X-35.9301 Y23.2803 
G01 X-35.8833 Y23.3413 
G01 X-35.8493 Y23.3675 
G01 X-35.8223 Y23.3882 
G01 X-35.7512 Y23.4176 
G01 X-35.6750 Y23.4276 
G01 X-35.5987 Y23.4176 
G01 X-35.5277 Y23.3882 
G01 X-35.4667 Y23.3413 
G01 X-35.4405 Y23.3073 
G01 X-35.4198 Y23.2803 
G01 X-35.3904 Y23.2093 
G01 X-35.2556 Y22.8837 
G01 X-34.9733 Y22.6014 
G01 X-34.6046 Y22.4487 
G01 X-34.2054 Y22.4487 
G01 X-33.8367 Y22.6014 
G01 X-33.5544 Y22.8837 
G01 X-33.3901 Y23.2803 
G01 X-33.3633 Y23.3153 
G01 X-33.3433 Y23.3413 
G01 X-33.3093 Y23.3675 
G01 X-33.2823 Y23.3882 
G01 X-33.2112 Y23.4176 
G01 X-33.1350 Y23.4276 
G01 X-33.0652 Y23.4184 
G01 X-33.0587 Y23.4176 
G01 X-32.9877 Y23.3882 
G01 X-32.9527 Y23.3613 
G01 X-32.9267 Y23.3413 
G01 X-32.9005 Y23.3073 
G01 X-32.8798 Y23.2803 
G01 X-32.8504 Y23.2093 
G01 X-32.7321 Y22.9235 
G01 X-32.7224 Y22.9068 
G01 X-32.7174 Y22.8881 
G01 X-32.7100 Y22.8703 
G01 X-32.7075 Y22.8512 
G01 X-32.7025 Y22.8325 
G01 X-32.7025 Y22.8132 
G01 X-32.7000 Y22.7940 
G01 X-32.7025 Y22.7749 
G01 X-32.7025 Y19.4955 
G01 X-32.5575 Y19.1455 
G01 X-32.2213 Y18.8092 
G01 X-28.4795 Y15.0675 
G01 X-28.1295 Y14.9225 
G01 X-18.2255 Y14.9225 
G01 X-17.8755 Y15.0675 
G01 X-17.5936 Y15.3493 
G01 X-17.5392 Y15.4037 
G01 X-12.9988 Y19.9441 
G01 X-12.9322 Y19.9826 
G01 X-12.8579 Y20.0025 
G01 X-10.8135 Y20.0025 
G01 X-10.7943 Y20.0050 
G01 X-10.7752 Y20.0025 
G01 X-10.7559 Y20.0025 
G01 X-10.7372 Y19.9975 
G01 X-10.7181 Y19.9950 
G01 X-10.7002 Y19.9876 
G01 X-10.6816 Y19.9826 
G01 X-10.6649 Y19.9729 
G01 X-10.6567 Y19.9696 
G01 X-10.6008 Y19.9464 
G01 X-10.5857 Y19.9402 
G01 X-10.5443 Y19.9084 
G01 X-10.5247 Y19.8933 
G01 X-10.5113 Y19.8759 
G01 X-10.4778 Y19.8323 
G01 X-10.4484 Y19.7613 
G01 X-10.4411 Y19.7059 
G01 X-10.4384 Y19.6850 
G01 X-10.4484 Y19.6088 
G01 X-10.4724 Y19.5507 
G01 X-10.4778 Y19.5377 
G01 X-10.5096 Y19.4963 
G01 X-10.5246 Y19.4767 
G01 X-10.5420 Y19.4633 
G01 X-10.5857 Y19.4299 
G01 X-10.6369 Y19.4087 
G01 X-10.6567 Y19.4004 
G01 X-10.6649 Y19.3971 
G01 X-10.6816 Y19.3874 
G01 X-10.7002 Y19.3824 
G01 X-10.7180 Y19.3750 
G01 X-10.7372 Y19.3725 
G01 X-10.7559 Y19.3675 
G01 X-10.7752 Y19.3675 
G01 X-10.7943 Y19.3650 
G01 X-10.8135 Y19.3675 
G01 X-12.2545 Y19.3675 
G01 X-12.6045 Y19.2225 
G01 X-12.9408 Y18.8863 
G01 X-17.4812 Y14.3459 
G01 X-17.5478 Y14.3074 
G01 X-17.6221 Y14.2875 
G01 X-28.7329 Y14.2875 
G01 X-28.8072 Y14.3074 
G01 X-28.8738 Y14.3459 
G01 X-28.9282 Y14.4002 
G01 X-35.6555 Y21.1275 
G01 X-36.0055 Y21.2725 
G01 X-71.2779 Y21.2725 
G01 X-71.3522 Y21.2924 
G01 X-71.4188 Y21.3309 
G01 X-71.4732 Y21.3852 
G01 X-74.3905 Y24.3025 
G01 X-74.7405 Y24.4475 
G01 X-82.7395 Y24.4475 
G01 X-82.8714 Y24.3929 
G01 X-82.8881 Y24.3832 
G01 X-82.9067 Y24.3782 
G01 X-82.9246 Y24.3708 
G01 X-82.9437 Y24.3683 
G01 X-82.9624 Y24.3633 
G01 X-82.9817 Y24.3633 
G01 X-83.0008 Y24.3608 
G01 X-83.0200 Y24.3633 
G01 X-83.4767 Y24.3633 
G01 X-83.7959 Y24.2311 
G01 X-84.0401 Y23.9869 
G01 X-84.1723 Y23.6677 
G01 X-84.1723 Y23.3223 
G01 X-84.0401 Y23.0031 
G01 X-83.7959 Y22.7589 
G01 X-83.4767 Y22.6267 
G01 X-83.0200 Y22.6267 
G01 X-83.0008 Y22.6292 
G01 X-82.9817 Y22.6267 
G01 X-82.9624 Y22.6267 
G01 X-82.9437 Y22.6217 
G01 X-82.9246 Y22.6192 
G01 X-82.9067 Y22.6118 
G01 X-82.8881 Y22.6068 
G01 X-82.8714 Y22.5971 
G01 X-82.7395 Y22.5425 
G01 X-75.4071 Y22.5425 
G01 X-75.3328 Y22.5226 
G01 X-75.2662 Y22.4841 
G01 X-72.5764 Y19.7943 
G01 X-72.2945 Y19.5125 
G01 X-71.9445 Y19.3675 
G01 X-36.6721 Y19.3675 
G01 X-36.5978 Y19.3476 
G01 X-36.5312 Y19.3091 
G01 X-36.4768 Y19.2548 
G01 X-30.0314 Y12.8093 
G01 X-29.7495 Y12.5275 
G01 X-29.3995 Y12.3825 
G01 X-16.9555 Y12.3825 
G01 X-16.6055 Y12.5275 
G01 X-11.7288 Y17.4041 
G01 X-11.6622 Y17.4426 
G01 X-11.5879 Y17.4625 
G01 X-10.8135 Y17.4625 
G01 X-10.7943 Y17.4650 
G01 X-10.7752 Y17.4625 
G01 X-10.7559 Y17.4625 
G01 X-10.7372 Y17.4575 
G01 X-10.7181 Y17.4550 
G01 X-10.7002 Y17.4476 
G01 X-10.6816 Y17.4426 
G01 X-10.6648 Y17.4329 
G01 X-10.6136 Y17.4117 
G01 X-8.4364 Y17.4117 
G01 X-8.3851 Y17.4329 
G01 X-8.3684 Y17.4426 
G01 X-8.3498 Y17.4476 
G01 X-8.3319 Y17.4550 
G01 X-8.3128 Y17.4575 
G01 X-8.2941 Y17.4625 
G01 X-8.2748 Y17.4625 
G01 X-8.2557 Y17.4650 
G01 X-8.2365 Y17.4625 
G01 X-7.4305 Y17.4625 
G01 X-7.0804 Y17.6075 
G01 X-5.1893 Y19.4986 
G01 X-4.9075 Y19.7804 
G01 X-4.7625 Y20.1305 
G01 X-4.7625 Y37.6545 
G01 X-4.9075 Y38.0046 
G01 X-6.0800 Y39.1771 
G01 X-6.1243 Y39.2214 
G01 X-6.1344 Y39.2314 
G01 X-6.1729 Y39.2981 
G01 X-6.1928 Y39.3723 
G01 X-6.1928 Y39.4493 
G01 X-6.1729 Y39.5235 
G01 X-6.1344 Y39.5902 
G01 X-6.0809 Y39.6437 
G01 X-6.0134 Y39.6830 
G01 X-5.9391 Y39.7029 
G01 X-4.3557 Y39.7029 
G01 X-4.2815 Y39.6830 
G01 X-4.2148 Y39.6445 
G01 X-4.1605 Y39.5902 
G01 X-4.1220 Y39.5235 
G01 X-4.1021 Y39.4493 
G01 X-4.1021 Y11.9757 
G01 X-4.1220 Y11.9015 
G01 X-4.1605 Y11.8348 
G00 Z2.5400 
G00 X-4.9949 Y19.7290 
G01 Z-0.0254 F254.00 
G01 X-5.1240 Y19.5999 F508.00 
G01 X-7.0290 Y17.6949 
G01 X-7.1809 Y17.5934 
G01 X-7.3496 Y17.5235 
G01 X-7.5287 Y17.4879 
G01 X-8.3188 Y17.4879 
G01 X-8.3508 Y17.4747 
G01 X-8.5397 Y17.4371 
G01 X-10.5103 Y17.4371 
G01 X-10.6992 Y17.4747 
G01 X-10.7312 Y17.4879 
G01 X-11.6810 Y17.4879 
G01 X-16.5540 Y12.6149 
G01 X-16.7059 Y12.5134 
G01 X-16.8746 Y12.4435 
G01 X-17.0537 Y12.4079 
G01 X-29.3013 Y12.4079 
G01 X-29.4804 Y12.4435 
G01 X-29.6491 Y12.5134 
G01 X-29.8010 Y12.6149 
G01 X-29.9301 Y12.7440 
G01 X-36.5790 Y19.3929 
G01 X-71.8463 Y19.3929 
G01 X-72.0254 Y19.4285 
G01 X-72.1941 Y19.4984 
G01 X-72.3460 Y19.5999 
G01 X-72.4751 Y19.7290 
G01 X-75.3140 Y22.5679 
G01 X-82.6413 Y22.5679 
G01 X-82.8204 Y22.6035 
G01 X-82.9377 Y22.6521 
G01 X-83.3870 Y22.6521 
G01 X-83.5499 Y22.6845 
G01 X-83.7033 Y22.7480 
G01 X-83.8413 Y22.8403 
G01 X-83.9587 Y22.9577 
G01 X-84.0510 Y23.0957 
G01 X-84.1145 Y23.2491 
G01 X-84.1469 Y23.4120 
G01 X-84.1469 Y23.5780 
G01 X-84.1145 Y23.7409 
G01 X-84.0510 Y23.8943 
G01 X-83.9587 Y24.0323 
G01 X-83.8413 Y24.1497 
G01 X-83.7033 Y24.2420 
G01 X-83.5499 Y24.3055 
G01 X-83.3870 Y24.3379 
G01 X-82.9377 Y24.3379 
G01 X-82.8204 Y24.3865 
G01 X-82.6413 Y24.4221 
G01 X-74.8387 Y24.4221 
G01 X-74.6596 Y24.3865 
G01 X-74.4909 Y24.3166 
G01 X-74.3390 Y24.2151 
G01 X-71.3710 Y21.2471 
G01 X-36.1037 Y21.2471 
G01 X-35.9246 Y21.2115 
G01 X-35.7559 Y21.1416 
G01 X-35.6040 Y21.0401 
G01 X-28.8260 Y14.2621 
G01 X-17.5290 Y14.2621 
G01 X-12.7851 Y19.0060 
G01 X-12.6560 Y19.1351 
G01 X-12.5041 Y19.2366 
G01 X-12.3354 Y19.3065 
G01 X-12.1563 Y19.3421 
G01 X-10.7312 Y19.3421 
G01 X-10.6992 Y19.3553 
G01 X-10.5103 Y19.3929 
G01 X-8.5397 Y19.3929 
G01 X-8.3508 Y19.3553 
G01 X-8.3188 Y19.3421 
G01 X-8.0040 Y19.3421 
G01 X-6.6421 Y20.7040 
G01 X-6.6421 Y37.0810 
G01 X-7.3690 Y37.8079 
G01 X-15.4910 Y37.8079 
G01 X-20.6629 Y32.6360 
G01 X-20.6629 Y27.7937 
G01 X-20.6985 Y27.6146 
G01 X-20.7684 Y27.4459 
G01 X-20.8010 Y27.3971 
G01 X-20.8384 Y27.3068 
G01 X-20.9454 Y27.1466 
G01 X-21.0816 Y27.0104 
G01 X-21.2418 Y26.9034 
G01 X-21.4198 Y26.8297 
G01 X-21.6087 Y26.7921 
G01 X-21.8013 Y26.7921 
G01 X-21.9902 Y26.8297 
G01 X-22.1682 Y26.9034 
G01 X-22.3284 Y27.0104 
G01 X-22.4646 Y27.1466 
G01 X-22.5716 Y27.3068 
G01 X-22.6453 Y27.4848 
G01 X-22.6829 Y27.6737 
G01 X-22.6829 Y29.6443 
G01 X-22.6453 Y29.8332 
G01 X-22.5716 Y30.0112 
G01 X-22.5171 Y30.0928 
G01 X-22.5171 Y33.1113 
G01 X-22.4815 Y33.2904 
G01 X-22.4116 Y33.4591 
G01 X-22.3101 Y33.6110 
G01 X-22.1810 Y33.7401 
G01 X-16.4660 Y39.4551 
G01 X-16.3141 Y39.5566 
G01 X-16.1454 Y39.6265 
G01 X-15.9663 Y39.6621 
G01 X-6.8937 Y39.6621 
G01 X-6.7146 Y39.6265 
G01 X-6.5459 Y39.5566 
G01 X-6.3940 Y39.4551 
G01 X-6.2649 Y39.3260 
G01 X-4.9949 Y38.0560 
G01 X-4.8934 Y37.9041 
G01 X-4.8235 Y37.7354 
G01 X-4.7879 Y37.5563 
G01 X-4.7879 Y20.2287 
G01 X-4.8235 Y20.0496 
G01 X-4.8934 Y19.8809 
G01 X-4.9949 Y19.7290 
G00 Z2.5400 
G00 X-7.8764 Y20.3316 
G01 Z-0.0254 F254.00 
G01 X-8.0126 Y20.1954 F508.00 
G01 X-8.1728 Y20.0884 
G01 X-8.3508 Y20.0147 
G01 X-8.5397 Y19.9771 
G01 X-10.5103 Y19.9771 
G01 X-10.6992 Y20.0147 
G01 X-10.7312 Y20.0279 
G01 X-12.9510 Y20.0279 
G01 X-17.6949 Y15.2840 
G01 X-17.8240 Y15.1549 
G01 X-17.9759 Y15.0534 
G01 X-18.1446 Y14.9835 
G01 X-18.3237 Y14.9479 
G01 X-28.0313 Y14.9479 
G01 X-28.2104 Y14.9835 
G01 X-28.3791 Y15.0534 
G01 X-28.5310 Y15.1549 
G01 X-32.3410 Y18.9649 
G01 X-32.4701 Y19.0940 
G01 X-32.5716 Y19.2459 
G01 X-32.6415 Y19.4146 
G01 X-32.6771 Y19.5937 
G01 X-32.6771 Y22.9072 
G01 X-32.7316 Y22.9888 
G01 X-32.8053 Y23.1668 
G01 X-32.8429 Y23.3557 
G01 X-32.8429 Y25.3263 
G01 X-32.8053 Y25.5152 
G01 X-32.7316 Y25.6932 
G01 X-32.6246 Y25.8534 
G01 X-32.4884 Y25.9896 
G01 X-32.3282 Y26.0966 
G01 X-32.1502 Y26.1703 
G01 X-31.9613 Y26.2079 
G01 X-31.7687 Y26.2079 
G01 X-31.5798 Y26.1703 
G01 X-31.4018 Y26.0966 
G01 X-31.2416 Y25.9896 
G01 X-31.1054 Y25.8534 
G01 X-30.9984 Y25.6932 
G01 X-30.9610 Y25.6029 
G01 X-30.9284 Y25.5541 
G01 X-30.8585 Y25.3854 
G01 X-30.8229 Y25.2063 
G01 X-30.8229 Y20.0690 
G01 X-27.5560 Y16.8021 
G01 X-18.7990 Y16.8021 
G01 X-13.9260 Y21.6751 
G01 X-13.7741 Y21.7766 
G01 X-13.6054 Y21.8465 
G01 X-13.4263 Y21.8821 
G01 X-10.7312 Y21.8821 
G01 X-10.6992 Y21.8953 
G01 X-10.5103 Y21.9329 
G01 X-8.5397 Y21.9329 
G01 X-8.3508 Y21.8953 
G01 X-8.1728 Y21.8216 
G01 X-8.0126 Y21.7146 
G01 X-7.8764 Y21.5784 
G01 X-7.7694 Y21.4182 
G01 X-7.6957 Y21.2402 
G01 X-7.6581 Y21.0513 
G01 X-7.6581 Y20.8587 
G01 X-7.6957 Y20.6698 
G01 X-7.7694 Y20.4918 
G01 X-7.8764 Y20.3316 
G00 Z2.5400 
G00 X-7.8764 Y22.8716 
G01 Z-0.0254 F254.00 
G01 X-8.0126 Y22.7354 F508.00 
G01 X-8.1728 Y22.6284 
G01 X-8.3508 Y22.5547 
G01 X-8.5397 Y22.5171 
G01 X-10.5103 Y22.5171 
G01 X-10.6992 Y22.5547 
G01 X-10.7312 Y22.5679 
G01 X-14.2210 Y22.5679 
G01 X-18.9649 Y17.8240 
G01 X-19.0940 Y17.6949 
G01 X-19.2459 Y17.5934 
G01 X-19.4146 Y17.5235 
G01 X-19.5937 Y17.4879 
G01 X-24.8563 Y17.4879 
G01 X-25.0354 Y17.5235 
G01 X-25.2041 Y17.5934 
G01 X-25.3560 Y17.6949 
G01 X-27.2610 Y19.5999 
G01 X-27.3901 Y19.7290 
G01 X-27.4916 Y19.8809 
G01 X-27.5615 Y20.0496 
G01 X-27.5971 Y20.2287 
G01 X-27.5971 Y22.9072 
G01 X-27.6516 Y22.9888 
G01 X-27.7253 Y23.1668 
G01 X-27.7629 Y23.3557 
G01 X-27.7629 Y25.3263 
G01 X-27.7253 Y25.5152 
G01 X-27.6516 Y25.6932 
G01 X-27.5446 Y25.8534 
G01 X-27.4084 Y25.9896 
G01 X-27.2482 Y26.0966 
G01 X-27.0702 Y26.1703 
G01 X-26.8813 Y26.2079 
G01 X-26.6887 Y26.2079 
G01 X-26.4998 Y26.1703 
G01 X-26.3218 Y26.0966 
G01 X-26.1616 Y25.9896 
G01 X-26.0254 Y25.8534 
G01 X-25.9184 Y25.6932 
G01 X-25.8810 Y25.6029 
G01 X-25.8484 Y25.5541 
G01 X-25.7785 Y25.3854 
G01 X-25.7429 Y25.2063 
G01 X-25.7429 Y20.7040 
G01 X-24.3810 Y19.3421 
G01 X-20.0690 Y19.3421 
G01 X-15.1960 Y24.2151 
G01 X-15.0441 Y24.3166 
G01 X-14.8754 Y24.3865 
G01 X-14.6963 Y24.4221 
G01 X-10.7312 Y24.4221 
G01 X-10.6992 Y24.4353 
G01 X-10.5103 Y24.4729 
G01 X-8.5397 Y24.4729 
G01 X-8.3508 Y24.4353 
G01 X-8.1728 Y24.3616 
G01 X-8.0126 Y24.2546 
G01 X-7.8764 Y24.1184 
G01 X-7.7694 Y23.9582 
G01 X-7.6957 Y23.7802 
G01 X-7.6581 Y23.5913 
G01 X-7.6581 Y23.3987 
G01 X-7.6957 Y23.2098 
G01 X-7.7694 Y23.0318 
G01 X-7.8764 Y22.8716 
G00 Z2.5400 
G00 X-7.8764 Y25.4116 
G01 Z-0.0254 F254.00 
G01 X-8.0126 Y25.2754 F508.00 
G01 X-8.1728 Y25.1684 
G01 X-8.3508 Y25.0947 
G01 X-8.5397 Y25.0571 
G01 X-10.5103 Y25.0571 
G01 X-10.6992 Y25.0947 
G01 X-10.7312 Y25.1079 
G01 X-15.4910 Y25.1079 
G01 X-20.2349 Y20.3640 
G01 X-20.3640 Y20.2349 
G01 X-20.5159 Y20.1334 
G01 X-20.6846 Y20.0635 
G01 X-20.8637 Y20.0279 
G01 X-23.5863 Y20.0279 
G01 X-23.7654 Y20.0635 
G01 X-23.9341 Y20.1334 
G01 X-24.0860 Y20.2349 
G01 X-24.7210 Y20.8699 
G01 X-24.8501 Y20.9990 
G01 X-24.9516 Y21.1509 
G01 X-25.0215 Y21.3196 
G01 X-25.0571 Y21.4987 
G01 X-25.0571 Y22.9072 
G01 X-25.1116 Y22.9888 
G01 X-25.1853 Y23.1668 
G01 X-25.2229 Y23.3557 
G01 X-25.2229 Y25.3263 
G01 X-25.1853 Y25.5152 
G01 X-25.1116 Y25.6932 
G01 X-25.0046 Y25.8534 
G01 X-24.8684 Y25.9896 
G01 X-24.7082 Y26.0966 
G01 X-24.5302 Y26.1703 
G01 X-24.3413 Y26.2079 
G01 X-24.1487 Y26.2079 
G01 X-23.9598 Y26.1703 
G01 X-23.7818 Y26.0966 
G01 X-23.6216 Y25.9896 
G01 X-23.4854 Y25.8534 
G01 X-23.3784 Y25.6932 
G01 X-23.3410 Y25.6029 
G01 X-23.3084 Y25.5541 
G01 X-23.2385 Y25.3854 
G01 X-23.2029 Y25.2063 
G01 X-23.2029 Y21.9740 
G01 X-23.1110 Y21.8821 
G01 X-21.3390 Y21.8821 
G01 X-16.4660 Y26.7551 
G01 X-16.3141 Y26.8566 
G01 X-16.1454 Y26.9265 
G01 X-15.9663 Y26.9621 
G01 X-10.7312 Y26.9621 
G01 X-10.6992 Y26.9753 
G01 X-10.5103 Y27.0129 
G01 X-8.5397 Y27.0129 
G01 X-8.3508 Y26.9753 
G01 X-8.1728 Y26.9016 
G01 X-8.0126 Y26.7946 
G01 X-7.8764 Y26.6584 
G01 X-7.7694 Y26.4982 
G01 X-7.6957 Y26.3202 
G01 X-7.6581 Y26.1313 
G01 X-7.6581 Y25.9387 
G01 X-7.6957 Y25.7498 
G01 X-7.7694 Y25.5718 
G01 X-7.8764 Y25.4116 
G00 Z2.5400 
G00 X-7.8764 Y27.9516 
G01 Z-0.0254 F254.00 
G01 X-8.0126 Y27.8154 F508.00 
G01 X-8.1728 Y27.7084 
G01 X-8.3508 Y27.6347 
G01 X-8.5397 Y27.5971 
G01 X-10.5103 Y27.5971 
G01 X-10.6992 Y27.6347 
G01 X-10.8772 Y27.7084 
G01 X-11.0374 Y27.8154 
G01 X-11.1736 Y27.9516 
G01 X-11.2806 Y28.1118 
G01 X-11.3543 Y28.2898 
G01 X-11.3919 Y28.4787 
G01 X-11.3919 Y28.6713 
G01 X-11.3543 Y28.8602 
G01 X-11.2806 Y29.0382 
G01 X-11.1736 Y29.1984 
G01 X-11.0374 Y29.3346 
G01 X-10.8772 Y29.4416 
G01 X-10.6992 Y29.5153 
G01 X-10.5103 Y29.5529 
G01 X-8.5397 Y29.5529 
G01 X-8.3508 Y29.5153 
G01 X-8.1728 Y29.4416 
G01 X-8.0126 Y29.3346 
G01 X-7.8764 Y29.1984 
G01 X-7.7694 Y29.0382 
G01 X-7.6957 Y28.8602 
G01 X-7.6581 Y28.6713 
G01 X-7.6581 Y28.4787 
G01 X-7.6957 Y28.2898 
G01 X-7.7694 Y28.1118 
G01 X-7.8764 Y27.9516 
G00 Z2.5400 
G00 X-7.8764 Y30.4916 
G01 Z-0.0254 F254.00 
G01 X-8.0126 Y30.3554 F508.00 
G01 X-8.1728 Y30.2484 
G01 X-8.3508 Y30.1747 
G01 X-8.5397 Y30.1371 
G01 X-10.5103 Y30.1371 
G01 X-10.6992 Y30.1747 
G01 X-10.8772 Y30.2484 
G01 X-11.0374 Y30.3554 
G01 X-11.1736 Y30.4916 
G01 X-11.2806 Y30.6518 
G01 X-11.3543 Y30.8298 
G01 X-11.3919 Y31.0187 
G01 X-11.3919 Y31.2113 
G01 X-11.3543 Y31.4002 
G01 X-11.2806 Y31.5782 
G01 X-11.1736 Y31.7384 
G01 X-11.0374 Y31.8746 
G01 X-10.8772 Y31.9816 
G01 X-10.6992 Y32.0553 
G01 X-10.5103 Y32.0929 
G01 X-8.5397 Y32.0929 
G01 X-8.3508 Y32.0553 
G01 X-8.1728 Y31.9816 
G01 X-8.0126 Y31.8746 
G01 X-7.8764 Y31.7384 
G01 X-7.7694 Y31.5782 
G01 X-7.6957 Y31.4002 
G01 X-7.6581 Y31.2113 
G01 X-7.6581 Y31.0187 
G01 X-7.6957 Y30.8298 
G01 X-7.7694 Y30.6518 
G01 X-7.8764 Y30.4916 
G00 Z2.5400 
G00 X-7.8764 Y33.0316 
G01 Z-0.0254 F254.00 
G01 X-8.0126 Y32.8954 F508.00 
G01 X-8.1728 Y32.7884 
G01 X-8.3508 Y32.7147 
G01 X-8.5397 Y32.6771 
G01 X-10.5103 Y32.6771 
G01 X-10.6992 Y32.7147 
G01 X-10.8772 Y32.7884 
G01 X-11.0374 Y32.8954 
G01 X-11.1736 Y33.0316 
G01 X-11.2806 Y33.1918 
G01 X-11.3543 Y33.3698 
G01 X-11.3919 Y33.5587 
G01 X-11.3919 Y33.7513 
G01 X-11.3543 Y33.9402 
G01 X-11.2806 Y34.1182 
G01 X-11.1736 Y34.2784 
G01 X-11.0374 Y34.4146 
G01 X-10.8772 Y34.5216 
G01 X-10.6992 Y34.5953 
G01 X-10.5103 Y34.6329 
G01 X-8.5397 Y34.6329 
G01 X-8.3508 Y34.5953 
G01 X-8.1728 Y34.5216 
G01 X-8.0126 Y34.4146 
G01 X-7.8764 Y34.2784 
G01 X-7.7694 Y34.1182 
G01 X-7.6957 Y33.9402 
G01 X-7.6581 Y33.7513 
G01 X-7.6581 Y33.5587 
G01 X-7.6957 Y33.3698 
G01 X-7.7694 Y33.1918 
G01 X-7.8764 Y33.0316 
G00 Z2.5400 
G00 X-7.8764 Y35.5716 
G01 Z-0.0254 F254.00 
G01 X-8.0126 Y35.4354 F508.00 
G01 X-8.1728 Y35.3284 
G01 X-8.3508 Y35.2547 
G01 X-8.5397 Y35.2171 
G01 X-10.5103 Y35.2171 
G01 X-10.6992 Y35.2547 
G01 X-10.8772 Y35.3284 
G01 X-11.0374 Y35.4354 
G01 X-11.1736 Y35.5716 
G01 X-11.2806 Y35.7318 
G01 X-11.3543 Y35.9098 
G01 X-11.3919 Y36.0987 
G01 X-11.3919 Y36.2913 
G01 X-11.3543 Y36.4802 
G01 X-11.2806 Y36.6582 
G01 X-11.1736 Y36.8184 
G01 X-11.0374 Y36.9546 
G01 X-10.8772 Y37.0616 
G01 X-10.6992 Y37.1353 
G01 X-10.5103 Y37.1729 
G01 X-8.5397 Y37.1729 
G01 X-8.3508 Y37.1353 
G01 X-8.1728 Y37.0616 
G01 X-8.0126 Y36.9546 
G01 X-7.8764 Y36.8184 
G01 X-7.7694 Y36.6582 
G01 X-7.6957 Y36.4802 
G01 X-7.6581 Y36.2913 
G01 X-7.6581 Y36.0987 
G01 X-7.6957 Y35.9098 
G01 X-7.7694 Y35.7318 
G01 X-7.8764 Y35.5716 
G00 Z2.5400 
G00 X-23.6216 Y30.3076 
G01 Z-0.0254 F254.00 
G01 X-23.4854 Y30.1714 F508.00 
G01 X-23.3784 Y30.0112 
G01 X-23.3047 Y29.8332 
G01 X-23.2671 Y29.6443 
G01 X-23.2671 Y27.6737 
G01 X-23.3047 Y27.4848 
G01 X-23.3784 Y27.3068 
G01 X-23.4854 Y27.1466 
G01 X-23.6216 Y27.0104 
G01 X-23.7818 Y26.9034 
G01 X-23.9598 Y26.8297 
G01 X-24.1487 Y26.7921 
G01 X-24.3413 Y26.7921 
G01 X-24.5302 Y26.8297 
G01 X-24.7082 Y26.9034 
G01 X-24.8684 Y27.0104 
G01 X-25.0046 Y27.1466 
G01 X-25.1116 Y27.3068 
G01 X-25.1853 Y27.4848 
G01 X-25.2229 Y27.6737 
G01 X-25.2229 Y29.6443 
G01 X-25.1853 Y29.8332 
G01 X-25.1116 Y30.0112 
G01 X-25.0046 Y30.1714 
G01 X-24.8684 Y30.3076 
G01 X-24.7082 Y30.4146 
G01 X-24.5302 Y30.4883 
G01 X-24.3413 Y30.5259 
G01 X-24.1487 Y30.5259 
G01 X-23.9598 Y30.4883 
G01 X-23.7818 Y30.4146 
G01 X-23.6216 Y30.3076 
G00 Z2.5400 
G00 X-26.1616 Y30.3076 
G01 Z-0.0254 F254.00 
G01 X-26.0254 Y30.1714 F508.00 
G01 X-25.9184 Y30.0112 
G01 X-25.8447 Y29.8332 
G01 X-25.8071 Y29.6443 
G01 X-25.8071 Y27.6737 
G01 X-25.8447 Y27.4848 
G01 X-25.9184 Y27.3068 
G01 X-26.0254 Y27.1466 
G01 X-26.1616 Y27.0104 
G01 X-26.3218 Y26.9034 
G01 X-26.4998 Y26.8297 
G01 X-26.6887 Y26.7921 
G01 X-26.8813 Y26.7921 
G01 X-27.0702 Y26.8297 
G01 X-27.2482 Y26.9034 
G01 X-27.4084 Y27.0104 
G01 X-27.5446 Y27.1466 
G01 X-27.6516 Y27.3068 
G01 X-27.7253 Y27.4848 
G01 X-27.7629 Y27.6737 
G01 X-27.7629 Y29.6443 
G01 X-27.7253 Y29.8332 
G01 X-27.6516 Y30.0112 
G01 X-27.5446 Y30.1714 
G01 X-27.4084 Y30.3076 
G01 X-27.2482 Y30.4146 
G01 X-27.0702 Y30.4883 
G01 X-26.8813 Y30.5259 
G01 X-26.6887 Y30.5259 
G01 X-26.4998 Y30.4883 
G01 X-26.3218 Y30.4146 
G01 X-26.1616 Y30.3076 
G00 Z2.5400 
G00 X-30.1371 Y30.0928 
G01 Z-0.0254 F254.00 
G01 X-30.1371 Y33.2286 F508.00 
G01 X-33.9980 Y36.5379 
G01 X-84.7060 Y36.5379 
G01 X-87.9729 Y33.2710 
G01 X-87.9729 Y28.3240 
G01 X-86.6110 Y26.9621 
G01 X-82.4587 Y26.9621 
G01 X-82.2796 Y26.9265 
G01 X-82.1623 Y26.8779 
G01 X-81.7130 Y26.8779 
G01 X-81.5501 Y26.8455 
G01 X-81.3967 Y26.7820 
G01 X-81.2587 Y26.6897 
G01 X-81.1413 Y26.5723 
G01 X-81.0490 Y26.4343 
G01 X-80.9855 Y26.2809 
G01 X-80.9531 Y26.1180 
G01 X-80.9531 Y25.9520 
G01 X-80.9855 Y25.7891 
G01 X-81.0490 Y25.6357 
G01 X-81.1413 Y25.4977 
G01 X-81.2587 Y25.3803 
G01 X-81.3967 Y25.2880 
G01 X-81.5501 Y25.2245 
G01 X-81.7130 Y25.1921 
G01 X-82.1623 Y25.1921 
G01 X-82.2796 Y25.1435 
G01 X-82.4587 Y25.1079 
G01 X-87.0863 Y25.1079 
G01 X-87.2654 Y25.1435 
G01 X-87.4341 Y25.2134 
G01 X-87.5860 Y25.3149 
G01 X-87.7151 Y25.4440 
G01 X-89.6201 Y27.3490 
G01 X-89.7216 Y27.5009 
G01 X-89.7915 Y27.6696 
G01 X-89.8271 Y27.8487 
G01 X-89.8271 Y33.7463 
G01 X-89.7915 Y33.9254 
G01 X-89.7216 Y34.0941 
G01 X-89.6201 Y34.2460 
G01 X-89.4910 Y34.3751 
G01 X-85.6810 Y38.1851 
G01 X-85.5291 Y38.2866 
G01 X-85.3604 Y38.3565 
G01 X-85.1813 Y38.3921 
G01 X-33.6906 Y38.3921 
G01 X-33.6351 Y38.3964 
G01 X-33.5995 Y38.3921 
G01 X-33.5637 Y38.3921 
G01 X-33.5091 Y38.3812 
G01 X-33.4537 Y38.3746 
G01 X-33.4197 Y38.3635 
G01 X-33.3846 Y38.3565 
G01 X-33.3331 Y38.3352 
G01 X-33.2802 Y38.3178 
G01 X-33.2489 Y38.3003 
G01 X-33.2159 Y38.2866 
G01 X-33.1695 Y38.2556 
G01 X-33.1210 Y38.2283 
G01 X-33.0938 Y38.2050 
G01 X-33.0640 Y38.1851 
G01 X-33.0246 Y38.1457 
G01 X-28.6488 Y34.3950 
G01 X-28.6190 Y34.3751 
G01 X-28.5796 Y34.3357 
G01 X-28.5373 Y34.2995 
G01 X-28.5152 Y34.2713 
G01 X-28.4899 Y34.2460 
G01 X-28.4589 Y34.1997 
G01 X-28.4245 Y34.1559 
G01 X-28.4083 Y34.1239 
G01 X-28.3884 Y34.0941 
G01 X-28.3671 Y34.0427 
G01 X-28.3419 Y33.9930 
G01 X-28.3322 Y33.9585 
G01 X-28.3185 Y33.9254 
G01 X-28.3077 Y33.8708 
G01 X-28.2926 Y33.8171 
G01 X-28.2899 Y33.7814 
G01 X-28.2829 Y33.7463 
G01 X-28.2829 Y33.6906 
G01 X-28.2786 Y33.6351 
G01 X-28.2829 Y33.5995 
G01 X-28.2829 Y27.7937 
G01 X-28.3185 Y27.6146 
G01 X-28.3884 Y27.4459 
G01 X-28.4210 Y27.3971 
G01 X-28.4584 Y27.3068 
G01 X-28.5654 Y27.1466 
G01 X-28.7016 Y27.0104 
G01 X-28.8618 Y26.9034 
G01 X-29.0398 Y26.8297 
G01 X-29.2287 Y26.7921 
G01 X-29.4213 Y26.7921 
G01 X-29.6102 Y26.8297 
G01 X-29.7882 Y26.9034 
G01 X-29.9484 Y27.0104 
G01 X-30.0846 Y27.1466 
G01 X-30.1916 Y27.3068 
G01 X-30.2653 Y27.4848 
G01 X-30.3029 Y27.6737 
G01 X-30.3029 Y29.6443 
G01 X-30.2653 Y29.8332 
G01 X-30.1916 Y30.0112 
G01 X-30.1371 Y30.0928 
G00 Z2.5400 
G00 X-30.9379 Y29.8652 
G01 Z-0.0254 F254.00 
G01 X-30.9247 Y29.8332 F508.00 
G01 X-30.8871 Y29.6443 
G01 X-30.8871 Y27.6737 
G01 X-30.9247 Y27.4848 
G01 X-30.9984 Y27.3068 
G01 X-31.1054 Y27.1466 
G01 X-31.2416 Y27.0104 
G01 X-31.4018 Y26.9034 
G01 X-31.5798 Y26.8297 
G01 X-31.7687 Y26.7921 
G01 X-31.9613 Y26.7921 
G01 X-32.1502 Y26.8297 
G01 X-32.3282 Y26.9034 
G01 X-32.4884 Y27.0104 
G01 X-32.6246 Y27.1466 
G01 X-32.7316 Y27.3068 
G01 X-32.8053 Y27.4848 
G01 X-32.8429 Y27.6737 
G01 X-32.8429 Y29.6443 
G01 X-32.8053 Y29.8332 
G01 X-32.7921 Y29.8652 
G01 X-32.7921 Y32.0518 
G01 X-35.2478 Y33.9979 
G01 X-82.8010 Y33.9979 
G01 X-84.7979 Y32.0010 
G01 X-84.7979 Y30.2290 
G01 X-84.0710 Y29.5021 
G01 X-82.4587 Y29.5021 
G01 X-82.2796 Y29.4665 
G01 X-82.1623 Y29.4179 
G01 X-81.7130 Y29.4179 
G01 X-81.5501 Y29.3855 
G01 X-81.3967 Y29.3220 
G01 X-81.2587 Y29.2297 
G01 X-81.1413 Y29.1123 
G01 X-81.0490 Y28.9743 
G01 X-80.9855 Y28.8209 
G01 X-80.9531 Y28.6580 
G01 X-80.9531 Y28.4920 
G01 X-80.9855 Y28.3291 
G01 X-81.0490 Y28.1757 
G01 X-81.1413 Y28.0377 
G01 X-81.2587 Y27.9203 
G01 X-81.3967 Y27.8280 
G01 X-81.5501 Y27.7645 
G01 X-81.7130 Y27.7321 
G01 X-82.1623 Y27.7321 
G01 X-82.2796 Y27.6835 
G01 X-82.4587 Y27.6479 
G01 X-84.5463 Y27.6479 
G01 X-84.7254 Y27.6835 
G01 X-84.8941 Y27.7534 
G01 X-85.0460 Y27.8549 
G01 X-85.1751 Y27.9840 
G01 X-86.4451 Y29.2540 
G01 X-86.5466 Y29.4059 
G01 X-86.6165 Y29.5746 
G01 X-86.6521 Y29.7537 
G01 X-86.6521 Y32.4763 
G01 X-86.6165 Y32.6554 
G01 X-86.5466 Y32.8241 
G01 X-86.4451 Y32.9760 
G01 X-86.3160 Y33.1051 
G01 X-83.7760 Y35.6451 
G01 X-83.6241 Y35.7466 
G01 X-83.4554 Y35.8165 
G01 X-83.2763 Y35.8521 
G01 X-34.9785 Y35.8521 
G01 X-34.9409 Y35.8564 
G01 X-34.8874 Y35.8521 
G01 X-34.8337 Y35.8521 
G01 X-34.7966 Y35.8447 
G01 X-34.7589 Y35.8417 
G01 X-34.7072 Y35.8269 
G01 X-34.6546 Y35.8165 
G01 X-34.6196 Y35.8020 
G01 X-34.5832 Y35.7916 
G01 X-34.5355 Y35.7671 
G01 X-34.4859 Y35.7466 
G01 X-34.4544 Y35.7256 
G01 X-34.4207 Y35.7083 
G01 X-34.3787 Y35.6750 
G01 X-34.3340 Y35.6451 
G01 X-34.3073 Y35.6184 
G01 X-31.3186 Y33.2499 
G01 X-31.2740 Y33.2201 
G01 X-31.2473 Y33.1934 
G01 X-31.2176 Y33.1699 
G01 X-31.1828 Y33.1290 
G01 X-31.1449 Y33.0910 
G01 X-31.1239 Y33.0595 
G01 X-31.0994 Y33.0307 
G01 X-31.0732 Y32.9838 
G01 X-31.0434 Y32.9391 
G01 X-31.0289 Y32.9042 
G01 X-31.0105 Y32.8712 
G01 X-30.9941 Y32.8200 
G01 X-30.9735 Y32.7704 
G01 X-30.9661 Y32.7333 
G01 X-30.9546 Y32.6973 
G01 X-30.9484 Y32.6440 
G01 X-30.9379 Y32.5913 
G01 X-30.9379 Y32.5535 
G01 X-30.9336 Y32.5159 
G01 X-30.9379 Y32.4624 
G01 X-30.9379 Y29.8652 
G00 Z2.5400 
G00 X-33.4647 Y29.8332 
G01 Z-0.0254 F254.00 
G01 X-33.4271 Y29.6443 F508.00 
G01 X-33.4271 Y27.6737 
G01 X-33.4647 Y27.4848 
G01 X-33.5384 Y27.3068 
G01 X-33.6454 Y27.1466 
G01 X-33.7816 Y27.0104 
G01 X-33.9418 Y26.9034 
G01 X-34.1198 Y26.8297 
G01 X-34.3087 Y26.7921 
G01 X-34.5013 Y26.7921 
G01 X-34.6902 Y26.8297 
G01 X-34.8682 Y26.9034 
G01 X-35.0284 Y27.0104 
G01 X-35.1646 Y27.1466 
G01 X-35.2716 Y27.3068 
G01 X-35.3453 Y27.4848 
G01 X-35.3829 Y27.6737 
G01 X-35.3829 Y29.6443 
G01 X-35.3453 Y29.8332 
G01 X-35.2716 Y30.0112 
G01 X-35.1646 Y30.1714 
G01 X-35.0284 Y30.3076 
G01 X-34.8682 Y30.4146 
G01 X-34.6902 Y30.4883 
G01 X-34.5013 Y30.5259 
G01 X-34.3087 Y30.5259 
G01 X-34.1198 Y30.4883 
G01 X-33.9418 Y30.4146 
G01 X-33.7816 Y30.3076 
G01 X-33.6454 Y30.1714 
G01 X-33.5384 Y30.0112 
G01 X-33.4647 Y29.8332 
G00 Z2.5400 
G00 X-33.7816 Y25.9896 
G01 Z-0.0254 F254.00 
G01 X-33.6454 Y25.8534 F508.00 
G01 X-33.5384 Y25.6932 
G01 X-33.4647 Y25.5152 
G01 X-33.4271 Y25.3263 
G01 X-33.4271 Y23.3557 
G01 X-33.4647 Y23.1668 
G01 X-33.5384 Y22.9888 
G01 X-33.6454 Y22.8286 
G01 X-33.7816 Y22.6924 
G01 X-33.9418 Y22.5854 
G01 X-34.1198 Y22.5117 
G01 X-34.3087 Y22.4741 
G01 X-34.5013 Y22.4741 
G01 X-34.6902 Y22.5117 
G01 X-34.8682 Y22.5854 
G01 X-35.0284 Y22.6924 
G01 X-35.1646 Y22.8286 
G01 X-35.2716 Y22.9888 
G01 X-35.3453 Y23.1668 
G01 X-35.3829 Y23.3557 
G01 X-35.3829 Y25.3263 
G01 X-35.3453 Y25.5152 
G01 X-35.2716 Y25.6932 
G01 X-35.1646 Y25.8534 
G01 X-35.0284 Y25.9896 
G01 X-34.8682 Y26.0966 
G01 X-34.6902 Y26.1703 
G01 X-34.5013 Y26.2079 
G01 X-34.3087 Y26.2079 
G01 X-34.1198 Y26.1703 
G01 X-33.9418 Y26.0966 
G01 X-33.7816 Y25.9896 
G00 Z2.5400 
G00 X-36.3216 Y25.9896 
G01 Z-0.0254 F254.00 
G01 X-36.1854 Y25.8534 F508.00 
G01 X-36.0784 Y25.6932 
G01 X-36.0047 Y25.5152 
G01 X-35.9671 Y25.3263 
G01 X-35.9671 Y23.3557 
G01 X-36.0047 Y23.1668 
G01 X-36.0784 Y22.9888 
G01 X-36.1854 Y22.8286 
G01 X-36.3216 Y22.6924 
G01 X-36.4818 Y22.5854 
G01 X-36.6598 Y22.5117 
G01 X-36.8487 Y22.4741 
G01 X-37.0413 Y22.4741 
G01 X-37.2302 Y22.5117 
G01 X-37.4082 Y22.5854 
G01 X-37.5684 Y22.6924 
G01 X-37.7046 Y22.8286 
G01 X-37.8116 Y22.9888 
G01 X-37.8853 Y23.1668 
G01 X-37.9229 Y23.3557 
G01 X-37.9229 Y25.3263 
G01 X-37.8853 Y25.5152 
G01 X-37.8116 Y25.6932 
G01 X-37.7046 Y25.8534 
G01 X-37.5684 Y25.9896 
G01 X-37.4082 Y26.0966 
G01 X-37.2302 Y26.1703 
G01 X-37.0413 Y26.2079 
G01 X-36.8487 Y26.2079 
G01 X-36.6598 Y26.1703 
G01 X-36.4818 Y26.0966 
G01 X-36.3216 Y25.9896 
G00 Z2.5400 
G00 X-38.8616 Y25.9896 
G01 Z-0.0254 F254.00 
G01 X-38.7254 Y25.8534 F508.00 
G01 X-38.6184 Y25.6932 
G01 X-38.5447 Y25.5152 
G01 X-38.5071 Y25.3263 
G01 X-38.5071 Y23.3557 
G01 X-38.5447 Y23.1668 
G01 X-38.6184 Y22.9888 
G01 X-38.7254 Y22.8286 
G01 X-38.8616 Y22.6924 
G01 X-39.0218 Y22.5854 
G01 X-39.1998 Y22.5117 
G01 X-39.3887 Y22.4741 
G01 X-39.5813 Y22.4741 
G01 X-39.7702 Y22.5117 
G01 X-39.9482 Y22.5854 
G01 X-40.1084 Y22.6924 
G01 X-40.2446 Y22.8286 
G01 X-40.3516 Y22.9888 
G01 X-40.4253 Y23.1668 
G01 X-40.4629 Y23.3557 
G01 X-40.4629 Y25.3263 
G01 X-40.4253 Y25.5152 
G01 X-40.3516 Y25.6932 
G01 X-40.2446 Y25.8534 
G01 X-40.1084 Y25.9896 
G01 X-39.9482 Y26.0966 
G01 X-39.7702 Y26.1703 
G01 X-39.5813 Y26.2079 
G01 X-39.3887 Y26.2079 
G01 X-39.1998 Y26.1703 
G01 X-39.0218 Y26.0966 
G01 X-38.8616 Y25.9896 
G00 Z2.5400 
G00 X-38.8616 Y27.0104 
G01 Z-0.0254 F254.00 
G01 X-39.0218 Y26.9034 F508.00 
G01 X-39.1998 Y26.8297 
G01 X-39.3887 Y26.7921 
G01 X-39.5813 Y26.7921 
G01 X-39.7702 Y26.8297 
G01 X-39.9482 Y26.9034 
G01 X-40.1084 Y27.0104 
G01 X-40.2446 Y27.1466 
G01 X-40.3516 Y27.3068 
G01 X-40.4253 Y27.4848 
G01 X-40.4629 Y27.6737 
G01 X-40.4629 Y29.6443 
G01 X-40.4253 Y29.8332 
G01 X-40.3516 Y30.0112 
G01 X-40.2446 Y30.1714 
G01 X-40.1084 Y30.3076 
G01 X-39.9482 Y30.4146 
G01 X-39.7702 Y30.4883 
G01 X-39.5813 Y30.5259 
G01 X-39.3887 Y30.5259 
G01 X-39.1998 Y30.4883 
G01 X-39.0218 Y30.4146 
G01 X-38.8616 Y30.3076 
G01 X-38.7254 Y30.1714 
G01 X-38.6184 Y30.0112 
G01 X-38.5447 Y29.8332 
G01 X-38.5071 Y29.6443 
G01 X-38.5071 Y27.6737 
G01 X-38.5447 Y27.4848 
G01 X-38.6184 Y27.3068 
G01 X-38.7254 Y27.1466 
G01 X-38.8616 Y27.0104 
G00 Z2.5400 
G00 X-41.2654 Y27.1466 
G01 Z-0.0254 F254.00 
G01 X-41.4016 Y27.0104 F508.00 
G01 X-41.5618 Y26.9034 
G01 X-41.7398 Y26.8297 
G01 X-41.9287 Y26.7921 
G01 X-42.1213 Y26.7921 
G01 X-42.3102 Y26.8297 
G01 X-42.4882 Y26.9034 
G01 X-42.6484 Y27.0104 
G01 X-42.7846 Y27.1466 
G01 X-42.8916 Y27.3068 
G01 X-42.9653 Y27.4848 
G01 X-43.0029 Y27.6737 
G01 X-43.0029 Y29.6443 
G01 X-42.9653 Y29.8332 
G01 X-42.8916 Y30.0112 
G01 X-42.7846 Y30.1714 
G01 X-42.6484 Y30.3076 
G01 X-42.4882 Y30.4146 
G01 X-42.3102 Y30.4883 
G01 X-42.1213 Y30.5259 
G01 X-41.9287 Y30.5259 
G01 X-41.7398 Y30.4883 
G01 X-41.5618 Y30.4146 
G01 X-41.4016 Y30.3076 
G01 X-41.2654 Y30.1714 
G01 X-41.1584 Y30.0112 
G01 X-41.0847 Y29.8332 
G01 X-41.0471 Y29.6443 
G01 X-41.0471 Y27.6737 
G01 X-41.0847 Y27.4848 
G01 X-41.1584 Y27.3068 
G01 X-41.2654 Y27.1466 
G00 Z2.5400 
G00 X-41.4016 Y25.9896 
G01 Z-0.0254 F254.00 
G01 X-41.2654 Y25.8534 F508.00 
G01 X-41.1584 Y25.6932 
G01 X-41.0847 Y25.5152 
G01 X-41.0471 Y25.3263 
G01 X-41.0471 Y23.3557 
G01 X-41.0847 Y23.1668 
G01 X-41.1584 Y22.9888 
G01 X-41.2654 Y22.8286 
G01 X-41.4016 Y22.6924 
G01 X-41.5618 Y22.5854 
G01 X-41.7398 Y22.5117 
G01 X-41.9287 Y22.4741 
G01 X-42.1213 Y22.4741 
G01 X-42.3102 Y22.5117 
G01 X-42.4882 Y22.5854 
G01 X-42.6484 Y22.6924 
G01 X-42.7846 Y22.8286 
G01 X-42.8916 Y22.9888 
G01 X-42.9653 Y23.1668 
G01 X-43.0029 Y23.3557 
G01 X-43.0029 Y25.3263 
G01 X-42.9653 Y25.5152 
G01 X-42.8916 Y25.6932 
G01 X-42.7846 Y25.8534 
G01 X-42.6484 Y25.9896 
G01 X-42.4882 Y26.0966 
G01 X-42.3102 Y26.1703 
G01 X-42.1213 Y26.2079 
G01 X-41.9287 Y26.2079 
G01 X-41.7398 Y26.1703 
G01 X-41.5618 Y26.0966 
G01 X-41.4016 Y25.9896 
G00 Z2.5400 
G00 X-43.9416 Y25.9896 
G01 Z-0.0254 F254.00 
G01 X-43.8054 Y25.8534 F508.00 
G01 X-43.6984 Y25.6932 
G01 X-43.6247 Y25.5152 
G01 X-43.5871 Y25.3263 
G01 X-43.5871 Y23.3557 
G01 X-43.6247 Y23.1668 
G01 X-43.6984 Y22.9888 
G01 X-43.8054 Y22.8286 
G01 X-43.9416 Y22.6924 
G01 X-44.1018 Y22.5854 
G01 X-44.2798 Y22.5117 
G01 X-44.4687 Y22.4741 
G01 X-44.6613 Y22.4741 
G01 X-44.8502 Y22.5117 
G01 X-45.0282 Y22.5854 
G01 X-45.1884 Y22.6924 
G01 X-45.3246 Y22.8286 
G01 X-45.4316 Y22.9888 
G01 X-45.5053 Y23.1668 
G01 X-45.5429 Y23.3557 
G01 X-45.5429 Y25.3263 
G01 X-45.5053 Y25.5152 
G01 X-45.4316 Y25.6932 
G01 X-45.3246 Y25.8534 
G01 X-45.1884 Y25.9896 
G01 X-45.0282 Y26.0966 
G01 X-44.8502 Y26.1703 
G01 X-44.6613 Y26.2079 
G01 X-44.4687 Y26.2079 
G01 X-44.2798 Y26.1703 
G01 X-44.1018 Y26.0966 
G01 X-43.9416 Y25.9896 
G00 Z2.5400 
G00 X-43.9416 Y27.0104 
G01 Z-0.0254 F254.00 
G01 X-44.1018 Y26.9034 F508.00 
G01 X-44.2798 Y26.8297 
G01 X-44.4687 Y26.7921 
G01 X-44.6613 Y26.7921 
G01 X-44.8502 Y26.8297 
G01 X-45.0282 Y26.9034 
G01 X-45.1884 Y27.0104 
G01 X-45.3246 Y27.1466 
G01 X-45.4316 Y27.3068 
G01 X-45.5053 Y27.4848 
G01 X-45.5429 Y27.6737 
G01 X-45.5429 Y29.6443 
G01 X-45.5053 Y29.8332 
G01 X-45.4316 Y30.0112 
G01 X-45.3246 Y30.1714 
G01 X-45.1884 Y30.3076 
G01 X-45.0282 Y30.4146 
G01 X-44.8502 Y30.4883 
G01 X-44.6613 Y30.5259 
G01 X-44.4687 Y30.5259 
G01 X-44.2798 Y30.4883 
G01 X-44.1018 Y30.4146 
G01 X-43.9416 Y30.3076 
G01 X-43.8054 Y30.1714 
G01 X-43.6984 Y30.0112 
G01 X-43.6247 Y29.8332 
G01 X-43.5871 Y29.6443 
G01 X-43.5871 Y27.6737 
G01 X-43.6247 Y27.4848 
G01 X-43.6984 Y27.3068 
G01 X-43.8054 Y27.1466 
G01 X-43.9416 Y27.0104 
G00 Z2.5400 
G00 X-46.3454 Y27.1466 
G01 Z-0.0254 F254.00 
G01 X-46.4816 Y27.0104 F508.00 
G01 X-46.6418 Y26.9034 
G01 X-46.8198 Y26.8297 
G01 X-47.0087 Y26.7921 
G01 X-47.2013 Y26.7921 
G01 X-47.3902 Y26.8297 
G01 X-47.5682 Y26.9034 
G01 X-47.7284 Y27.0104 
G01 X-47.8646 Y27.1466 
G01 X-47.9716 Y27.3068 
G01 X-48.0453 Y27.4848 
G01 X-48.0829 Y27.6737 
G01 X-48.0829 Y29.6443 
G01 X-48.0453 Y29.8332 
G01 X-47.9716 Y30.0112 
G01 X-47.8646 Y30.1714 
G01 X-47.7284 Y30.3076 
G01 X-47.5682 Y30.4146 
G01 X-47.3902 Y30.4883 
G01 X-47.2013 Y30.5259 
G01 X-47.0087 Y30.5259 
G01 X-46.8198 Y30.4883 
G01 X-46.6418 Y30.4146 
G01 X-46.4816 Y30.3076 
G01 X-46.3454 Y30.1714 
G01 X-46.2384 Y30.0112 
G01 X-46.1647 Y29.8332 
G01 X-46.1271 Y29.6443 
G01 X-46.1271 Y27.6737 
G01 X-46.1647 Y27.4848 
G01 X-46.2384 Y27.3068 
G01 X-46.3454 Y27.1466 
G00 Z2.5400 
G00 X-46.4816 Y25.9896 
G01 Z-0.0254 F254.00 
G01 X-46.3454 Y25.8534 F508.00 
G01 X-46.2384 Y25.6932 
G01 X-46.1647 Y25.5152 
G01 X-46.1271 Y25.3263 
G01 X-46.1271 Y23.3557 
G01 X-46.1647 Y23.1668 
G01 X-46.2384 Y22.9888 
G01 X-46.3454 Y22.8286 
G01 X-46.4816 Y22.6924 
G01 X-46.6418 Y22.5854 
G01 X-46.8198 Y22.5117 
G01 X-47.0087 Y22.4741 
G01 X-47.2013 Y22.4741 
G01 X-47.3902 Y22.5117 
G01 X-47.5682 Y22.5854 
G01 X-47.7284 Y22.6924 
G01 X-47.8646 Y22.8286 
G01 X-47.9716 Y22.9888 
G01 X-48.0453 Y23.1668 
G01 X-48.0829 Y23.3557 
G01 X-48.0829 Y25.3263 
G01 X-48.0453 Y25.5152 
G01 X-47.9716 Y25.6932 
G01 X-47.8646 Y25.8534 
G01 X-47.7284 Y25.9896 
G01 X-47.5682 Y26.0966 
G01 X-47.3902 Y26.1703 
G01 X-47.2013 Y26.2079 
G01 X-47.0087 Y26.2079 
G01 X-46.8198 Y26.1703 
G01 X-46.6418 Y26.0966 
G01 X-46.4816 Y25.9896 
G00 Z2.5400 
G00 X-49.0216 Y25.9896 
G01 Z-0.0254 F254.00 
G01 X-48.8854 Y25.8534 F508.00 
G01 X-48.7784 Y25.6932 
G01 X-48.7047 Y25.5152 
G01 X-48.6671 Y25.3263 
G01 X-48.6671 Y23.3557 
G01 X-48.7047 Y23.1668 
G01 X-48.7784 Y22.9888 
G01 X-48.8854 Y22.8286 
G01 X-49.0216 Y22.6924 
G01 X-49.1818 Y22.5854 
G01 X-49.3598 Y22.5117 
G01 X-49.5487 Y22.4741 
G01 X-49.7413 Y22.4741 
G01 X-49.9302 Y22.5117 
G01 X-50.1082 Y22.5854 
G01 X-50.2684 Y22.6924 
G01 X-50.4046 Y22.8286 
G01 X-50.5116 Y22.9888 
G01 X-50.5853 Y23.1668 
G01 X-50.6229 Y23.3557 
G01 X-50.6229 Y25.3263 
G01 X-50.5853 Y25.5152 
G01 X-50.5116 Y25.6932 
G01 X-50.4046 Y25.8534 
G01 X-50.2684 Y25.9896 
G01 X-50.1082 Y26.0966 
G01 X-49.9302 Y26.1703 
G01 X-49.7413 Y26.2079 
G01 X-49.5487 Y26.2079 
G01 X-49.3598 Y26.1703 
G01 X-49.1818 Y26.0966 
G01 X-49.0216 Y25.9896 
G00 Z2.5400 
G00 X-49.0216 Y27.0104 
G01 Z-0.0254 F254.00 
G01 X-49.1818 Y26.9034 F508.00 
G01 X-49.3598 Y26.8297 
G01 X-49.5487 Y26.7921 
G01 X-49.7413 Y26.7921 
G01 X-49.9302 Y26.8297 
G01 X-50.1082 Y26.9034 
G01 X-50.2684 Y27.0104 
G01 X-50.4046 Y27.1466 
G01 X-50.5116 Y27.3068 
G01 X-50.5853 Y27.4848 
G01 X-50.6229 Y27.6737 
G01 X-50.6229 Y29.6443 
G01 X-50.5853 Y29.8332 
G01 X-50.5116 Y30.0112 
G01 X-50.4046 Y30.1714 
G01 X-50.2684 Y30.3076 
G01 X-50.1082 Y30.4146 
G01 X-49.9302 Y30.4883 
G01 X-49.7413 Y30.5259 
G01 X-49.5487 Y30.5259 
G01 X-49.3598 Y30.4883 
G01 X-49.1818 Y30.4146 
G01 X-49.0216 Y30.3076 
G01 X-48.8854 Y30.1714 
G01 X-48.7784 Y30.0112 
G01 X-48.7047 Y29.8332 
G01 X-48.6671 Y29.6443 
G01 X-48.6671 Y27.6737 
G01 X-48.7047 Y27.4848 
G01 X-48.7784 Y27.3068 
G01 X-48.8854 Y27.1466 
G01 X-49.0216 Y27.0104 
G00 Z2.5400 
G00 X-51.4254 Y27.1466 
G01 Z-0.0254 F254.00 
G01 X-51.5616 Y27.0104 F508.00 
G01 X-51.7218 Y26.9034 
G01 X-51.8998 Y26.8297 
G01 X-52.0887 Y26.7921 
G01 X-52.2813 Y26.7921 
G01 X-52.4702 Y26.8297 
G01 X-52.6482 Y26.9034 
G01 X-52.8084 Y27.0104 
G01 X-52.9446 Y27.1466 
G01 X-53.0516 Y27.3068 
G01 X-53.1253 Y27.4848 
G01 X-53.1629 Y27.6737 
G01 X-53.1629 Y29.6443 
G01 X-53.1253 Y29.8332 
G01 X-53.0516 Y30.0112 
G01 X-52.9446 Y30.1714 
G01 X-52.8084 Y30.3076 
G01 X-52.6482 Y30.4146 
G01 X-52.4702 Y30.4883 
G01 X-52.2813 Y30.5259 
G01 X-52.0887 Y30.5259 
G01 X-51.8998 Y30.4883 
G01 X-51.7218 Y30.4146 
G01 X-51.5616 Y30.3076 
G01 X-51.4254 Y30.1714 
G01 X-51.3184 Y30.0112 
G01 X-51.2447 Y29.8332 
G01 X-51.2071 Y29.6443 
G01 X-51.2071 Y27.6737 
G01 X-51.2447 Y27.4848 
G01 X-51.3184 Y27.3068 
G01 X-51.4254 Y27.1466 
G00 Z2.5400 
G00 X-51.5616 Y25.9896 
G01 Z-0.0254 F254.00 
G01 X-51.4254 Y25.8534 F508.00 
G01 X-51.3184 Y25.6932 
G01 X-51.2447 Y25.5152 
G01 X-51.2071 Y25.3263 
G01 X-51.2071 Y23.3557 
G01 X-51.2447 Y23.1668 
G01 X-51.3184 Y22.9888 
G01 X-51.4254 Y22.8286 
G01 X-51.5616 Y22.6924 
G01 X-51.7218 Y22.5854 
G01 X-51.8998 Y22.5117 
G01 X-52.0887 Y22.4741 
G01 X-52.2813 Y22.4741 
G01 X-52.4702 Y22.5117 
G01 X-52.6482 Y22.5854 
G01 X-52.8084 Y22.6924 
G01 X-52.9446 Y22.8286 
G01 X-53.0516 Y22.9888 
G01 X-53.1253 Y23.1668 
G01 X-53.1629 Y23.3557 
G01 X-53.1629 Y25.3263 
G01 X-53.1253 Y25.5152 
G01 X-53.0516 Y25.6932 
G01 X-52.9446 Y25.8534 
G01 X-52.8084 Y25.9896 
G01 X-52.6482 Y26.0966 
G01 X-52.4702 Y26.1703 
G01 X-52.2813 Y26.2079 
G01 X-52.0887 Y26.2079 
G01 X-51.8998 Y26.1703 
G01 X-51.7218 Y26.0966 
G01 X-51.5616 Y25.9896 
G00 Z2.5400 
G00 X-54.1016 Y25.9896 
G01 Z-0.0254 F254.00 
G01 X-53.9654 Y25.8534 F508.00 
G01 X-53.8584 Y25.6932 
G01 X-53.7847 Y25.5152 
G01 X-53.7471 Y25.3263 
G01 X-53.7471 Y23.3557 
G01 X-53.7847 Y23.1668 
G01 X-53.8584 Y22.9888 
G01 X-53.9654 Y22.8286 
G01 X-54.1016 Y22.6924 
G01 X-54.2618 Y22.5854 
G01 X-54.4398 Y22.5117 
G01 X-54.6287 Y22.4741 
G01 X-54.8213 Y22.4741 
G01 X-55.0102 Y22.5117 
G01 X-55.1882 Y22.5854 
G01 X-55.3484 Y22.6924 
G01 X-55.4846 Y22.8286 
G01 X-55.5916 Y22.9888 
G01 X-55.6653 Y23.1668 
G01 X-55.7029 Y23.3557 
G01 X-55.7029 Y25.3263 
G01 X-55.6653 Y25.5152 
G01 X-55.5916 Y25.6932 
G01 X-55.4846 Y25.8534 
G01 X-55.3484 Y25.9896 
G01 X-55.1882 Y26.0966 
G01 X-55.0102 Y26.1703 
G01 X-54.8213 Y26.2079 
G01 X-54.6287 Y26.2079 
G01 X-54.4398 Y26.1703 
G01 X-54.2618 Y26.0966 
G01 X-54.1016 Y25.9896 
G00 Z2.5400 
G00 X-54.1016 Y27.0104 
G01 Z-0.0254 F254.00 
G01 X-54.2618 Y26.9034 F508.00 
G01 X-54.4398 Y26.8297 
G01 X-54.6287 Y26.7921 
G01 X-54.8213 Y26.7921 
G01 X-55.0102 Y26.8297 
G01 X-55.1882 Y26.9034 
G01 X-55.3484 Y27.0104 
G01 X-55.4846 Y27.1466 
G01 X-55.5916 Y27.3068 
G01 X-55.6653 Y27.4848 
G01 X-55.7029 Y27.6737 
G01 X-55.7029 Y29.6443 
G01 X-55.6653 Y29.8332 
G01 X-55.5916 Y30.0112 
G01 X-55.4846 Y30.1714 
G01 X-55.3484 Y30.3076 
G01 X-55.1882 Y30.4146 
G01 X-55.0102 Y30.4883 
G01 X-54.8213 Y30.5259 
G01 X-54.6287 Y30.5259 
G01 X-54.4398 Y30.4883 
G01 X-54.2618 Y30.4146 
G01 X-54.1016 Y30.3076 
G01 X-53.9654 Y30.1714 
G01 X-53.8584 Y30.0112 
G01 X-53.7847 Y29.8332 
G01 X-53.7471 Y29.6443 
G01 X-53.7471 Y27.6737 
G01 X-53.7847 Y27.4848 
G01 X-53.8584 Y27.3068 
G01 X-53.9654 Y27.1466 
G01 X-54.1016 Y27.0104 
G00 Z2.5400 
G00 X-56.5054 Y27.1466 
G01 Z-0.0254 F254.00 
G01 X-56.6416 Y27.0104 F508.00 
G01 X-56.8018 Y26.9034 
G01 X-56.9798 Y26.8297 
G01 X-57.1687 Y26.7921 
G01 X-57.3613 Y26.7921 
G01 X-57.5502 Y26.8297 
G01 X-57.7282 Y26.9034 
G01 X-57.8884 Y27.0104 
G01 X-58.0246 Y27.1466 
G01 X-58.1316 Y27.3068 
G01 X-58.2053 Y27.4848 
G01 X-58.2429 Y27.6737 
G01 X-58.2429 Y29.6443 
G01 X-58.2053 Y29.8332 
G01 X-58.1316 Y30.0112 
G01 X-58.0246 Y30.1714 
G01 X-57.8884 Y30.3076 
G01 X-57.7282 Y30.4146 
G01 X-57.5502 Y30.4883 
G01 X-57.3613 Y30.5259 
G01 X-57.1687 Y30.5259 
G01 X-56.9798 Y30.4883 
G01 X-56.8018 Y30.4146 
G01 X-56.6416 Y30.3076 
G01 X-56.5054 Y30.1714 
G01 X-56.3984 Y30.0112 
G01 X-56.3247 Y29.8332 
G01 X-56.2871 Y29.6443 
G01 X-56.2871 Y27.6737 
G01 X-56.3247 Y27.4848 
G01 X-56.3984 Y27.3068 
G01 X-56.5054 Y27.1466 
G00 Z2.5400 
G00 X-56.6416 Y25.9896 
G01 Z-0.0254 F254.00 
G01 X-56.5054 Y25.8534 F508.00 
G01 X-56.3984 Y25.6932 
G01 X-56.3247 Y25.5152 
G01 X-56.2871 Y25.3263 
G01 X-56.2871 Y23.3557 
G01 X-56.3247 Y23.1668 
G01 X-56.3984 Y22.9888 
G01 X-56.5054 Y22.8286 
G01 X-56.6416 Y22.6924 
G01 X-56.8018 Y22.5854 
G01 X-56.9798 Y22.5117 
G01 X-57.1687 Y22.4741 
G01 X-57.3613 Y22.4741 
G01 X-57.5502 Y22.5117 
G01 X-57.7282 Y22.5854 
G01 X-57.8884 Y22.6924 
G01 X-58.0246 Y22.8286 
G01 X-58.1316 Y22.9888 
G01 X-58.2053 Y23.1668 
G01 X-58.2429 Y23.3557 
G01 X-58.2429 Y25.3263 
G01 X-58.2053 Y25.5152 
G01 X-58.1316 Y25.6932 
G01 X-58.0246 Y25.8534 
G01 X-57.8884 Y25.9896 
G01 X-57.7282 Y26.0966 
G01 X-57.5502 Y26.1703 
G01 X-57.3613 Y26.2079 
G01 X-57.1687 Y26.2079 
G01 X-56.9798 Y26.1703 
G01 X-56.8018 Y26.0966 
G01 X-56.6416 Y25.9896 
G00 Z2.5400 
G00 X-59.1816 Y25.9896 
G01 Z-0.0254 F254.00 
G01 X-59.0454 Y25.8534 F508.00 
G01 X-58.9384 Y25.6932 
G01 X-58.8647 Y25.5152 
G01 X-58.8271 Y25.3263 
G01 X-58.8271 Y23.3557 
G01 X-58.8647 Y23.1668 
G01 X-58.9384 Y22.9888 
G01 X-59.0454 Y22.8286 
G01 X-59.1816 Y22.6924 
G01 X-59.3418 Y22.5854 
G01 X-59.5198 Y22.5117 
G01 X-59.7087 Y22.4741 
G01 X-59.9013 Y22.4741 
G01 X-60.0902 Y22.5117 
G01 X-60.2682 Y22.5854 
G01 X-60.4284 Y22.6924 
G01 X-60.5646 Y22.8286 
G01 X-60.6716 Y22.9888 
G01 X-60.7453 Y23.1668 
G01 X-60.7829 Y23.3557 
G01 X-60.7829 Y25.3263 
G01 X-60.7453 Y25.5152 
G01 X-60.6716 Y25.6932 
G01 X-60.5646 Y25.8534 
G01 X-60.4284 Y25.9896 
G01 X-60.2682 Y26.0966 
G01 X-60.0902 Y26.1703 
G01 X-59.9013 Y26.2079 
G01 X-59.7087 Y26.2079 
G01 X-59.5198 Y26.1703 
G01 X-59.3418 Y26.0966 
G01 X-59.1816 Y25.9896 
G00 Z2.5400 
G00 X-59.1816 Y27.0104 
G01 Z-0.0254 F254.00 
G01 X-59.3418 Y26.9034 F508.00 
G01 X-59.5198 Y26.8297 
G01 X-59.7087 Y26.7921 
G01 X-59.9013 Y26.7921 
G01 X-60.0902 Y26.8297 
G01 X-60.2682 Y26.9034 
G01 X-60.4284 Y27.0104 
G01 X-60.5646 Y27.1466 
G01 X-60.6716 Y27.3068 
G01 X-60.7453 Y27.4848 
G01 X-60.7829 Y27.6737 
G01 X-60.7829 Y29.6443 
G01 X-60.7453 Y29.8332 
G01 X-60.6716 Y30.0112 
G01 X-60.5646 Y30.1714 
G01 X-60.4284 Y30.3076 
G01 X-60.2682 Y30.4146 
G01 X-60.0902 Y30.4883 
G01 X-59.9013 Y30.5259 
G01 X-59.7087 Y30.5259 
G01 X-59.5198 Y30.4883 
G01 X-59.3418 Y30.4146 
G01 X-59.1816 Y30.3076 
G01 X-59.0454 Y30.1714 
G01 X-58.9384 Y30.0112 
G01 X-58.8647 Y29.8332 
G01 X-58.8271 Y29.6443 
G01 X-58.8271 Y27.6737 
G01 X-58.8647 Y27.4848 
G01 X-58.9384 Y27.3068 
G01 X-59.0454 Y27.1466 
G01 X-59.1816 Y27.0104 
G00 Z2.5400 
G00 X-61.5854 Y27.1466 
G01 Z-0.0254 F254.00 
G01 X-61.7216 Y27.0104 F508.00 
G01 X-61.8818 Y26.9034 
G01 X-62.0598 Y26.8297 
G01 X-62.2487 Y26.7921 
G01 X-62.4413 Y26.7921 
G01 X-62.6302 Y26.8297 
G01 X-62.8082 Y26.9034 
G01 X-62.9684 Y27.0104 
G01 X-63.1046 Y27.1466 
G01 X-63.2116 Y27.3068 
G01 X-63.2853 Y27.4848 
G01 X-63.3229 Y27.6737 
G01 X-63.3229 Y29.6443 
G01 X-63.2853 Y29.8332 
G01 X-63.2116 Y30.0112 
G01 X-63.1046 Y30.1714 
G01 X-62.9684 Y30.3076 
G01 X-62.8082 Y30.4146 
G01 X-62.6302 Y30.4883 
G01 X-62.4413 Y30.5259 
G01 X-62.2487 Y30.5259 
G01 X-62.0598 Y30.4883 
G01 X-61.8818 Y30.4146 
G01 X-61.7216 Y30.3076 
G01 X-61.5854 Y30.1714 
G01 X-61.4784 Y30.0112 
G01 X-61.4047 Y29.8332 
G01 X-61.3671 Y29.6443 
G01 X-61.3671 Y27.6737 
G01 X-61.4047 Y27.4848 
G01 X-61.4784 Y27.3068 
G01 X-61.5854 Y27.1466 
G00 Z2.5400 
G00 X-61.7216 Y25.9896 
G01 Z-0.0254 F254.00 
G01 X-61.5854 Y25.8534 F508.00 
G01 X-61.4784 Y25.6932 
G01 X-61.4047 Y25.5152 
G01 X-61.3671 Y25.3263 
G01 X-61.3671 Y23.3557 
G01 X-61.4047 Y23.1668 
G01 X-61.4784 Y22.9888 
G01 X-61.5854 Y22.8286 
G01 X-61.7216 Y22.6924 
G01 X-61.8818 Y22.5854 
G01 X-62.0598 Y22.5117 
G01 X-62.2487 Y22.4741 
G01 X-62.4413 Y22.4741 
G01 X-62.6302 Y22.5117 
G01 X-62.8082 Y22.5854 
G01 X-62.9684 Y22.6924 
G01 X-63.1046 Y22.8286 
G01 X-63.2116 Y22.9888 
G01 X-63.2853 Y23.1668 
G01 X-63.3229 Y23.3557 
G01 X-63.3229 Y25.3263 
G01 X-63.2853 Y25.5152 
G01 X-63.2116 Y25.6932 
G01 X-63.1046 Y25.8534 
G01 X-62.9684 Y25.9896 
G01 X-62.8082 Y26.0966 
G01 X-62.6302 Y26.1703 
G01 X-62.4413 Y26.2079 
G01 X-62.2487 Y26.2079 
G01 X-62.0598 Y26.1703 
G01 X-61.8818 Y26.0966 
G01 X-61.7216 Y25.9896 
G00 Z2.5400 
G00 X-64.2616 Y25.9896 
G01 Z-0.0254 F254.00 
G01 X-64.1254 Y25.8534 F508.00 
G01 X-64.0184 Y25.6932 
G01 X-63.9447 Y25.5152 
G01 X-63.9071 Y25.3263 
G01 X-63.9071 Y23.3557 
G01 X-63.9447 Y23.1668 
G01 X-64.0184 Y22.9888 
G01 X-64.1254 Y22.8286 
G01 X-64.2616 Y22.6924 
G01 X-64.4218 Y22.5854 
G01 X-64.5998 Y22.5117 
G01 X-64.7887 Y22.4741 
G01 X-64.9813 Y22.4741 
G01 X-65.1702 Y22.5117 
G01 X-65.3482 Y22.5854 
G01 X-65.5084 Y22.6924 
G01 X-65.6446 Y22.8286 
G01 X-65.7516 Y22.9888 
G01 X-65.8253 Y23.1668 
G01 X-65.8629 Y23.3557 
G01 X-65.8629 Y25.3263 
G01 X-65.8253 Y25.5152 
G01 X-65.7516 Y25.6932 
G01 X-65.6446 Y25.8534 
G01 X-65.5084 Y25.9896 
G01 X-65.3482 Y26.0966 
G01 X-65.1702 Y26.1703 
G01 X-64.9813 Y26.2079 
G01 X-64.7887 Y26.2079 
G01 X-64.5998 Y26.1703 
G01 X-64.4218 Y26.0966 
G01 X-64.2616 Y25.9896 
G00 Z2.5400 
G00 X-64.2616 Y27.0104 
G01 Z-0.0254 F254.00 
G01 X-64.4218 Y26.9034 F508.00 
G01 X-64.5998 Y26.8297 
G01 X-64.7887 Y26.7921 
G01 X-64.9813 Y26.7921 
G01 X-65.1702 Y26.8297 
G01 X-65.3482 Y26.9034 
G01 X-65.5084 Y27.0104 
G01 X-65.6446 Y27.1466 
G01 X-65.7516 Y27.3068 
G01 X-65.8253 Y27.4848 
G01 X-65.8629 Y27.6737 
G01 X-65.8629 Y29.6443 
G01 X-65.8253 Y29.8332 
G01 X-65.7516 Y30.0112 
G01 X-65.6446 Y30.1714 
G01 X-65.5084 Y30.3076 
G01 X-65.3482 Y30.4146 
G01 X-65.1702 Y30.4883 
G01 X-64.9813 Y30.5259 
G01 X-64.7887 Y30.5259 
G01 X-64.5998 Y30.4883 
G01 X-64.4218 Y30.4146 
G01 X-64.2616 Y30.3076 
G01 X-64.1254 Y30.1714 
G01 X-64.0184 Y30.0112 
G01 X-63.9447 Y29.8332 
G01 X-63.9071 Y29.6443 
G01 X-63.9071 Y27.6737 
G01 X-63.9447 Y27.4848 
G01 X-64.0184 Y27.3068 
G01 X-64.1254 Y27.1466 
G01 X-64.2616 Y27.0104 
G00 Z2.5400 
G00 X-66.6654 Y27.1466 
G01 Z-0.0254 F254.00 
G01 X-66.8016 Y27.0104 F508.00 
G01 X-66.9618 Y26.9034 
G01 X-67.1398 Y26.8297 
G01 X-67.3287 Y26.7921 
G01 X-67.5213 Y26.7921 
G01 X-67.7102 Y26.8297 
G01 X-67.8882 Y26.9034 
G01 X-68.0484 Y27.0104 
G01 X-68.1846 Y27.1466 
G01 X-68.2916 Y27.3068 
G01 X-68.3653 Y27.4848 
G01 X-68.4029 Y27.6737 
G01 X-68.4029 Y29.6443 
G01 X-68.3653 Y29.8332 
G01 X-68.2916 Y30.0112 
G01 X-68.1846 Y30.1714 
G01 X-68.0484 Y30.3076 
G01 X-67.8882 Y30.4146 
G01 X-67.7102 Y30.4883 
G01 X-67.5213 Y30.5259 
G01 X-67.3287 Y30.5259 
G01 X-67.1398 Y30.4883 
G01 X-66.9618 Y30.4146 
G01 X-66.8016 Y30.3076 
G01 X-66.6654 Y30.1714 
G01 X-66.5584 Y30.0112 
G01 X-66.4847 Y29.8332 
G01 X-66.4471 Y29.6443 
G01 X-66.4471 Y27.6737 
G01 X-66.4847 Y27.4848 
G01 X-66.5584 Y27.3068 
G01 X-66.6654 Y27.1466 
G00 Z2.5400 
G00 X-66.8016 Y25.9896 
G01 Z-0.0254 F254.00 
G01 X-66.6654 Y25.8534 F508.00 
G01 X-66.5584 Y25.6932 
G01 X-66.4847 Y25.5152 
G01 X-66.4471 Y25.3263 
G01 X-66.4471 Y23.3557 
G01 X-66.4847 Y23.1668 
G01 X-66.5584 Y22.9888 
G01 X-66.6654 Y22.8286 
G01 X-66.8016 Y22.6924 
G01 X-66.9618 Y22.5854 
G01 X-67.1398 Y22.5117 
G01 X-67.3287 Y22.4741 
G01 X-67.5213 Y22.4741 
G01 X-67.7102 Y22.5117 
G01 X-67.8882 Y22.5854 
G01 X-68.0484 Y22.6924 
G01 X-68.1846 Y22.8286 
G01 X-68.2916 Y22.9888 
G01 X-68.3653 Y23.1668 
G01 X-68.4029 Y23.3557 
G01 X-68.4029 Y25.3263 
G01 X-68.3653 Y25.5152 
G01 X-68.2916 Y25.6932 
G01 X-68.1846 Y25.8534 
G01 X-68.0484 Y25.9896 
G01 X-67.8882 Y26.0966 
G01 X-67.7102 Y26.1703 
G01 X-67.5213 Y26.2079 
G01 X-67.3287 Y26.2079 
G01 X-67.1398 Y26.1703 
G01 X-66.9618 Y26.0966 
G01 X-66.8016 Y25.9896 
G00 Z2.5400 
G00 X-69.3416 Y25.9896 
G01 Z-0.0254 F254.00 
G01 X-69.2054 Y25.8534 F508.00 
G01 X-69.0984 Y25.6932 
G01 X-69.0247 Y25.5152 
G01 X-68.9871 Y25.3263 
G01 X-68.9871 Y23.3557 
G01 X-69.0247 Y23.1668 
G01 X-69.0984 Y22.9888 
G01 X-69.2054 Y22.8286 
G01 X-69.3416 Y22.6924 
G01 X-69.5018 Y22.5854 
G01 X-69.6798 Y22.5117 
G01 X-69.8687 Y22.4741 
G01 X-70.0613 Y22.4741 
G01 X-70.2502 Y22.5117 
G01 X-70.4282 Y22.5854 
G01 X-70.5884 Y22.6924 
G01 X-70.7246 Y22.8286 
G01 X-70.8316 Y22.9888 
G01 X-70.9053 Y23.1668 
G01 X-70.9429 Y23.3557 
G01 X-70.9429 Y25.3263 
G01 X-70.9053 Y25.5152 
G01 X-70.8316 Y25.6932 
G01 X-70.7246 Y25.8534 
G01 X-70.5884 Y25.9896 
G01 X-70.4282 Y26.0966 
G01 X-70.2502 Y26.1703 
G01 X-70.0613 Y26.2079 
G01 X-69.8687 Y26.2079 
G01 X-69.6798 Y26.1703 
G01 X-69.5018 Y26.0966 
G01 X-69.3416 Y25.9896 
G00 Z2.5400 
G00 X-69.3416 Y27.0104 
G01 Z-0.0254 F254.00 
G01 X-69.5018 Y26.9034 F508.00 
G01 X-69.6798 Y26.8297 
G01 X-69.8687 Y26.7921 
G01 X-70.0613 Y26.7921 
G01 X-70.2502 Y26.8297 
G01 X-70.4282 Y26.9034 
G01 X-70.5884 Y27.0104 
G01 X-70.7246 Y27.1466 
G01 X-70.8316 Y27.3068 
G01 X-70.9053 Y27.4848 
G01 X-70.9429 Y27.6737 
G01 X-70.9429 Y29.6443 
G01 X-70.9053 Y29.8332 
G01 X-70.8316 Y30.0112 
G01 X-70.7246 Y30.1714 
G01 X-70.5884 Y30.3076 
G01 X-70.4282 Y30.4146 
G01 X-70.2502 Y30.4883 
G01 X-70.0613 Y30.5259 
G01 X-69.8687 Y30.5259 
G01 X-69.6798 Y30.4883 
G01 X-69.5018 Y30.4146 
G01 X-69.3416 Y30.3076 
G01 X-69.2054 Y30.1714 
G01 X-69.0984 Y30.0112 
G01 X-69.0247 Y29.8332 
G01 X-68.9871 Y29.6443 
G01 X-68.9871 Y27.6737 
G01 X-69.0247 Y27.4848 
G01 X-69.0984 Y27.3068 
G01 X-69.2054 Y27.1466 
G01 X-69.3416 Y27.0104 
G00 Z2.5400 
G00 X-81.0599 Y21.4469 
G01 Z-0.0254 F254.00 
G01 X-81.3041 Y21.6911 F508.00 
G01 X-81.6233 Y21.8233 
G01 X-83.4767 Y21.8233 
G01 X-83.7959 Y21.6911 
G01 X-84.0401 Y21.4469 
G01 X-84.1723 Y21.1277 
G01 X-84.1723 Y20.7823 
G01 X-84.0401 Y20.4631 
G01 X-83.7959 Y20.2189 
G01 X-83.4767 Y20.0867 
G01 X-81.6233 Y20.0867 
G01 X-81.3041 Y20.2189 
G01 X-81.0599 Y20.4631 
G01 X-80.9277 Y20.7823 
G01 X-80.9277 Y21.1277 
G01 X-81.0599 Y21.4469 
G00 Z2.5400 
G00 X-81.0490 Y21.3543 
G01 Z-0.0254 F254.00 
G01 X-80.9855 Y21.2009 F508.00 
G01 X-80.9531 Y21.0380 
G01 X-80.9531 Y20.8720 
G01 X-80.9855 Y20.7091 
G01 X-81.0490 Y20.5557 
G01 X-81.1413 Y20.4177 
G01 X-81.2587 Y20.3003 
G01 X-81.3967 Y20.2080 
G01 X-81.5501 Y20.1445 
G01 X-81.7130 Y20.1121 
G01 X-83.3870 Y20.1121 
G01 X-83.5499 Y20.1445 
G01 X-83.7033 Y20.2080 
G01 X-83.8413 Y20.3003 
G01 X-83.9587 Y20.4177 
G01 X-84.0510 Y20.5557 
G01 X-84.1145 Y20.7091 
G01 X-84.1469 Y20.8720 
G01 X-84.1469 Y21.0380 
G01 X-84.1145 Y21.2009 
G01 X-84.0510 Y21.3543 
G01 X-83.9587 Y21.4923 
G01 X-83.8413 Y21.6097 
G01 X-83.7033 Y21.7020 
G01 X-83.5499 Y21.7655 
G01 X-83.3870 Y21.7979 
G01 X-81.7130 Y21.7979 
G01 X-81.5501 Y21.7655 
G01 X-81.3967 Y21.7020 
G01 X-81.2587 Y21.6097 
G01 X-81.1413 Y21.4923 
G01 X-81.0490 Y21.3543 
G00 Z2.5400 
G00 X-81.4968 Y18.5083 
G01 Z-0.0254 F254.00 
G01 X-81.9487 Y18.9602 F508.00 
G01 X-82.5022 Y19.2797 
G01 X-83.1195 Y19.4451 
G01 X-83.7585 Y19.4451 
G01 X-84.3758 Y19.2797 
G01 X-84.9293 Y18.9602 
G01 X-85.3812 Y18.5083 
G01 X-85.7007 Y17.9548 
G01 X-85.8661 Y17.3375 
G01 X-85.8661 Y16.6985 
G01 X-85.7007 Y16.0812 
G01 X-85.3812 Y15.5277 
G01 X-84.9293 Y15.0758 
G01 X-84.3758 Y14.7563 
G01 X-83.7585 Y14.5909 
G01 X-83.1195 Y14.5909 
G01 X-82.5022 Y14.7563 
G01 X-81.9487 Y15.0758 
G01 X-81.4968 Y15.5277 
G01 X-81.1773 Y16.0812 
G01 X-81.0119 Y16.6985 
G01 X-81.0119 Y17.3375 
G01 X-81.1773 Y17.9548 
G01 X-81.4968 Y18.5083 
G00 Z2.5400 
G00 X-29.9484 Y22.6924 
G01 Z-0.0254 F254.00 
G01 X-30.0846 Y22.8286 F508.00 
G01 X-30.1916 Y22.9888 
G01 X-30.2653 Y23.1668 
G01 X-30.3029 Y23.3557 
G01 X-30.3029 Y25.3263 
G01 X-30.2653 Y25.5152 
G01 X-30.1916 Y25.6932 
G01 X-30.0846 Y25.8534 
G01 X-29.9484 Y25.9896 
G01 X-29.7882 Y26.0966 
G01 X-29.6102 Y26.1703 
G01 X-29.4213 Y26.2079 
G01 X-29.2287 Y26.2079 
G01 X-29.0398 Y26.1703 
G01 X-28.8618 Y26.0966 
G01 X-28.7016 Y25.9896 
G01 X-28.5654 Y25.8534 
G01 X-28.4584 Y25.6932 
G01 X-28.3847 Y25.5152 
G01 X-28.3471 Y25.3263 
G01 X-28.3471 Y23.3557 
G01 X-28.3847 Y23.1668 
G01 X-28.4584 Y22.9888 
G01 X-28.5654 Y22.8286 
G01 X-28.7016 Y22.6924 
G01 X-28.8618 Y22.5854 
G01 X-29.0398 Y22.5117 
G01 X-29.2287 Y22.4741 
G01 X-29.4213 Y22.4741 
G01 X-29.6102 Y22.5117 
G01 X-29.7882 Y22.5854 
G01 X-29.9484 Y22.6924 
G00 Z2.5400 
G00 X-22.3284 Y22.6924 
G01 Z-0.0254 F254.00 
G01 X-22.4646 Y22.8286 F508.00 
G01 X-22.5716 Y22.9888 
G01 X-22.6453 Y23.1668 
G01 X-22.6829 Y23.3557 
G01 X-22.6829 Y25.3263 
G01 X-22.6453 Y25.5152 
G01 X-22.5716 Y25.6932 
G01 X-22.4646 Y25.8534 
G01 X-22.3284 Y25.9896 
G01 X-22.1682 Y26.0966 
G01 X-21.9902 Y26.1703 
G01 X-21.8013 Y26.2079 
G01 X-21.6087 Y26.2079 
G01 X-21.4198 Y26.1703 
G01 X-21.2418 Y26.0966 
G01 X-21.0816 Y25.9896 
G01 X-20.9454 Y25.8534 
G01 X-20.8384 Y25.6932 
G01 X-20.7647 Y25.5152 
G01 X-20.7271 Y25.3263 
G01 X-20.7271 Y23.3557 
G01 X-20.7647 Y23.1668 
G01 X-20.8384 Y22.9888 
G01 X-20.9454 Y22.8286 
G01 X-21.0816 Y22.6924 
G01 X-21.2418 Y22.5854 
G01 X-21.4198 Y22.5117 
G01 X-21.6087 Y22.4741 
G01 X-21.8013 Y22.4741 
G01 X-21.9902 Y22.5117 
G01 X-22.1682 Y22.5854 
G01 X-22.3284 Y22.6924 
G00 Z2.5400 
G00 Z2.540000
G00 X-82.5500 Y31.1150 
G01 Z-0.0025 F508.00 
G01 Z2.540000
(R2.5400  P0.500000)
G00 X-82.5500 Y28.5750 
G01 Z-0.500000
G01 Z2.540000
G00 X-82.5500 Y26.0350 
G01 Z-0.500000
G01 Z2.540000
G00 X-82.5500 Y23.4950 
G01 Z-0.500000
G01 Z2.540000
G00 X-82.5500 Y20.9550 
G01 Z-0.500000
G01 Z2.540000
G00 X-83.4390 Y35.0520 
G01 Z-0.500000
G01 Z2.540000
G00 X-83.4390 Y17.0180 
G01 Z-0.500000
G01 Z2.540000
G00 X-21.7050 Y25.2300 
G01 Z-0.500000
G01 Z2.540000
G00 X-21.7050 Y27.7700 
G01 Z-0.500000
G01 Z2.540000
G00 X-24.2450 Y25.2300 
G01 Z-0.500000
G01 Z2.540000
G00 X-24.2450 Y27.7700 
G01 Z-0.500000
G01 Z2.540000
G00 X-26.7850 Y25.2300 
G01 Z-0.500000
G01 Z2.540000
G00 X-26.7850 Y27.7700 
G01 Z-0.500000
G01 Z2.540000
G00 X-29.3250 Y25.2300 
G01 Z-0.500000
G01 Z2.540000
G00 X-29.3250 Y27.7700 
G01 Z-0.500000
G01 Z2.540000
G00 X-31.8650 Y25.2300 
G01 Z-0.500000
G01 Z2.540000
G00 X-31.8650 Y27.7700 
G01 Z-0.500000
G01 Z2.540000
G00 X-34.4050 Y25.2300 
G01 Z-0.500000
G01 Z2.540000
G00 X-34.4050 Y27.7700 
G01 Z-0.500000
G01 Z2.540000
G00 X-36.9450 Y25.2300 
G01 Z-0.500000
G01 Z2.540000
G00 X-36.9450 Y27.7700 
G01 Z-0.500000
G01 Z2.540000
G00 X-39.4850 Y25.2300 
G01 Z-0.500000
G01 Z2.540000
G00 X-39.4850 Y27.7700 
G01 Z-0.500000
G01 Z2.540000
G00 X-42.0250 Y25.2300 
G01 Z-0.500000
G01 Z2.540000
G00 X-42.0250 Y27.7700 
G01 Z-0.500000
G01 Z2.540000
G00 X-44.5650 Y25.2300 
G01 Z-0.500000
G01 Z2.540000
G00 X-44.5650 Y27.7700 
G01 Z-0.500000
G01 Z2.540000
G00 X-47.1050 Y25.2300 
G01 Z-0.500000
G01 Z2.540000
G00 X-47.1050 Y27.7700 
G01 Z-0.500000
G01 Z2.540000
G00 X-49.6450 Y25.2300 
G01 Z-0.500000
G01 Z2.540000
G00 X-49.6450 Y27.7700 
G01 Z-0.500000
G01 Z2.540000
G00 X-52.1850 Y25.2300 
G01 Z-0.500000
G01 Z2.540000
G00 X-52.1850 Y27.7700 
G01 Z-0.500000
G01 Z2.540000
G00 X-54.7250 Y25.2300 
G01 Z-0.500000
G01 Z2.540000
G00 X-54.7250 Y27.7700 
G01 Z-0.500000
G01 Z2.540000
G00 X-57.2650 Y25.2300 
G01 Z-0.500000
G01 Z2.540000
G00 X-57.2650 Y27.7700 
G01 Z-0.500000
G01 Z2.540000
G00 X-59.8050 Y25.2300 
G01 Z-0.500000
G01 Z2.540000
G00 X-59.8050 Y27.7700 
G01 Z-0.500000
G01 Z2.540000
G00 X-62.3450 Y25.2300 
G01 Z-0.500000
G01 Z2.540000
G00 X-62.3450 Y27.7700 
G01 Z-0.500000
G01 Z2.540000
G00 X-64.8850 Y25.2300 
G01 Z-0.500000
G01 Z2.540000
G00 X-64.8850 Y27.7700 
G01 Z-0.500000
G01 Z2.540000
G00 X-67.4250 Y25.2300 
G01 Z-0.500000
G01 Z2.540000
G00 X-67.4250 Y27.7700 
G01 Z-0.500000
G01 Z2.540000
G00 X-69.9650 Y25.2300 
G01 Z-0.500000
G01 Z2.540000
G00 X-69.9650 Y27.7700 
G01 Z-0.500000
G01 Z2.540000
G00 X-9.5250 Y33.6550 
G01 Z-0.500000
G01 Z2.540000
G00 X-9.5250 Y20.9550 
G01 Z-0.500000
G01 Z2.540000
G00 X-9.5250 Y36.1950 
G01 Z-0.500000
G01 Z2.540000
G00 X-9.5250 Y23.4950 
G01 Z-0.500000
G01 Z2.540000
G00 X-9.5250 Y26.0350 
G01 Z-0.500000
G01 Z2.540000
G00 X-9.5250 Y18.4150 
G01 Z-0.500000
G01 Z2.540000
G00 X-9.5250 Y31.1150 
G01 Z-0.500000
G01 Z2.540000
G00 X-9.5250 Y28.5750 
G01 Z-0.500000
G01 Z2.540000
G00 Z12.7000 
M05
M02
